data/luts/cinematic.cube
TITLE "Cinematic"
LUT_3D_SIZE 5
0.000800 0.020000 0.044000
0.218937 0.020000 0.033513
0.447961 0.020000 0.022502
0.664403 0.026404 0.026404
0.875262 0.037976 0.037976
0.011913 0.253367 0.054152
0.253855 0.263322 0.053912
0.481714 0.273256 0.054048
0.696228 0.283171 0.064073
0.906650 0.293068 0.074843
0.050729 0.495545 0.089608
0.288533 0.505156 0.088904
0.514759 0.514759 0.089368
0.727978 0.524352 0.099918
0.937981 0.533936 0.110399
0.087891 0.731409 0.123554
0.323002 0.740831 0.122709
0.546995 0.750247 0.124599
0.759656 0.759656 0.134947
0.969259 0.769060 0.145249
0.124251 0.963351 0.156768
0.357288 0.972641 0.155850
0.579132 0.981927 0.159234
0.791268 0.991209 0.169442
1.000000 1.000000 0.179614
0.000800 0.020000 0.247126
0.222474 0.020000 0.246491
0.451374 0.020000 0.245485
0.667619 0.030401 0.253124
0.878434 0.041804 0.263079
0.015986 0.256750 0.280020
0.257366 0.266698 0.278363
0.485115 0.276626 0.277341
0.699436 0.286534 0.286534
0.909815 0.296424 0.296424
0.054531 0.498810 0.311554
0.292021 0.508419 0.310019
0.518018 0.518018 0.309887
0.731179 0.527608 0.319736
0.941141 0.537189 0.329569
0.091592 0.734610 0.342953
0.326471 0.744029 0.341488
0.550243 0.753443 0.342957
0.762851 0.762851 0.352755
0.972414 0.772252 0.362537
0.127889 0.966506 0.374208
0.360739 0.975795 0.372791
0.582371 0.985080 0.375859
0.794455 0.994360 0.385610
1.000000 1.000000 0.395347
0.000800 0.020000 0.461187
0.226008 0.020000 0.460034
0.454786 0.022501 0.458699
0.670834 0.034322 0.466178
0.881604 0.045598 0.475820
0.020004 0.260131 0.492766
0.260875 0.270072 0.490824
0.488514 0.279993 0.489508
0.702644 0.289895 0.498575
0.912980 0.299779 0.508184
0.058319 0.502074 0.523309
0.295508 0.511679 0.521511
0.521276 0.521276 0.521276
0.734379 0.530862 0.530862
0.944301 0.540440 0.540440
0.095285 0.737809 0.553808
0.329938 0.747227 0.552101
0.553491 0.756639 0.553491
0.766044 0.766044 0.563048
0.975568 0.775444 0.572597
0.131522 0.969661 0.584241
0.364189 0.978949 0.582601
0.585609 0.988232 0.585609
0.797642 0.997511 0.595139
1.000000 1.000000 0.604661
0.000800 0.020000 0.669624
0.229540 0.020000 0.668109
0.458197 0.026628 0.666591
0.674049 0.038189 0.674049
0.884774 0.049364 0.683510
0.023980 0.263509 0.700380
0.264381 0.273443 0.698281
0.491913 0.283358 0.696794
0.705851 0.293254 0.705851
0.916144 0.303132 0.715290
0.062095 0.505337 0.730341
0.298992 0.514939 0.728388
0.524532 0.524532 0.728155
0.737579 0.534116 0.737579
0.947459 0.543691 0.746997
0.098971 0.741008 0.760289
0.333404 0.750424 0.758433
0.556738 0.759833 0.759833
0.769237 0.769237 0.769237
0.978722 0.778635 0.778635
0.135149 0.972816 0.790200
0.367638 0.982102 0.788418
0.588846 0.991384 0.791444
0.800828 1.000000 0.800828
1.000000 1.000000 0.810207
0.000800 0.020000 0.874576
0.233068 0.020000 0.872759
0.461606 0.030620 0.871116
0.677263 0.042015 0.878609
0.887943 0.053107 0.887943
0.027923 0.266885 0.904704
0.267885 0.276812 0.902500
0.495310 0.286720 0.900893
0.709057 0.296610 0.909990
0.919308 0.306482 0.919308
0.065860 0.508599 0.934255
0.302475 0.518198 0.932195
0.527788 0.527788 0.932010
0.740778 0.537369 0.941316
0.950618 0.546941 0.950618
0.102650 0.744207 0.963806
0.336868 0.753620 0.961846
0.559983 0.763028 0.963298
0.772429 0.772429 0.972589
0.981875 0.781825 0.981875
0.138772 0.975970 0.993337
0.371085 0.985255 0.991453
0.592083 0.994535 0.994535
0.804014 1.000000 1.000000
1.000000 1.000000 1.000000
