data/luts/cinematic.cube
TITLE "Cinematic"
LUT_3D_SIZE 17
0.000800 0.020000 0.044000
0.038065 0.020000 0.042208
0.100087 0.020000 0.039227
0.160081 0.020000 0.036342
0.218937 0.020000 0.033513
0.277000 0.020000 0.030721
0.334454 0.020000 0.027959
0.391414 0.020000 0.025220
0.447961 0.020000 0.022502
0.503992 0.020000 0.020000
0.557721 0.020169 0.020169
0.611182 0.023379 0.023379
0.664403 0.026404 0.026404
0.717404 0.029356 0.029356
0.770204 0.032261 0.032261
0.822819 0.035132 0.035132
0.875262 0.037976 0.037976
0.000800 0.062273 0.044000
0.047581 0.064982 0.041751
0.109181 0.067683 0.038789
0.168970 0.070376 0.035915
0.227691 0.073063 0.033092
0.285653 0.075742 0.030305
0.343027 0.078415 0.027547
0.399921 0.081082 0.026195
0.456411 0.083743 0.026587
0.512070 0.086399 0.027485
0.565756 0.089049 0.030418
0.619180 0.091694 0.033310
0.672366 0.094334 0.036170
0.725336 0.096970 0.039005
0.778108 0.099601 0.041820
0.830696 0.102228 0.044616
0.883115 0.104851 0.047396
0.000800 0.127748 0.044000
0.057000 0.130335 0.041298
0.118237 0.132920 0.038354
0.177836 0.135502 0.035489
0.236428 0.138081 0.035208
0.294293 0.140657 0.035480
0.351589 0.143231 0.035693
0.408418 0.145802 0.035878
0.464853 0.148370 0.036044
0.520140 0.150935 0.037205
0.573786 0.153499 0.040032
0.627172 0.156059 0.042839
0.680325 0.158617 0.045629
0.733264 0.161173 0.048404
0.786007 0.163727 0.051166
0.838569 0.166278 0.053915
0.890963 0.168827 0.056653
0.001309 0.191148 0.044465
0.066341 0.193678 0.044511
0.127258 0.196205 0.044598
0.186680 0.198731 0.044689
0.245149 0.201255 0.044779
0.302920 0.203777 0.044870
0.360141 0.206297 0.044961
0.416907 0.208816 0.045051
0.473288 0.211333 0.045141
0.528205 0.213848 0.046641
0.581809 0.216362 0.049411
0.635159 0.218874 0.052168
0.688279 0.221384 0.054913
0.741187 0.223893 0.057647
0.793902 0.226401 0.060372
0.846439 0.228907 0.063087
0.898808 0.231411 0.065794
0.011913 0.253367 0.054152
0.075615 0.255858 0.053978
0.136248 0.258347 0.053921
0.195503 0.260835 0.053905
0.253855 0.263322 0.053912
0.311536 0.265807 0.053933
0.368682 0.268292 0.053965
0.425387 0.270775 0.054004
0.481714 0.273256 0.054048
0.536262 0.275737 0.055910
0.589827 0.278216 0.058640
0.643141 0.280694 0.061361
0.696228 0.283171 0.064073
0.749106 0.285647 0.066777
0.801794 0.288122 0.069473
0.854304 0.290595 0.072162
0.906650 0.293068 0.074843
0.021903 0.314757 0.063277
0.084832 0.317219 0.063057
0.145207 0.319680 0.062943
0.204306 0.322140 0.062876
0.262545 0.324599 0.062836
0.320139 0.327056 0.062815
0.377214 0.329513 0.062808
0.433859 0.331969 0.062812
0.490134 0.334424 0.062824
0.544314 0.336878 0.065059
0.597839 0.339331 0.067760
0.651118 0.341783 0.070453
0.704172 0.344234 0.073139
0.757021 0.346684 0.075818
0.809681 0.349134 0.078491
0.862166 0.351582 0.081158
0.914488 0.354030 0.083819
0.031653 0.375510 0.072183
0.093999 0.377949 0.071941
0.154139 0.380387 0.071794
0.213090 0.382824 0.071693
0.271222 0.385261 0.071622
0.328730 0.387696 0.071571
0.385736 0.390131 0.071536
0.442322 0.392565 0.071514
0.498546 0.394999 0.071501
0.552359 0.397431 0.074115
0.605846 0.399863 0.076792
0.659089 0.402294 0.079463
0.712112 0.404724 0.082127
0.764931 0.407153 0.084786
0.817564 0.409582 0.087440
0.870024 0.412010 0.090088
0.922322 0.414437 0.092731
0.041247 0.435744 0.080947
0.103121 0.438165 0.080693
0.163045 0.440584 0.080523
0.221855 0.443002 0.080398
0.279884 0.445420 0.080304
0.337311 0.447838 0.080231
0.394249 0.450254 0.080175
0.450777 0.452670 0.080131
0.506684 0.455085 0.080433
0.560398 0.457500 0.083096
0.613847 0.459914 0.085753
0.667056 0.462327 0.088404
0.720047 0.464740 0.091051
0.772838 0.467152 0.093692
0.825444 0.469563 0.096329
0.877878 0.471973 0.098961
0.930153 0.474383 0.101589
0.050729 0.495545 0.089608
0.112202 0.497948 0.089345
0.171926 0.500352 0.089159
0.230604 0.502754 0.089017
0.288533 0.505156 0.088904
0.345880 0.507558 0.088813
0.402753 0.509959 0.088739
0.459224 0.512359 0.088679
0.514759 0.514759 0.089368
0.568432 0.517158 0.092013
0.621843 0.519557 0.094653
0.675018 0.521954 0.097288
0.727978 0.524352 0.099918
0.780740 0.526749 0.102545
0.833319 0.529145 0.105167
0.885729 0.531541 0.107785
0.937981 0.533936 0.110399
0.060120 0.554970 0.098187
0.121246 0.557360 0.097918
0.180785 0.559749 0.097719
0.239335 0.562138 0.097563
0.297168 0.564526 0.097435
0.354439 0.566914 0.097330
0.411247 0.569301 0.097241
0.467664 0.571687 0.097167
0.522827 0.574074 0.098246
0.576459 0.576459 0.100875
0.629833 0.578844 0.103500
0.682975 0.581229 0.106120
0.735904 0.583613 0.108737
0.788638 0.585997 0.111350
0.841191 0.588380 0.113959
0.893577 0.590762 0.116564
0.945806 0.593144 0.119166
0.069437 0.614066 0.106698
0.130256 0.616444 0.106425
0.189621 0.618821 0.106216
0.248051 0.621197 0.106048
0.305792 0.623573 0.105909
0.362987 0.625948 0.105791
0.419733 0.628323 0.105690
0.476095 0.630698 0.105604
0.530889 0.633072 0.107073
0.584481 0.635446 0.109689
0.637819 0.637819 0.112300
0.690927 0.640191 0.114908
0.743826 0.642564 0.117512
0.796532 0.644935 0.120113
0.849059 0.647307 0.122710
0.901421 0.649678 0.125304
0.953627 0.652048 0.127895
0.078692 0.672870 0.115151
0.139235 0.675236 0.114875
0.198437 0.677602 0.114659
0.256751 0.679967 0.114481
0.314403 0.682332 0.114331
0.371526 0.684696 0.114203
0.428210 0.687060 0.114091
0.484520 0.689424 0.113994
0.538945 0.691787 0.115856
0.592497 0.694150 0.118459
0.645799 0.696512 0.121059
0.698874 0.698874 0.123655
0.751743 0.701236 0.126248
0.804421 0.703597 0.128837
0.856923 0.705958 0.131424
0.909261 0.708318 0.134007
0.961445 0.710678 0.136588
0.087891 0.731409 0.123554
0.148186 0.733765 0.123276
0.207234 0.736121 0.123053
0.265437 0.738476 0.122868
0.323002 0.740831 0.122709
0.380054 0.743186 0.122571
0.436679 0.745540 0.122450
0.492937 0.747893 0.122344
0.546995 0.750247 0.124599
0.600507 0.752600 0.127191
0.653774 0.754952 0.129779
0.706817 0.757305 0.132365
0.759656 0.759656 0.134947
0.812307 0.762008 0.137527
0.864784 0.764359 0.140104
0.917098 0.766710 0.142678
0.969259 0.769060 0.145249
0.097042 0.789708 0.131914
0.157108 0.792055 0.131633
0.216011 0.794402 0.131405
0.274109 0.796748 0.131212
0.331590 0.799094 0.131046
0.388573 0.801439 0.130900
0.445139 0.803784 0.130771
0.501295 0.806129 0.130721
0.555038 0.808473 0.133305
0.608512 0.810817 0.135887
0.661744 0.813161 0.138465
0.714755 0.815504 0.141041
0.767565 0.817847 0.143614
0.820189 0.820189 0.146185
0.872641 0.822532 0.148752
0.924931 0.824874 0.151318
0.977071 0.827215 0.153880
0.106150 0.847788 0.140233
0.166006 0.850126 0.139951
0.224771 0.852464 0.139719
0.282766 0.854801 0.139520
0.340166 0.857139 0.139346
0.397083 0.859476 0.139193
0.453592 0.861812 0.139057
0.509374 0.864149 0.139403
0.563075 0.866485 0.141978
0.616511 0.868820 0.144550
0.669709 0.871156 0.147120
0.722689 0.873491 0.149687
0.775470 0.875826 0.152251
0.828068 0.878160 0.154813
0.880494 0.880494 0.157372
0.932761 0.882828 0.159929
0.984879 0.885161 0.162484
0.115218 0.905663 0.148517
0.174880 0.907994 0.148234
0.233514 0.910324 0.147997
0.291411 0.912654 0.147793
0.348732 0.914983 0.147614
0.405583 0.917312 0.147454
0.462036 0.919641 0.147311
0.517447 0.921970 0.148055
0.571107 0.924298 0.150620
0.624505 0.926626 0.153184
0.677669 0.928954 0.155745
0.730618 0.931281 0.158303
0.783371 0.933608 0.160859
0.835942 0.935935 0.163413
0.888344 0.938262 0.165965
0.940588 0.940588 0.168514
0.992684 0.942914 0.171061
0.124251 0.963351 0.156768
0.183731 0.965674 0.156484
0.242240 0.967997 0.156244
0.300042 0.970319 0.156035
0.357288 0.972641 0.155850
0.414075 0.974963 0.155685
0.470473 0.977285 0.155536
0.525514 0.979606 0.156677
0.579132 0.981927 0.159234
0.632494 0.984248 0.161789
0.685624 0.986569 0.164342
0.738543 0.988889 0.166893
0.791268 0.991209 0.169442
0.843812 0.993529 0.171988
0.896190 0.995848 0.174532
0.948411 0.998167 0.177074
1.000000 1.000000 0.179614
0.000800 0.020000 0.078023
0.039031 0.020000 0.078923
0.101007 0.020000 0.078671
0.160979 0.020000 0.078505
0.219822 0.020000 0.078386
0.277874 0.020000 0.078296
0.335320 0.020000 0.078228
0.392274 0.020000 0.078176
0.448815 0.020000 0.078137
0.504808 0.020000 0.078350
0.558533 0.021304 0.081017
0.611990 0.024417 0.083678
0.665207 0.027412 0.086334
0.718205 0.030347 0.088984
0.771002 0.033239 0.091630
0.823615 0.036100 0.094270
0.876055 0.038936 0.096906
0.000800 0.063194 0.087194
0.048536 0.065900 0.087605
0.110097 0.068598 0.087344
0.169866 0.071289 0.087161
0.228574 0.073973 0.087023
0.286526 0.076651 0.086914
0.343891 0.079321 0.086827
0.400779 0.081986 0.086757
0.457264 0.084646 0.086700
0.512885 0.087299 0.087299
0.566567 0.089948 0.089948
0.619987 0.092591 0.092591
0.673170 0.095230 0.095230
0.726137 0.097864 0.097864
0.778905 0.100494 0.100494
0.831491 0.103119 0.103119
0.883907 0.105740 0.105740
0.000800 0.128627 0.096267
0.057947 0.131214 0.096201
0.119149 0.133797 0.095934
0.178730 0.136378 0.095738
0.237310 0.138956 0.095585
0.295165 0.141532 0.095460
0.352453 0.144104 0.095358
0.409276 0.146674 0.095273
0.465705 0.149241 0.095201
0.520955 0.151806 0.096190
0.574596 0.154368 0.098822
0.627979 0.156928 0.101450
0.681128 0.159486 0.104074
0.734064 0.162041 0.106694
0.786804 0.164593 0.109309
0.839364 0.167144 0.111921
0.891755 0.169692 0.114530
0.002465 0.192008 0.105182
0.067280 0.194536 0.104727
0.128167 0.197063 0.104455
0.187572 0.199588 0.104249
0.246029 0.202111 0.104083
0.303791 0.204633 0.103946
0.361004 0.207153 0.103831
0.417764 0.209671 0.103733
0.474139 0.212187 0.103649
0.529018 0.214702 0.105028
0.582619 0.217215 0.107646
0.635965 0.219727 0.110261
0.689081 0.222237 0.112871
0.741987 0.224745 0.115478
0.794699 0.227252 0.118082
0.847233 0.229757 0.120682
0.899600 0.232261 0.123278
0.012938 0.254213 0.113608
0.076548 0.256704 0.113193
0.137153 0.259192 0.112918
0.196392 0.261680 0.112703
0.254733 0.264166 0.112528
0.312405 0.266651 0.112380
0.369544 0.269135 0.112254
0.426243 0.271618 0.112145
0.482565 0.274099 0.112050
0.537075 0.276579 0.113821
0.590636 0.279058 0.116427
0.643947 0.281536 0.119029
0.697030 0.284012 0.121627
0.749905 0.286488 0.124223
0.802590 0.288962 0.126815
0.855098 0.291435 0.129404
0.907441 0.293907 0.131990
0.022896 0.315593 0.122002
0.085760 0.318055 0.121608
0.146110 0.320515 0.121330
0.205193 0.322975 0.121108
0.263422 0.325433 0.120924
0.321007 0.327891 0.120767
0.378075 0.330347 0.120632
0.434713 0.332803 0.120513
0.490983 0.335258 0.120409
0.545126 0.337711 0.122573
0.598648 0.340164 0.125167
0.651923 0.342616 0.127758
0.704974 0.345066 0.130346
0.757820 0.347516 0.132931
0.810477 0.349965 0.135512
0.862959 0.352413 0.138091
0.915279 0.354860 0.140668
0.032627 0.376338 0.130357
0.094922 0.378777 0.129977
0.155039 0.381215 0.129697
0.213975 0.383652 0.129470
0.272097 0.386088 0.129278
0.329597 0.388523 0.129114
0.386596 0.390958 0.128970
0.443176 0.393392 0.128842
0.499395 0.395825 0.128729
0.553171 0.398257 0.131287
0.606654 0.400688 0.133871
0.659894 0.403119 0.136452
0.712913 0.405549 0.139030
0.765730 0.407978 0.141605
0.818360 0.410407 0.144177
0.870817 0.412834 0.146747
0.923113 0.415261 0.149314
0.042209 0.436566 0.138676
0.104039 0.438986 0.138305
0.163942 0.441405 0.138023
0.222739 0.443824 0.137792
0.280757 0.446241 0.137594
0.338176 0.448658 0.137422
0.395108 0.451075 0.137271
0.451630 0.453490 0.137136
0.507499 0.455905 0.137391
0.561210 0.458320 0.139968
0.614655 0.460733 0.142542
0.667860 0.463146 0.145113
0.720848 0.465559 0.147682
0.773635 0.467971 0.150248
0.826239 0.470382 0.152812
0.878671 0.472792 0.155373
0.930944 0.475202 0.157932
0.051680 0.496361 0.146960
0.113116 0.498765 0.146597
0.172822 0.501168 0.146314
0.231486 0.503570 0.146078
0.289405 0.505972 0.145875
0.346745 0.508373 0.145697
0.403611 0.510774 0.145539
0.460077 0.513174 0.145398
0.515574 0.515574 0.146049
0.569242 0.517973 0.148617
0.622650 0.520371 0.151182
0.675821 0.522769 0.153745
0.728778 0.525166 0.156305
0.781537 0.527563 0.158863
0.834114 0.529959 0.161419
0.886522 0.532354 0.163972
0.938771 0.534749 0.166523
0.061064 0.555782 0.155212
0.122157 0.558171 0.154855
0.181678 0.560560 0.154571
0.240216 0.562949 0.154332
0.298039 0.565337 0.154124
0.355302 0.567724 0.153941
0.412104 0.570111 0.153777
0.468515 0.572498 0.153629
0.523642 0.574884 0.154677
0.577269 0.577269 0.157237
0.630640 0.579654 0.159794
0.683778 0.582039 0.162349
0.736704 0.584423 0.164901
0.789435 0.586806 0.167451
0.841986 0.589189 0.169999
0.894369 0.591571 0.172545
0.946595 0.593953 0.175089
0.070374 0.614874 0.163434
0.131164 0.617251 0.163083
0.190512 0.619628 0.162798
0.248930 0.622004 0.162555
0.306661 0.624380 0.162343
0.363850 0.626755 0.162155
0.420589 0.629130 0.161986
0.476946 0.631504 0.161833
0.531703 0.633878 0.163278
0.585290 0.636252 0.165830
0.638625 0.638625 0.168379
0.691729 0.640997 0.170927
0.744625 0.643369 0.173472
0.797328 0.645741 0.176015
0.849853 0.648112 0.178556
0.902212 0.650483 0.181095
0.954416 0.652853 0.183631
0.079623 0.673673 0.171629
0.140140 0.676039 0.171282
0.199326 0.678405 0.170997
0.257629 0.680770 0.170751
0.315271 0.683135 0.170536
0.372387 0.685499 0.170343
0.429065 0.687863 0.170169
0.485370 0.690227 0.170010
0.539758 0.692590 0.171853
0.593306 0.694952 0.174398
0.646604 0.697315 0.176940
0.699676 0.699676 0.179480
0.752542 0.702038 0.182018
0.805218 0.704399 0.184555
0.857717 0.706760 0.187089
0.910052 0.709120 0.189621
0.962234 0.711480 0.192151
0.088817 0.732209 0.179798
0.149087 0.734565 0.179455
0.208121 0.736921 0.179169
0.266313 0.739276 0.178921
0.323869 0.741631 0.178702
0.380915 0.743985 0.178505
0.437533 0.746339 0.178327
0.493786 0.748693 0.178164
0.547807 0.751046 0.180404
0.601315 0.753399 0.182942
0.654579 0.755751 0.185477
0.707619 0.758103 0.188011
0.760455 0.760455 0.190542
0.813103 0.762806 0.193072
0.865577 0.765157 0.195600
0.917889 0.767508 0.198126
0.970048 0.769858 0.200650
0.097964 0.790506 0.187943
0.158008 0.792852 0.187603
0.216897 0.795199 0.187317
0.274983 0.797544 0.187067
0.332456 0.799890 0.186845
0.389433 0.802235 0.186644
0.445993 0.804580 0.186462
0.502111 0.806925 0.186400
0.555850 0.809269 0.188933
0.609320 0.811613 0.191464
0.662548 0.813956 0.193993
0.715557 0.816300 0.196520
0.768364 0.818642 0.199045
0.820985 0.820985 0.201569
0.873434 0.823327 0.204091
0.925722 0.825669 0.206611
0.977859 0.828010 0.209129
0.107067 0.848582 0.196065
0.166903 0.850920 0.195729
0.225655 0.853258 0.195442
0.283640 0.855595 0.195190
0.341032 0.857932 0.194965
0.397941 0.860269 0.194761
0.454445 0.862606 0.194575
0.510190 0.864942 0.194913
0.563886 0.867278 0.197440
0.617319 0.869614 0.199964
0.670513 0.871949 0.202487
0.723490 0.874284 0.205009
0.776268 0.876618 0.207528
0.828863 0.878953 0.210046
0.881287 0.881287 0.212562
0.933552 0.883620 0.215077
0.985667 0.885954 0.217590
0.116132 0.906455 0.204166
0.175774 0.908785 0.203832
0.234396 0.911115 0.203545
0.292283 0.913445 0.203292
0.349596 0.915774 0.203064
0.406441 0.918103 0.202857
0.462888 0.920432 0.202667
0.518262 0.922761 0.203405
0.571917 0.925089 0.205926
0.625312 0.927417 0.208445
0.678472 0.929744 0.210962
0.731419 0.932072 0.213478
0.784168 0.934399 0.215992
0.836737 0.936725 0.218504
0.889136 0.939052 0.221015
0.941378 0.941378 0.223524
0.993472 0.943704 0.226032
0.125161 0.964140 0.212247
0.184623 0.966463 0.211915
0.243120 0.968785 0.211628
0.300913 0.971108 0.211373
0.358151 0.973430 0.211143
0.414932 0.975752 0.210933
0.471325 0.978073 0.210740
0.526328 0.980395 0.211878
0.579942 0.982716 0.214393
0.633300 0.985036 0.216907
0.686427 0.987357 0.219418
0.739343 0.989677 0.221928
0.792065 0.991997 0.224437
0.844607 0.994317 0.226944
0.896982 0.996636 0.229450
0.949201 0.998955 0.231954
1.000000 1.000000 0.234456
0.000800 0.020000 0.136024
0.039996 0.020000 0.136748
0.101926 0.020000 0.136375
0.161878 0.020000 0.136094
0.220706 0.020000 0.135863
0.278748 0.020000 0.135667
0.336185 0.020000 0.135497
0.393133 0.020000 0.135347
0.449668 0.020000 0.135214
0.505624 0.020000 0.135376
0.559344 0.022383 0.137955
0.612798 0.025443 0.140531
0.666011 0.028414 0.143105
0.719006 0.031333 0.145676
0.771800 0.034214 0.148244
0.824410 0.037066 0.150810
0.876848 0.039894 0.153373
0.000800 0.064114 0.144784
0.049490 0.066817 0.145039
0.111012 0.069513 0.144675
0.170762 0.072202 0.144392
0.229457 0.074883 0.144157
0.287398 0.077558 0.143956
0.344756 0.080227 0.143779
0.401637 0.082890 0.143622
0.458116 0.085547 0.143482
0.513700 0.088199 0.144041
0.567378 0.090846 0.146611
0.620794 0.093488 0.149179
0.673973 0.096125 0.151743
0.726937 0.098758 0.154306
0.779703 0.101386 0.156866
0.832286 0.104010 0.159423
0.884699 0.106630 0.161978
0.000800 0.129506 0.153506
0.058892 0.132091 0.153299
0.120061 0.134674 0.152941
0.179624 0.137254 0.152657
0.238190 0.139831 0.152418
0.296036 0.142406 0.152212
0.353316 0.144977 0.152029
0.410133 0.147546 0.151867
0.466557 0.150113 0.151721
0.521769 0.152677 0.152677
0.575406 0.155238 0.155238
0.628785 0.157797 0.157797
0.681931 0.160354 0.160354
0.734864 0.162908 0.162908
0.787602 0.165460 0.165460
0.840158 0.168010 0.168010
0.892547 0.170557 0.170557
0.003578 0.192867 0.162059
0.068219 0.195395 0.161528
0.129076 0.197921 0.161175
0.188463 0.200445 0.160891
0.246908 0.202968 0.160649
0.304661 0.205489 0.160438
0.361866 0.208008 0.160250
0.418620 0.210526 0.160082
0.474989 0.213041 0.159930
0.529832 0.215556 0.161284
0.583429 0.218068 0.163837
0.636771 0.220579 0.166388
0.689884 0.223089 0.168937
0.742786 0.225597 0.171484
0.795496 0.228103 0.174029
0.848027 0.230608 0.176571
0.900392 0.233111 0.179112
0.013958 0.255059 0.170216
0.077481 0.257549 0.169729
0.138059 0.260037 0.169381
0.197282 0.262524 0.169096
0.255611 0.265010 0.168851
0.313273 0.267495 0.168636
0.370406 0.269978 0.168444
0.427098 0.272460 0.168271
0.483415 0.274941 0.168114
0.537888 0.277421 0.169865
0.591445 0.279900 0.172411
0.644752 0.282377 0.174955
0.697832 0.284853 0.177496
0.750705 0.287328 0.180036
0.803386 0.289802 0.182574
0.855892 0.292275 0.185110
0.908232 0.294746 0.187643
0.023887 0.316429 0.178364
0.086687 0.318891 0.177904
0.147013 0.321351 0.177560
0.206081 0.323810 0.177274
0.264298 0.326268 0.177027
0.321874 0.328725 0.176808
0.378936 0.331181 0.176612
0.435568 0.333637 0.176435
0.491833 0.336091 0.176273
0.545939 0.338544 0.178421
0.599456 0.340997 0.180960
0.652728 0.343448 0.183497
0.705775 0.345899 0.186032
0.758618 0.348348 0.188565
0.811273 0.350797 0.191097
0.863753 0.353244 0.193626
0.916070 0.355691 0.196153
0.033601 0.377166 0.186496
0.095844 0.379605 0.186054
0.155939 0.382042 0.185714
0.214861 0.384479 0.185427
0.272972 0.386915 0.185178
0.330464 0.389350 0.184956
0.387456 0.391784 0.184757
0.444030 0.394218 0.184575
0.500234 0.396651 0.184420
0.553983 0.399083 0.186955
0.607462 0.401514 0.189487
0.660698 0.403944 0.192018
0.713714 0.406374 0.194546
0.766528 0.408803 0.197073
0.819155 0.411231 0.199598
0.871610 0.413658 0.202121
0.923904 0.416085 0.204643
0.043170 0.437388 0.194608
0.104957 0.439808 0.194182
0.164840 0.442227 0.193844
0.223623 0.444645 0.193558
0.281631 0.447062 0.193306
0.339042 0.449479 0.193082
0.395967 0.451895 0.192879
0.452483 0.454311 0.192693
0.508315 0.456725 0.192938
0.562021 0.459140 0.195466
0.615462 0.461553 0.197993
0.668664 0.463966 0.200517
0.721648 0.466378 0.203040
0.774433 0.468789 0.205560
0.827034 0.471200 0.208080
0.879464 0.473610 0.210597
0.931734 0.476020 0.213113
0.052631 0.497177 0.202702
0.114031 0.499581 0.202287
0.173717 0.501984 0.201953
0.232368 0.504386 0.201666
0.290277 0.506788 0.201413
0.347609 0.509189 0.201186
0.404468 0.511589 0.200979
0.460929 0.513989 0.200790
0.516388 0.516388 0.201436
0.570053 0.518787 0.203958
0.623457 0.521185 0.206478
0.676625 0.523583 0.208996
0.729578 0.525980 0.211513
0.782335 0.528376 0.214028
0.834909 0.530772 0.216542
0.887314 0.533168 0.219054
0.939561 0.535562 0.221564
0.062007 0.556593 0.210778
0.123068 0.558983 0.210373
0.182571 0.561372 0.210040
0.241096 0.563760 0.209753
0.298910 0.566148 0.209499
0.356166 0.568535 0.209269
0.412961 0.570922 0.209060
0.469367 0.573308 0.208868
0.524456 0.575694 0.209913
0.578079 0.578079 0.212429
0.631446 0.580464 0.214944
0.684581 0.582848 0.217457
0.737504 0.585232 0.219968
0.790232 0.587615 0.222478
0.842780 0.589998 0.224986
0.895161 0.592380 0.227493
0.947385 0.594762 0.229998
0.071311 0.615681 0.218835
0.132072 0.618058 0.218438
0.191403 0.620435 0.218108
0.249809 0.622811 0.217821
0.307531 0.625186 0.217565
0.364712 0.627562 0.217333
0.421445 0.629936 0.217121
0.477797 0.632310 0.216926
0.532516 0.634684 0.218371
0.586100 0.637057 0.220882
0.639430 0.639430 0.223391
0.692532 0.641803 0.225899
0.745425 0.644175 0.228405
0.798125 0.646546 0.230910
0.850647 0.648917 0.233413
0.903004 0.651288 0.235915
0.955206 0.653658 0.238415
0.080553 0.674477 0.226876
0.141045 0.676843 0.226486
0.200215 0.679208 0.226158
0.258506 0.681573 0.225870
0.316140 0.683938 0.225613
0.373248 0.686302 0.225379
0.429921 0.688666 0.225165
0.486220 0.691029 0.224967
0.540571 0.693392 0.226812
0.594115 0.695755 0.229317
0.647409 0.698117 0.231821
0.700478 0.700478 0.234324
0.753341 0.702840 0.236825
0.806014 0.705201 0.239325
0.858511 0.707561 0.241823
0.910843 0.709921 0.244320
0.963023 0.712281 0.246816
0.089742 0.733010 0.234899
0.149989 0.735365 0.234516
0.209007 0.737721 0.234190
0.267189 0.740076 0.233902
0.324737 0.742430 0.233643
0.381775 0.744785 0.233408
0.438388 0.747138 0.233191
0.494635 0.749492 0.232990
0.548619 0.751845 0.235235
0.602124 0.754198 0.237735
0.655383 0.756550 0.240235
0.708420 0.758902 0.242732
0.761254 0.761254 0.245229
0.813899 0.763605 0.247724
0.866371 0.765956 0.250217
0.918680 0.768306 0.252710
0.970837 0.770656 0.255201
0.098884 0.791303 0.242907
0.158907 0.793649 0.242529
0.217782 0.795995 0.242204
0.275858 0.798341 0.241917
0.333322 0.800687 0.241657
0.390292 0.803032 0.241420
0.446846 0.805377 0.241201
0.502927 0.807721 0.241144
0.556661 0.810065 0.243641
0.610127 0.812409 0.246137
0.663352 0.814752 0.248632
0.716358 0.817095 0.251125
0.769162 0.819438 0.253617
0.821780 0.821780 0.256107
0.874227 0.824122 0.258596
0.926512 0.826464 0.261084
0.978648 0.828805 0.263571
0.107984 0.849376 0.250899
0.167799 0.851714 0.250526
0.226538 0.854052 0.250203
0.284513 0.856389 0.249915
0.341897 0.858726 0.249655
0.398800 0.861063 0.249416
0.455297 0.863399 0.249195
0.511005 0.865735 0.249540
0.564697 0.868071 0.252032
0.618126 0.870407 0.254524
0.671316 0.872742 0.257014
0.724290 0.875077 0.259502
0.777066 0.877411 0.261990
0.829658 0.879745 0.264476
0.882079 0.882079 0.266961
0.934342 0.884413 0.269444
0.986455 0.886746 0.271927
0.117045 0.907246 0.258876
0.176668 0.909577 0.258507
0.235277 0.911906 0.258186
0.293154 0.914236 0.257898
0.350460 0.916565 0.257637
0.407298 0.918894 0.257396
0.463740 0.921223 0.257174
0.519076 0.923551 0.257920
0.572727 0.925880 0.260408
0.626119 0.928207 0.262895
0.679276 0.930535 0.265381
0.732219 0.932862 0.267865
0.784966 0.935189 0.270348
0.837531 0.937516 0.272830
0.889928 0.939842 0.275311
0.942168 0.942168 0.277791
0.994260 0.944494 0.280269
0.126071 0.964929 0.266839
0.185515 0.967251 0.266474
0.244000 0.969574 0.266154
0.301783 0.971896 0.265866
0.359014 0.974218 0.265604
0.415788 0.976540 0.265362
0.472176 0.978862 0.265138
0.527141 0.981183 0.266285
0.580752 0.983504 0.268769
0.634106 0.985824 0.271252
0.687230 0.988145 0.273734
0.740143 0.990465 0.276214
0.792862 0.992785 0.278693
0.845401 0.995104 0.281171
0.897774 0.997423 0.283648
0.949991 0.999742 0.286123
1.000000 1.000000 0.288597
0.000800 0.020000 0.192110
0.040959 0.020000 0.192727
0.102845 0.020000 0.192297
0.162776 0.020000 0.191959
0.221590 0.020000 0.191672
0.279622 0.020000 0.191421
0.337051 0.020000 0.191197
0.393992 0.020000 0.190995
0.450521 0.020000 0.190810
0.506439 0.020236 0.190963
0.560155 0.023437 0.193492
0.613605 0.026460 0.196020
0.666815 0.029411 0.198546
0.719807 0.032315 0.201070
0.772598 0.035186 0.203592
0.825205 0.038029 0.206112
0.877641 0.040850 0.208631
0.000800 0.065033 0.200671
0.050443 0.067734 0.200825
0.111927 0.070427 0.200407
