data/luts/cinematic.cube
TITLE "Cinematic"
LUT_3D_SIZE 9
0.000800 0.020000 0.044000
0.100087 0.020000 0.039227
0.218937 0.020000 0.033513
0.334454 0.020000 0.027959
0.447961 0.020000 0.022502
0.557721 0.020169 0.020169
0.664403 0.026404 0.026404
0.770204 0.032261 0.032261
0.875262 0.037976 0.037976
0.000800 0.127748 0.044000
0.118237 0.132920 0.038354
0.236428 0.138081 0.035208
0.351589 0.143231 0.035693
0.464853 0.148370 0.036044
0.573786 0.153499 0.040032
0.680325 0.158617 0.045629
0.786007 0.163727 0.051166
0.890963 0.168827 0.056653
0.011913 0.253367 0.054152
0.136248 0.258347 0.053921
0.253855 0.263322 0.053912
0.368682 0.268292 0.053965
0.481714 0.273256 0.054048
0.589827 0.278216 0.058640
0.696228 0.283171 0.064073
0.801794 0.288122 0.069473
0.906650 0.293068 0.074843
0.031653 0.375510 0.072183
0.154139 0.380387 0.071794
0.271222 0.385261 0.071622
0.385736 0.390131 0.071536
0.498546 0.394999 0.071501
0.605846 0.399863 0.076792
0.712112 0.404724 0.082127
0.817564 0.409582 0.087440
0.922322 0.414437 0.092731
0.050729 0.495545 0.089608
0.171926 0.500352 0.089159
0.288533 0.505156 0.088904
0.402753 0.509959 0.088739
0.514759 0.514759 0.089368
0.621843 0.519557 0.094653
0.727978 0.524352 0.099918
0.833319 0.529145 0.105167
0.937981 0.533936 0.110399
0.069437 0.614066 0.106698
0.189621 0.618821 0.106216
0.305792 0.623573 0.105909
0.419733 0.628323 0.105690
0.530889 0.633072 0.107073
0.637819 0.637819 0.112300
0.743826 0.642564 0.117512
0.849059 0.647307 0.122710
0.953627 0.652048 0.127895
0.087891 0.731409 0.123554
0.207234 0.736121 0.123053
0.323002 0.740831 0.122709
0.436679 0.745540 0.122450
0.546995 0.750247 0.124599
0.653774 0.754952 0.129779
0.759656 0.759656 0.134947
0.864784 0.764359 0.140104
0.969259 0.769060 0.145249
0.106150 0.847788 0.140233
0.224771 0.852464 0.139719
0.340166 0.857139 0.139346
0.453592 0.861812 0.139057
0.563075 0.866485 0.141978
0.669709 0.871156 0.147120
0.775470 0.875826 0.152251
0.880494 0.880494 0.157372
0.984879 0.885161 0.162484
0.124251 0.963351 0.156768
0.242240 0.967997 0.156244
0.357288 0.972641 0.155850
0.470473 0.977285 0.155536
0.579132 0.981927 0.159234
0.685624 0.986569 0.164342
0.791268 0.991209 0.169442
0.896190 0.995848 0.174532
1.000000 1.000000 0.179614
0.000800 0.020000 0.136024
0.101926 0.020000 0.136375
0.220706 0.020000 0.135863
0.336185 0.020000 0.135497
0.449668 0.020000 0.135214
0.559344 0.022383 0.137955
0.666011 0.028414 0.143105
0.771800 0.034214 0.148244
0.876848 0.039894 0.153373
0.000800 0.129506 0.153506
0.120061 0.134674 0.152941
0.238190 0.139831 0.152418
0.353316 0.144977 0.152029
0.466557 0.150113 0.151721
0.575406 0.155238 0.155238
0.681931 0.160354 0.160354
0.787602 0.165460 0.165460
0.892547 0.170557 0.170557
0.013958 0.255059 0.170216
0.138059 0.260037 0.169381
0.255611 0.265010 0.168851
0.370406 0.269978 0.168444
0.483415 0.274941 0.168114
0.591445 0.279900 0.172411
0.697832 0.284853 0.177496
0.803386 0.289802 0.182574
0.908232 0.294746 0.187643
0.033601 0.377166 0.186496
0.155939 0.382042 0.185714
0.272972 0.386915 0.185178
0.387456 0.391784 0.184757
0.500234 0.396651 0.184420
0.607462 0.401514 0.189487
0.713714 0.406374 0.194546
0.819155 0.411231 0.199598
0.923904 0.416085 0.204643
0.052631 0.497177 0.202702
0.173717 0.501984 0.201953
0.290277 0.506788 0.201413
0.404468 0.511589 0.200979
0.516388 0.516388 0.201436
0.623457 0.521185 0.206478
0.729578 0.525980 0.211513
0.834909 0.530772 0.216542
0.939561 0.535562 0.221564
0.071311 0.615681 0.218835
0.191403 0.620435 0.218108
0.307531 0.625186 0.217565
0.421445 0.629936 0.217121
0.532516 0.634684 0.218371
0.639430 0.639430 0.223391
0.745425 0.644175 0.228405
0.850647 0.648917 0.233413
0.955206 0.653658 0.238415
0.089742 0.733010 0.234899
0.209007 0.737721 0.234190
0.324737 0.742430 0.233643
0.438388 0.747138 0.233191
0.548619 0.751845 0.235235
0.655383 0.756550 0.240235
0.761254 0.761254 0.245229
0.866371 0.765956 0.250217
0.970837 0.770656 0.255201
0.107984 0.849376 0.250899
0.226538 0.854052 0.250203
0.341897 0.858726 0.249655
0.455297 0.863399 0.249195
0.564697 0.868071 0.252032
0.671316 0.872742 0.257014
0.777066 0.877411 0.261990
0.882079 0.882079 0.266961
0.986455 0.886746 0.271927
0.126071 0.964929 0.266839
0.244000 0.969574 0.266154
0.359014 0.974218 0.265604
0.472176 0.978862 0.265138
0.580752 0.983504 0.268769
0.687230 0.988145 0.273734
0.792862 0.992785 0.278693
0.897774 0.997423 0.283648
1.000000 1.000000 0.288597
0.000800 0.020000 0.247126
0.103764 0.020000 0.247190
0.222474 0.020000 0.246491
0.337917 0.020000 0.245943
0.451374 0.020000 0.245485
0.560967 0.024474 0.248138
0.667619 0.030401 0.253124
0.773396 0.036154 0.258104
0.878434 0.041804 0.263079
0.000800 0.131262 0.263970
0.121884 0.136427 0.263143
0.239952 0.141580 0.262456
0.355043 0.146722 0.261906
0.468260 0.151854 0.261442
0.577026 0.156976 0.264889
0.683537 0.162089 0.269857
0.789196 0.167192 0.274820
0.894131 0.172286 0.279778
0.015986 0.256750 0.280020
0.139869 0.261727 0.279041
0.257366 0.266698 0.278363
0.372129 0.271664 0.277812
0.485115 0.276626 0.277341
0.593063 0.281582 0.281582
0.699436 0.286534 0.286534
0.804979 0.291481 0.291481
0.909815 0.296424 0.296424
0.035543 0.378823 0.295801
0.157738 0.383697 0.294886
0.274721 0.388569 0.294216
0.389175 0.393437 0.293664
0.501866 0.398303 0.293281
0.609078 0.403165 0.298223
0.715316 0.408024 0.303159
0.820746 0.412880 0.308092
0.925485 0.417733 0.313020
0.054531 0.498810 0.311554
0.175506 0.503615 0.310682
0.292021 0.508419 0.310019
0.406184 0.513219 0.309466
0.518018 0.518018 0.309887
0.625070 0.522814 0.314813
0.731179 0.527608 0.319736
0.836498 0.532399 0.324655
0.941141 0.537189 0.329569
0.073181 0.617296 0.327271
0.193184 0.622049 0.326432
0.309270 0.626800 0.325776
0.423157 0.631549 0.325222
0.534143 0.636296 0.326444
0.641042 0.641042 0.331358
0.747023 0.645785 0.336267
0.852235 0.650527 0.341172
0.956784 0.655267 0.346074
0.091592 0.734610 0.342953
0.210780 0.739320 0.342138
0.326471 0.744029 0.341488
0.440096 0.748737 0.340933
0.550243 0.753443 0.342957
0.656993 0.758148 0.347858
0.762851 0.762851 0.352755
0.867957 0.767552 0.357648
0.972414 0.772252 0.362537
0.109816 0.850964 0.358598
0.228304 0.855639 0.357804
0.343627 0.860313 0.357159
0.457003 0.864986 0.356604
0.566319 0.869658 0.359428
0.672924 0.874328 0.364317
0.778661 0.878997 0.369202
0.883664 0.883664 0.374083
0.988031 0.888331 0.378961
0.127889 0.966506 0.374208
0.245760 0.971151 0.373432
0.360739 0.975795 0.372791
0.473878 0.980438 0.372235
0.582371 0.985080 0.375859
0.688835 0.989721 0.380736
0.794455 0.994360 0.385610
0.899357 0.998999 0.390480
1.000000 1.000000 0.395347
0.000800 0.020000 0.355098
0.105600 0.020000 0.354969
0.224242 0.020000 0.354171
0.339648 0.020000 0.353524
0.453080 0.020302 0.352969
0.562589 0.026516 0.355608
0.669227 0.032370 0.360499
0.774992 0.038082 0.365387
0.880019 0.043705 0.370271
0.000800 0.133017 0.371599
0.123705 0.138178 0.370587
0.241713 0.143328 0.369807
0.356770 0.148466 0.369165
0.469963 0.153595 0.368609
0.578646 0.158714 0.372048
0.685143 0.163823 0.376928
0.790790 0.168923 0.381804
0.895715 0.174014 0.386677
0.018001 0.258441 0.387231
0.141678 0.263416 0.386170
0.259121 0.268385 0.385406
0.373851 0.273350 0.384768
0.486815 0.278309 0.384212
0.594681 0.283264 0.388450
0.701040 0.288215 0.393318
0.806571 0.293161 0.398184
0.911397 0.298102 0.403046
0.037479 0.380478 0.402715
0.159536 0.385352 0.401721
0.276470 0.390223 0.400969
0.390894 0.395090 0.400336
0.503498 0.399954 0.399954
0.610693 0.404815 0.404815
0.716919 0.409673 0.409673
0.822337 0.414528 0.414528
0.927066 0.419380 0.419380
0.056427 0.500442 0.418187
0.177294 0.505247 0.417239
0.293765 0.510049 0.416499
0.407899 0.514849 0.415869
0.519647 0.519647 0.416295
0.626683 0.524442 0.421146
0.732779 0.529235 0.425994
0.838088 0.534026 0.430839
0.942721 0.538815 0.435681
0.075050 0.618910 0.433639
0.194964 0.623662 0.432727
0.311009 0.628413 0.431997
0.424869 0.633161 0.431370
0.535770 0.637908 0.432602
0.642653 0.642653 0.437443
0.748622 0.647396 0.442282
0.853823 0.652137 0.447117
0.958363 0.656877 0.451950
0.093439 0.736210 0.449068
0.212553 0.740920 0.448185
0.328205 0.745628 0.447465
0.441804 0.750335 0.446840
0.551867 0.755041 0.448877
0.658602 0.759745 0.453709
0.764447 0.764447 0.458538
0.869543 0.769149 0.463365
0.973991 0.773848 0.468189
0.111647 0.852552 0.464474
0.230069 0.857227 0.463614
0.345356 0.861900 0.462902
0.458708 0.866573 0.462281
0.567940 0.871244 0.465121
0.674531 0.875913 0.469944
0.780256 0.880582 0.474765
0.885249 0.885249 0.479583
0.989607 0.889915 0.484398
0.129706 0.968084 0.479856
0.247518 0.972729 0.479016
0.362465 0.977372 0.478312
0.475580 0.982015 0.477693
0.583990 0.986656 0.481336
0.690441 0.991296 0.486150
0.796049 0.995936 0.490962
0.900941 1.000000 0.495772
1.000000 1.000000 0.500579
0.000800 0.020000 0.461187
0.107434 0.020000 0.460899
0.226008 0.020000 0.460034
0.341378 0.020000 0.459321
0.454786 0.022501 0.458699
0.564211 0.028525 0.461353
0.670834 0.034322 0.466178
0.776588 0.040000 0.471000
0.881604 0.045598 0.475820
0.000800 0.134771 0.477454
0.125525 0.139928 0.476287
0.243473 0.145074 0.475443
0.358496 0.150209 0.474737
0.471665 0.155334 0.474117
0.580266 0.160450 0.477574
0.686749 0.165556 0.482390
0.792384 0.170653 0.487204
0.897299 0.175742 0.492016
0.020004 0.260131 0.492766
0.143486 0.265104 0.491650
0.260875 0.270072 0.490824
0.375574 0.275035 0.490125
0.488514 0.279993 0.489508
0.596298 0.284946 0.493767
0.702644 0.289895 0.498575
0.808164 0.294839 0.503380
0.912980 0.299779 0.508184
0.039411 0.382134 0.508039
0.161333 0.387007 0.506990
0.278218 0.391876 0.506180
0.392612 0.396742 0.505487
0.505129 0.401605 0.505129
0.612308 0.406465 0.509932
0.718520 0.411322 0.514732
0.823928 0.416176 0.519529
0.928647 0.421027 0.524325
0.058319 0.502074 0.523309
0.179082 0.506878 0.522307
0.295508 0.511679 0.521511
0.409614 0.516479 0.520824
0.521276 0.521276 0.521276
0.628297 0.526070 0.526070
0.734379 0.530862 0.530862
0.839677 0.535652 0.535652
0.944301 0.540440 0.540440
0.076916 0.620524 0.538566
0.196743 0.625276 0.537601
0.312747 0.630026 0.536818
0.426580 0.634773 0.536136
0.537396 0.639520 0.537396
0.644264 0.644264 0.542183
0.750220 0.649006 0.546968
0.855411 0.653747 0.551750
0.959941 0.658486 0.556531
0.095285 0.737809 0.553808
0.214324 0.742519 0.552873
0.329938 0.747227 0.552101
0.443512 0.751934 0.551425
0.553491 0.756639 0.553491
0.660211 0.761342 0.558271
0.766044 0.766044 0.563048
0.871129 0.770745 0.567824
0.975568 0.775444 0.572597
0.113477 0.854140 0.569033
0.231833 0.858814 0.568124
0.347085 0.863487 0.567362
0.460412 0.868159 0.566690
0.569562 0.872830 0.569562
0.676138 0.877499 0.574334
0.781851 0.882167 0.579105
0.886834 0.886834 0.583874
0.991183 0.891499 0.588640
0.131522 0.969661 0.584241
0.249276 0.974306 0.583354
0.364189 0.978949 0.582601
0.477281 0.983591 0.581934
0.585609 0.988232 0.585609
0.692046 0.992872 0.590375
0.797642 0.997511 0.595139
0.902524 1.000000 0.599901
1.000000 1.000000 0.604661
0.000800 0.020000 0.565930
0.109267 0.020000 0.565500
0.227774 0.020000 0.564585
0.343108 0.020000 0.563821
0.456491 0.024588 0.563148
0.565833 0.030511 0.565833
0.672442 0.036261 0.570607
0.778183 0.041909 0.575379
0.883189 0.047485 0.580149
0.001421 0.136524 0.581988
0.127344 0.141677 0.580712
0.245232 0.146819 0.579820
0.360222 0.151951 0.579065
0.473368 0.157073 0.578397
0.581886 0.162185 0.581886
0.688354 0.167288 0.586653
0.793977 0.172382 0.591418
0.898883 0.177468 0.596182
0.021997 0.261820 0.597063
0.145292 0.266791 0.595906
0.262628 0.271758 0.595034
0.377295 0.276719 0.594287
0.490214 0.281675 0.593623
0.597916 0.286627 0.597916
0.704247 0.291574 0.602676
0.809756 0.296517 0.607435
0.914562 0.301455 0.612192
0.041338 0.383789 0.612174
0.163129 0.388661 0.611083
0.279966 0.393529 0.610228
0.394330 0.398394 0.609489
0.506761 0.403256 0.609167
0.613923 0.408115 0.613923
0.720122 0.412971 0.618677
0.825519 0.417824 0.623430
0.930228 0.422674 0.628180
0.060209 0.503706 0.627285
0.180869 0.508509 0.626242
0.297250 0.513310 0.625402
0.411328 0.518108 0.624671
0.522904 0.522904 0.625160
0.629909 0.527698 0.629909
0.735979 0.532489 0.634657
0.841266 0.537279 0.639404
0.945880 0.542066 0.644148
0.078779 0.622138 0.642389
0.198521 0.626889 0.641383
0.314485 0.631638 0.640557
0.428291 0.636385 0.639833
0.539022 0.641131 0.641131
0.645875 0.645875 0.645875
0.751818 0.650616 0.650616
0.856998 0.655357 0.655357
0.961519 0.660095 0.660095
0.097129 0.739409 0.657482
0.216095 0.744118 0.656507
0.331671 0.748826 0.655694
0.445220 0.753532 0.654976
0.555114 0.758236 0.657082
0.661820 0.762939 0.661820
0.767641 0.767641 0.666555
0.872716 0.772341 0.671290
0.977145 0.777039 0.676022
0.115305 0.855727 0.672563
0.233597 0.860401 0.671615
0.348814 0.865074 0.670812
0.462117 0.869745 0.670101
0.571183 0.874416 0.673013
0.677745 0.879084 0.677745
0.783446 0.883752 0.682475
0.888418 0.888418 0.687203
0.992759 0.893084 0.691930
0.133336 0.971239 0.687631
0.251034 0.975883 0.686705
0.365914 0.980526 0.685913
0.478983 0.985167 0.685207
0.587228 0.989808 0.688924
0.693650 0.994447 0.693650
0.799235 0.999086 0.698375
0.904107 1.000000 0.703098
1.000000 1.000000 0.707819
0.000800 0.020000 0.669624
0.111099 0.020000 0.669063
0.229540 0.020000 0.668109
0.344838 0.020431 0.667304
0.458197 0.026628 0.666591
0.567454 0.032478 0.669316
0.674049 0.038189 0.674049
0.779778 0.043810 0.678781
0.884774 0.049364 0.683510
0.003681 0.138275 0.685430
0.129161 0.143424 0.684134
0.246991 0.148563 0.683203
0.361947 0.153691 0.682409
0.475070 0.158810 0.681701
0.583505 0.163919 0.685232
0.689959 0.169019 0.689959
0.795571 0.174110 0.694685
0.900466 0.179193 0.699409
0.023980 0.263509 0.700380
0.147098 0.268479 0.699191
0.264381 0.273443 0.698281
0.379017 0.278403 0.697497
0.491913 0.283358 0.696794
0.599533 0.288308 0.701129
0.705851 0.293254 0.705851
0.811348 0.298195 0.710571
0.916144 0.303132 0.715290
0.043260 0.385444 0.715359
0.164924 0.390314 0.714235
0.281713 0.395182 0.713343
0.396048 0.400046 0.712567
0.508391 0.404907 0.712289
0.615538 0.409765 0.717007
0.721724 0.414620 0.721724
0.827109 0.419472 0.726439
0.931809 0.424320 0.731152
0.062095 0.505337 0.730341
0.182655 0.510139 0.729264
0.298992 0.514939 0.728388
0.413042 0.519737 0.727621
0.524532 0.524532 0.728155
0.631522 0.529325 0.732868
0.737579 0.534116 0.737579
0.842855 0.538905 0.742289
0.947459 0.543691 0.746997
0.080641 0.623752 0.745319
0.200299 0.628502 0.744280
0.316222 0.633251 0.743419
0.430001 0.637997 0.742659
0.540647 0.642742 0.744003
0.647485 0.647485 0.748710
0.753416 0.652226 0.753416
0.858585 0.656966 0.758121
0.963097 0.661704 0.762824
0.098971 0.741008 0.760289
0.217865 0.745717 0.759281
0.333404 0.750424 0.758433
0.446927 0.755129 0.757681
0.556738 0.759833 0.759833
0.663428 0.764536 0.764536
0.769237 0.769237 0.769237
0.874301 0.773937 0.773937
0.978722 0.778635 0.778635
0.117131 0.857315 0.775249
0.235360 0.861988 0.774269
0.350542 0.866661 0.773433
0.463821 0.871332 0.772687
0.572804 0.876001 0.775647
0.679351 0.880670 0.780345
0.785041 0.885337 0.785041
0.890003 0.890003 0.789735
0.994334 0.894668 0.794429
0.135149 0.972816 0.790200
0.252791 0.977460 0.789243
0.367638 0.982102 0.788418
0.480684 0.986743 0.787679
0.588846 0.991384 0.791444
0.695255 0.996023 0.796137
0.800828 1.000000 0.800828
0.905690 1.000000 0.805518
1.000000 1.000000 0.810207
0.000800 0.020000 0.772461
0.112928 0.020000 0.771777
0.231304 0.020000 0.770790
0.346567 0.022618 0.769952
0.459901 0.028636 0.769205
0.569076 0.034430 0.771977
0.675656 0.040106 0.776676
0.781373 0.045703 0.781373
0.886359 0.051238 0.786069
0.005844 0.140025 0.788045
0.130978 0.145171 0.786730
0.248749 0.150306 0.785767
0.363672 0.155431 0.784940
0.476771 0.160546 0.784200
0.585124 0.165652 0.787778
0.691564 0.170749 0.792472
0.797164 0.175837 0.797164
0.902049 0.180917 0.801855
0.025955 0.265197 0.802887
0.148902 0.270165 0.801672
0.266133 0.275128 0.800731
0.380738 0.280086 0.799914
0.493611 0.285039 0.799180
0.601149 0.289988 0.803563
0.707454 0.294932 0.808252
0.812940 0.299872 0.812940
0.917726 0.304807 0.817626
0.045178 0.387098 0.817755
0.166718 0.391968 0.816603
0.283460 0.396834 0.815681
0.397765 0.401697 0.814874
0.510022 0.406557 0.814646
0.617153 0.411414 0.819332
0.723325 0.416268 0.824016
0.828699 0.421119 0.828699
0.933389 0.425967 0.833381
0.063979 0.506968 0.832628
0.184440 0.511770 0.831523
0.300734 0.516569 0.830617
0.414755 0.521366 0.829820
0.526160 0.526160 0.830404
0.633134 0.530953 0.835085
0.739179 0.535743 0.839765
0.844443 0.540530 0.844443
0.949039 0.545316 0.849121
0.082500 0.625365 0.847498
0.202075 0.630115 0.846432
0.317958 0.634863 0.845541
0.431711 0.639609 0.844751
0.542273 0.644353 0.846146
0.649096 0.649096 0.850823
0.755014 0.653836 0.855499
0.860173 0.658575 0.860173
0.964675 0.663312 0.864845
0.100812 0.742608 0.862363
0.219634 0.747316 0.861328
0.335136 0.752022 0.860452
0.448634 0.756727 0.859670
0.558361 0.761431 0.861874
0.665036 0.766133 0.866546
0.770833 0.770833 0.871217
0.875887 0.775532 0.875887
0.980299 0.780230 0.880556
0.118956 0.858902 0.877221
0.237123 0.863575 0.876213
0.352270 0.868247 0.875349
0.465524 0.872918 0.874575
0.574424 0.877587 0.877587
0.680958 0.882255 0.882255
0.786635 0.886922 0.886922
0.891587 0.891587 0.891587
0.995909 0.896251 0.896251
0.136961 0.974393 0.892071
0.254547 0.979036 0.891087
0.369361 0.983678 0.890235
0.482384 0.988319 0.889467
0.590465 0.992959 0.893285
0.696860 0.997598 0.897949
0.802421 1.000000 0.902612
0.907273 1.000000 0.907273
1.000000 1.000000 0.911933
0.000800 0.020000 0.874576
0.114757 0.020000 0.873773
0.233068 0.020000 0.872759
0.348296 0.024702 0.871892
0.461606 0.030620 0.871116
0.570697 0.036368 0.873940
0.677263 0.042015 0.878609
0.782968 0.047589 0.883277
0.887943 0.053107 0.887943
0.007961 0.141774 0.889955
0.132792 0.146916 0.888625
0.250507 0.152047 0.887635
0.365397 0.157169 0.886780
0.478473 0.162281 0.886011
0.586743 0.167384 0.889642
0.693169 0.172478 0.894307
0.798758 0.177563 0.898970
0.903633 0.182641 0.903633
0.027923 0.266885 0.904704
0.150705 0.271851 0.903468
0.267885 0.276812 0.902500
0.382458 0.281769 0.901656
0.495310 0.286720 0.900893
0.602766 0.291668 0.905330
0.709057 0.296610 0.909990
0.814531 0.301548 0.914650
0.919308 0.306482 0.919308
0.047092 0.388752 0.919477
0.168512 0.393621 0.918302
0.285206 0.398486 0.917353
0.399482 0.403348 0.916519
0.511652 0.408207 0.916346
0.618767 0.413063 0.921003
0.724926 0.417915 0.925660
0.830289 0.422765 0.930315
0.934970 0.427612 0.934970
0.065860 0.508599 0.934255
0.186224 0.513400 0.933127
0.302475 0.518198 0.932195
0.416469 0.522994 0.931371
0.527788 0.527788 0.932010
0.634747 0.532579 0.936664
0.740778 0.537369 0.941316
0.846032 0.542156 0.945968
0.950618 0.546941 0.950618
0.084357 0.626978 0.949033
0.203851 0.631728 0.947942
0.319694 0.636475 0.947026
0.433421 0.641220 0.946211
0.543898 0.645964 0.947661
0.650706 0.650706 0.952310
0.756612 0.655446 0.956959
0.861760 0.660184 0.961607
0.966253 0.664921 0.966253
0.102650 0.744207 0.963806
0.221403 0.748914 0.962748
0.336868 0.753620 0.961846
0.450340 0.758325 0.961039
0.559983 0.763028 0.963298
0.666645 0.767729 0.967944
0.772429 0.772429 0.972589
0.877473 0.777128 0.977233
0.981875 0.781825 0.981875
0.120780 0.860489 0.978575
0.238885 0.865162 0.977543
0.353997 0.869833 0.976655
0.467228 0.874503 0.975855
0.576045 0.879172 0.978923
0.682564 0.883840 0.983565
0.788230 0.888506 0.988206
0.893171 0.893171 0.992846
0.997485 0.897835 0.997485
0.138772 0.975970 0.993337
0.256302 0.980613 0.992329
0.371085 0.985255 0.991453
0.484085 0.989895 0.990660
0.592083 0.994535 0.994535
0.698464 0.999173 0.999173
0.804014 1.000000 1.000000
0.908856 1.000000 1.000000
1.000000 1.000000 1.000000
