data/luts/cool.cube
TITLE "Cool"
LUT_3D_SIZE 5
0.000000 0.000000 0.000000
0.209594 0.000000 0.000000
0.423156 0.000000 0.000000
0.631458 0.003039 0.003411
0.836414 0.010174 0.011420
0.005417 0.233594 0.006339
0.230165 0.239959 0.014311
0.443081 0.246317 0.022195
0.651008 0.252667 0.030009
0.855702 0.259010 0.037764
0.028062 0.470346 0.032839
0.250651 0.476507 0.040575
0.462963 0.482664 0.048264
0.670531 0.488817 0.055911
0.874969 0.494966 0.063520
0.050149 0.701265 0.058685
0.271060 0.707309 0.066282
0.482804 0.713350 0.073846
0.690026 0.719388 0.081380
0.894216 0.725425 0.088887
0.071881 0.928476 0.084116
0.291397 0.934438 0.091614
0.502606 0.940398 0.099087
0.709494 0.946356 0.106537
0.913442 0.952312 0.113965
0.000000 0.000000 0.240531
0.211675 0.000000 0.247704
0.425170 0.000000 0.254868
0.633433 0.005473 0.262022
0.838362 0.012577 0.269167
0.007740 0.235756 0.264624
0.232237 0.242119 0.271766
0.445090 0.248474 0.278900
0.652981 0.254822 0.286025
0.857648 0.261162 0.293142
0.030312 0.472438 0.288617
0.252715 0.478598 0.295730
0.464968 0.484754 0.302836
0.672500 0.490906 0.309934
0.876913 0.497054 0.317025
0.052357 0.703318 0.312517
0.273116 0.709361 0.319604
0.484805 0.715401 0.326685
0.691992 0.721439 0.333758
0.896158 0.727474 0.340824
0.074059 0.930501 0.336331
0.293447 0.936462 0.343395
0.504602 0.942421 0.350452
0.711457 0.948379 0.357502
0.915382 0.954334 0.364546
0.000000 0.000000 0.486014
0.213754 0.000000 0.492957
0.427183 0.000727 0.499895
0.635407 0.007896 0.506828
0.840310 0.014971 0.513757
0.010053 0.237918 0.509351
0.234308 0.244278 0.516278
0.447099 0.250631 0.523201
0.654952 0.256976 0.530119
0.859594 0.263314 0.537033
0.032557 0.474531 0.532636
0.254778 0.480689 0.539549
0.466972 0.486843 0.546457
0.674469 0.492994 0.553361
0.878857 0.499141 0.560260
0.054561 0.705370 0.555873
0.275172 0.711412 0.562771
0.486805 0.717452 0.569665
0.693958 0.723489 0.576556
0.898099 0.729523 0.583442
0.076235 0.932526 0.579063
0.295495 0.938486 0.585948
0.506599 0.944445 0.592829
0.713421 0.950401 0.599706
0.917321 0.956356 0.606579
0.000000 0.000000 0.725450
0.215833 0.000000 0.732260
0.429195 0.003174 0.739068
0.637382 0.010308 0.745872
0.842258 0.017356 0.752674
0.012357 0.240079 0.748349
0.236378 0.246437 0.755149
0.449107 0.252787 0.761946
0.656924 0.259129 0.768741
0.861540 0.265465 0.775532
0.034797 0.476622 0.771214
0.256840 0.482779 0.778004
0.468976 0.488933 0.784791
0.676438 0.495082 0.791576
0.880800 0.501228 0.798358
0.056763 0.707422 0.794045
0.277227 0.713463 0.800826
0.488805 0.719502 0.807604
0.695924 0.725538 0.814380
0.900041 0.731572 0.821152
0.078408 0.934550 0.816846
0.297543 0.940510 0.823617
0.508595 0.946468 0.830386
0.715384 0.952424 0.837152
0.919261 0.958378 0.843915
0.000000 0.000000 0.961040
0.217911 0.000000 0.967759
0.431207 0.005608 0.974475
0.639356 0.012710 0.981188
0.844205 0.019734 0.987900
0.014652 0.242239 0.983632
0.238447 0.248594 0.990342
0.451115 0.254941 0.997051
0.658895 0.261282 1.000000
0.863485 0.267615 1.000000
0.037033 0.478714 1.000000
0.258902 0.484869 1.000000
0.470980 0.491021 1.000000
0.678406 0.497170 1.000000
0.882744 0.503314 1.000000
0.058961 0.709474 1.000000
0.279281 0.715514 1.000000
0.490804 0.721552 1.000000
0.697890 0.727588 1.000000
0.901982 0.733620 1.000000
0.080579 0.936574 1.000000
0.299590 0.942533 1.000000
0.510591 0.948491 1.000000
0.717347 0.954446 1.000000
0.921200 0.960400 1.000000
