data/luts/cool.cube
TITLE "Cool"
LUT_3D_SIZE 9
0.000000 0.000000 0.000000
0.099229 0.000000 0.000000
0.209594 0.000000 0.000000
0.317239 0.000000 0.000000
0.423156 0.000000 0.000000
0.527806 0.000000 0.000000
0.631458 0.003039 0.003411
0.734286 0.006619 0.007429
0.836414 0.010174 0.011420
0.000000 0.111245 0.000000
0.109860 0.114535 0.000000
0.219890 0.117820 0.000839
0.327343 0.121102 0.004877
0.433124 0.124380 0.008885
0.537670 0.127654 0.012867
0.641237 0.130924 0.016826
0.743994 0.134191 0.020765
0.846061 0.137455 0.024686
0.005417 0.233594 0.006339
0.120447 0.236777 0.010337
0.230165 0.239959 0.014311
0.337432 0.243139 0.018263
0.443081 0.246317 0.022195
0.547525 0.249493 0.026110
0.651008 0.252667 0.030009
0.753695 0.255840 0.033893
0.855702 0.259010 0.037764
0.016831 0.352928 0.019696
0.130994 0.356051 0.023622
0.240418 0.359173 0.027531
0.347506 0.362294 0.031425
0.453027 0.365413 0.035304
0.557371 0.368531 0.039171
0.660773 0.371648 0.043025
0.763391 0.374764 0.046867
0.865338 0.377878 0.050700
0.028062 0.470346 0.032839
0.141503 0.473427 0.036713
0.250651 0.476507 0.040575
0.357567 0.479586 0.044425
0.462963 0.482664 0.048264
0.567209 0.485741 0.052092
0.670531 0.488817 0.055911
0.773081 0.491892 0.059720
0.874969 0.494966 0.063520
0.039159 0.586359 0.045824
0.151979 0.589407 0.049659
0.260865 0.592455 0.053483
0.367614 0.595502 0.057298
0.472888 0.598548 0.061104
0.577039 0.601594 0.064901
0.680282 0.604638 0.068690
0.782765 0.607682 0.072471
0.884595 0.610725 0.076245
0.050149 0.701265 0.058685
0.162422 0.704287 0.062488
0.271060 0.707309 0.066282
0.377648 0.710330 0.070068
0.482804 0.713350 0.073846
0.586860 0.716369 0.077617
0.690026 0.719388 0.081380
0.792443 0.722407 0.085137
0.894216 0.725425 0.088887
0.061052 0.815258 0.071444
0.172836 0.818258 0.075219
0.281237 0.821258 0.078988
0.387670 0.824257 0.082749
0.492710 0.827255 0.086503
0.596674 0.830253 0.090251
0.699763 0.833251 0.093993
0.802115 0.836248 0.097728
0.903831 0.839244 0.101458
0.071881 0.928476 0.084116
0.183221 0.931457 0.087868
0.291397 0.934438 0.091614
0.397679 0.937418 0.095353
0.502606 0.940398 0.099087
0.606480 0.943377 0.102814
0.709494 0.946356 0.106537
0.811782 0.949334 0.110253
0.913442 0.952312 0.113965
0.000000 0.000000 0.113671
0.100304 0.000000 0.117377
0.210634 0.000000 0.121079
0.318260 0.000000 0.124777
0.424163 0.000000 0.128469
0.528803 0.000659 0.132157
0.632445 0.004257 0.135841
0.735266 0.007829 0.139520
0.837388 0.011377 0.143195
0.000000 0.112363 0.126121
0.110931 0.115651 0.129812
0.220929 0.118935 0.133499
0.328362 0.122216 0.137181
0.434130 0.125492 0.140858
0.538665 0.128765 0.144532
0.642223 0.132034 0.148202
0.744973 0.135300 0.151867
0.847034 0.138562 0.155529
0.006580 0.234675 0.138520
0.121513 0.237858 0.142196
0.231201 0.241039 0.145869
0.338449 0.244219 0.149537
0.444086 0.247396 0.153201
0.548519 0.250571 0.156861
0.651995 0.253745 0.160518
0.754675 0.256916 0.164171
0.856675 0.260086 0.167820
0.017972 0.353989 0.150871
0.132056 0.357111 0.154534
0.241452 0.360233 0.158193
0.348522 0.363353 0.161848
0.454031 0.366472 0.165500
0.558365 0.369590 0.169148
0.661759 0.372706 0.172793
0.764370 0.375821 0.176434
0.866311 0.378935 0.180072
0.029188 0.471392 0.163178
0.142562 0.474473 0.166828
0.251683 0.477552 0.170475
0.358582 0.480631 0.174119
0.463965 0.483709 0.177759
0.568202 0.486785 0.181395
0.671516 0.489861 0.185029
0.774059 0.492936 0.188659
0.875941 0.496010 0.192286
0.040272 0.587394 0.175444
0.153035 0.590442 0.179083
0.261895 0.593490 0.182718
0.368628 0.596537 0.186351
0.473890 0.599582 0.189980
0.578031 0.602628 0.193606
0.681266 0.605672 0.197229
0.783742 0.608716 0.200849
0.885567 0.611759 0.204466
0.051253 0.702291 0.187672
0.163475 0.705313 0.191300
0.272088 0.708335 0.194925
0.378660 0.711355 0.198547
0.483804 0.714375 0.202166
0.587851 0.717395 0.205782
0.691009 0.720414 0.209395
0.793420 0.723432 0.213005
0.895187 0.726449 0.216613
0.062149 0.816277 0.199865
0.173885 0.819277 0.203483
0.282264 0.822276 0.207098
0.388681 0.825275 0.210710
0.493709 0.828274 0.214319
0.597664 0.831271 0.217925
0.700746 0.834269 0.221529
0.803091 0.837265 0.225130
0.904802 0.840262 0.228729
0.072971 0.929489 0.212024
0.184268 0.932470 0.215632
0.292422 0.935450 0.219238
0.398689 0.938430 0.222841
0.503604 0.941410 0.226441
0.607469 0.944389 0.230038
0.710476 0.947367 0.233633
0.812757 0.950345 0.237226
0.914412 0.953323 0.240816
0.000000 0.000000 0.240531
0.101379 0.000000 0.244119
0.211675 0.000000 0.247704
0.319281 0.000000 0.251287
0.425170 0.000000 0.254868
0.529799 0.001884 0.258446
0.633433 0.005473 0.262022
0.736246 0.009036 0.265596
0.838362 0.012577 0.269167
0.000000 0.113480 0.252591
0.112001 0.116767 0.256171
0.221967 0.120050 0.259748
0.329381 0.123329 0.263323
0.435135 0.126604 0.266896
0.539660 0.129876 0.270467
0.643210 0.133144 0.274036
0.745953 0.136408 0.277602
0.848008 0.139669 0.281166
0.007740 0.235756 0.264624
0.122579 0.238939 0.268197
0.232237 0.242119 0.271766
0.339467 0.245298 0.275334
0.445090 0.248474 0.278900
0.549514 0.251649 0.282463
0.652981 0.254822 0.286025
0.755654 0.257993 0.289584
0.857648 0.261162 0.293142
0.019112 0.355049 0.276633
0.133118 0.358172 0.280197
0.242486 0.361293 0.283760
0.349538 0.364412 0.287321
0.455034 0.367531 0.290879
0.559358 0.370648 0.294436
0.662744 0.373764 0.297991
0.765348 0.376879 0.301543
0.867283 0.379993 0.305094
0.030312 0.472438 0.288617
0.143621 0.475519 0.292175
0.252715 0.478598 0.295730
0.359596 0.481676 0.299284
0.464968 0.484754 0.302836
0.569194 0.487830 0.306386
0.672500 0.490906 0.309934
0.775037 0.493980 0.313480
0.876913 0.497054 0.317025
0.041385 0.588430 0.300578
0.154090 0.591477 0.304129
0.262925 0.594525 0.307678
0.369641 0.597571 0.311226
0.474891 0.600617 0.314771
0.579022 0.603662 0.318315
0.682250 0.606706 0.321856
0.784719 0.609749 0.325396
0.886538 0.612792 0.328935
0.052357 0.703318 0.312517
0.164527 0.706339 0.316061
0.273116 0.709361 0.319604
0.379673 0.712381 0.323145
0.484805 0.715401 0.326685
0.588842 0.718420 0.330222
0.691992 0.721439 0.333758
0.794396 0.724457 0.337292
0.896158 0.727474 0.340824
0.063244 0.817296 0.324434
0.174935 0.820296 0.327973
0.283290 0.823295 0.331510
0.389691 0.826294 0.335045
0.494708 0.829292 0.338578
0.598654 0.832289 0.342110
0.701728 0.835286 0.345640
0.804067 0.838283 0.349168
0.905772 0.841279 0.352694
0.074059 0.930501 0.336331
0.185314 0.933482 0.339864
0.293447 0.936462 0.343395
0.399698 0.939442 0.346924
0.504602 0.942421 0.350452
0.608458 0.945400 0.353978
0.711457 0.948379 0.357502
0.813733 0.951357 0.361025
0.915382 0.954334 0.364546
0.000000 0.000000 0.364266
0.102453 0.000000 0.367786
0.212715 0.000000 0.371304
0.320301 0.000000 0.374820
0.426176 0.000000 0.378335
0.530795 0.003106 0.381848
0.634420 0.006686 0.385360
0.737226 0.010241 0.388870
0.839336 0.013775 0.392379
0.000000 0.114597 0.376100
0.113071 0.117882 0.379614
0.223004 0.121164 0.383127
0.330400 0.124441 0.386638
0.436141 0.127715 0.390148
0.540656 0.130986 0.393656
0.644197 0.134253 0.397163
0.746932 0.137516 0.400668
0.848981 0.140776 0.404172
0.008898 0.236837 0.387916
0.123645 0.240019 0.391425
0.233272 0.243199 0.394933
0.340484 0.246377 0.398439
0.446095 0.249553 0.401944
0.550508 0.252727 0.405447
0.653966 0.255899 0.408949
0.756632 0.259070 0.412449
0.858621 0.262238 0.415948
0.020249 0.356110 0.399715
0.134180 0.359232 0.403219
0.243520 0.362352 0.406722
0.350554 0.365472 0.410223
0.456037 0.368590 0.413723
0.560351 0.371707 0.417222
0.663729 0.374822 0.420719
0.766326 0.377937 0.424214
0.868256 0.381050 0.427709
0.031435 0.473485 0.411498
0.144679 0.476564 0.414997
0.253747 0.479643 0.418495
0.360611 0.482721 0.421992
0.465970 0.485799 0.425487
0.570187 0.488875 0.428981
0.673485 0.491950 0.432473
0.776014 0.495024 0.435964
0.877885 0.498098 0.439454
0.042497 0.589465 0.423264
0.155145 0.592512 0.426759
0.263955 0.595559 0.430252
0.370654 0.598605 0.433744
0.475892 0.601651 0.437235
0.580014 0.604695 0.440724
0.683233 0.607739 0.444212
0.785697 0.610783 0.447699
0.887509 0.613825 0.451184
0.053460 0.704344 0.435015
0.165579 0.707365 0.438505
0.274144 0.710386 0.441994
0.380685 0.713407 0.445482
0.485805 0.716426 0.448968
0.589833 0.719445 0.452453
0.692975 0.722464 0.455937
0.795373 0.725481 0.459419
0.897129 0.728499 0.462900
0.064339 0.818315 0.446751
0.175984 0.821314 0.450237
0.284316 0.824313 0.453722
0.390702 0.827312 0.457205
0.495708 0.830310 0.460687
0.599644 0.833307 0.464167
0.702711 0.836304 0.467647
0.805043 0.839300 0.471125
0.906743 0.842296 0.474602
0.075148 0.931513 0.458473
0.186361 0.934494 0.461954
0.294471 0.937474 0.465434
0.400708 0.940454 0.468913
0.505601 0.943433 0.472391
0.609448 0.946412 0.475868
0.712439 0.949390 0.479343
0.814708 0.952368 0.482817
0.916352 0.955345 0.486290
0.000000 0.000000 0.486014
0.103527 0.000000 0.489486
0.213754 0.000000 0.492957
0.321321 0.000000 0.496426
0.427183 0.000727 0.499895
0.531790 0.004325 0.503362
0.635407 0.007896 0.506828
0.738206 0.011443 0.510293
0.840310 0.014971 0.513757
0.000000 0.115713 0.497689
0.114140 0.118997 0.501157
0.224042 0.122277 0.504624
0.331419 0.125554 0.508090
0.437146 0.128827 0.511554
0.541650 0.132096 0.515017
0.645183 0.135361 0.518480
0.747912 0.138624 0.521941
0.849955 0.141882 0.525401
0.010053 0.237918 0.509351
0.124710 0.241099 0.512815
0.234308 0.244278 0.516278
0.341501 0.247456 0.519740
0.447099 0.250631 0.523201
0.551502 0.253804 0.526660
0.654952 0.256976 0.530119
0.757611 0.260146 0.533576
0.859594 0.263314 0.537033
0.021385 0.357170 0.521000
0.135242 0.360292 0.524460
0.244553 0.363412 0.527920
0.351570 0.366531 0.531378
0.457041 0.369648 0.534835
0.561345 0.372765 0.538291
0.664714 0.375880 0.541746
0.767305 0.378994 0.545200
0.869228 0.382107 0.548652
0.032557 0.474531 0.532636
0.145737 0.477610 0.536093
0.254778 0.480689 0.539549
0.361625 0.483767 0.543003
0.466972 0.486843 0.546457
0.571179 0.489919 0.549909
0.674469 0.492994 0.553361
0.776992 0.496068 0.556811
0.878857 0.499141 0.560260
0.043608 0.590500 0.544261
0.156200 0.593547 0.547714
0.264984 0.596594 0.551166
0.371667 0.599640 0.554617
0.476894 0.602685 0.558067
0.581006 0.605729 0.561516
0.684217 0.608773 0.564964
0.786674 0.611816 0.568411
0.888481 0.614858 0.571857
0.054561 0.705370 0.555873
0.166631 0.708391 0.559323
0.275172 0.711412 0.562771
0.381696 0.714432 0.566219
0.486805 0.717452 0.569665
0.590824 0.720470 0.573111
0.693958 0.723489 0.576556
0.796349 0.726506 0.579999
0.898099 0.729523 0.583442
0.065433 0.819334 0.567474
0.177032 0.822333 0.570920
0.285342 0.825332 0.574365
0.391713 0.828330 0.577809
0.496707 0.831328 0.581253
0.600634 0.834325 0.584695
0.703693 0.837322 0.588136
0.806019 0.840318 0.591576
0.907713 0.843314 0.595016
0.076235 0.932526 0.579063
0.187407 0.935506 0.582506
0.295495 0.938486 0.585948
0.401717 0.941466 0.589389
0.506599 0.944445 0.592829
0.610437 0.947423 0.596268
0.713421 0.950401 0.599706
0.815683 0.953379 0.603143
0.917321 0.956356 0.606579
0.000000 0.000000 0.606306
0.104601 0.000000 0.609741
0.214794 0.000000 0.613176
0.322341 0.000000 0.616609
0.428189 0.001952 0.620042
0.532786 0.005540 0.623473
0.636395 0.009103 0.626904
0.739186 0.012643 0.630334
0.841284 0.016165 0.633762
0.000000 0.116829 0.617859
0.115209 0.120111 0.621291
0.225079 0.123390 0.624722
0.332437 0.126666 0.628153
0.438151 0.129937 0.631582
0.542645 0.133205 0.635011
0.646170 0.136470 0.638438
0.748891 0.139731 0.641865
0.850928 0.142988 0.645291
0.011206 0.238999 0.629401
0.125775 0.242179 0.632830
0.235343 0.245358 0.636259
0.342519 0.248534 0.639686
0.448103 0.251709 0.643112
0.552496 0.254882 0.646538
0.655938 0.258053 0.649962
0.758590 0.261222 0.653386
0.860567 0.264389 0.656809
0.022519 0.358230 0.640933
0.136303 0.361351 0.644359
0.245586 0.364471 0.647785
0.352586 0.367590 0.651209
0.458044 0.370707 0.654632
0.562338 0.373823 0.658055
0.665699 0.376938 0.661477
0.768283 0.380051 0.664898
0.870200 0.383163 0.668318
0.033678 0.475577 0.652455
0.146795 0.478656 0.655879
0.255809 0.481734 0.659301
0.362640 0.484812 0.662722
0.467974 0.487888 0.666143
0.572172 0.490963 0.669563
0.675453 0.494038 0.672981
0.777970 0.497112 0.676399
0.879829 0.500184 0.679817
0.044718 0.591535 0.663968
0.157254 0.594582 0.667388
0.266013 0.597628 0.670807
0.372680 0.600674 0.674226
0.477895 0.603719 0.677644
0.581997 0.606763 0.681061
0.685201 0.609806 0.684477
0.787651 0.612849 0.687892
0.889452 0.615891 0.691306
0.055662 0.706396 0.675470
0.167682 0.709417 0.678888
0.276199 0.712438 0.682304
0.382708 0.715458 0.685720
0.487805 0.718477 0.689135
0.591815 0.721495 0.692549
0.694941 0.724513 0.695962
0.797326 0.727531 0.699375
0.899070 0.730547 0.702787
0.066527 0.820352 0.686963
0.178081 0.823351 0.690378
0.286368 0.826350 0.693792
0.392723 0.829348 0.697205
0.497706 0.832346 0.700617
0.601624 0.835343 0.704028
0.704675 0.838339 0.707439
0.806995 0.841335 0.710849
0.908683 0.844331 0.714258
0.077322 0.933538 0.698447
0.188452 0.936518 0.701859
0.296519 0.939498 0.705270
0.402726 0.942477 0.708680
0.507597 0.945456 0.712090
0.611426 0.948435 0.715499
0.714403 0.951413 0.718907
0.816659 0.954390 0.722314
0.918291 0.957367 0.725720
0.000000 0.000000 0.725450
0.105674 0.000000 0.728856
0.215833 0.000000 0.732260
0.323361 0.000000 0.735664
0.429195 0.003174 0.739068
0.533782 0.006753 0.742470
0.637382 0.010308 0.745872
0.740166 0.013841 0.749273
0.842258 0.017356 0.752674
0.000847 0.117944 0.736904
0.116277 0.121225 0.740307
0.226116 0.124503 0.743709
0.333455 0.127777 0.747111
0.439157 0.131047 0.750511
0.543640 0.134314 0.753911
0.647156 0.137577 0.757311
0.749871 0.140837 0.760709
0.851901 0.144094 0.764107
0.012357 0.240079 0.748349
0.126840 0.243259 0.751749
0.236378 0.246437 0.755149
0.343535 0.249613 0.758548
0.449107 0.252787 0.761946
0.553490 0.255959 0.765344
0.656924 0.259129 0.768741
0.759569 0.262298 0.772137
0.861540 0.265465 0.775532
0.023652 0.359290 0.759785
0.137364 0.362411 0.763183
0.246619 0.365530 0.766581
0.353602 0.368648 0.769977
0.459047 0.371765 0.773373
0.563331 0.374881 0.776768
0.666684 0.377995 0.780162
0.769261 0.381108 0.783556
0.871173 0.384220 0.786949
0.034797 0.476622 0.771214
0.147852 0.479701 0.774609
0.256840 0.482779 0.778004
0.363654 0.485856 0.781398
0.468976 0.488933 0.784791
0.573164 0.492008 0.788184
0.676438 0.495082 0.791576
0.778947 0.498155 0.794967
0.880800 0.501228 0.798358
0.045827 0.592570 0.782634
0.158308 0.595617 0.786027
0.267042 0.598663 0.789419
0.373693 0.601708 0.792811
0.478895 0.604753 0.796202
0.582989 0.607797 0.799592
0.686184 0.610840 0.802982
0.788628 0.613882 0.806371
0.890423 0.616924 0.809759
0.056763 0.707422 0.794045
0.168733 0.710443 0.797436
0.277227 0.713463 0.800826
0.383720 0.716483 0.804216
0.488805 0.719502 0.807604
0.592805 0.722520 0.810992
0.695924 0.725538 0.814380
0.798302 0.728555 0.817766
0.900041 0.731572 0.821152
0.067620 0.821371 0.805449
0.179129 0.824370 0.808838
0.287393 0.827368 0.812226
0.393734 0.830366 0.815613
0.498705 0.833364 0.818999
0.602614 0.836360 0.822385
0.705658 0.839357 0.825770
0.807971 0.842353 0.829154
0.909653 0.845348 0.832538
0.078408 0.934550 0.816846
0.189498 0.937530 0.820232
0.297543 0.940510 0.823617
0.403736 0.943489 0.827002
0.508595 0.946468 0.830386
0.612415 0.949446 0.833769
0.715384 0.952424 0.837152
0.817634 0.955401 0.840534
0.919261 0.958378 0.843915
0.000000 0.000000 0.843647
0.106746 0.000000 0.847028
0.216872 0.000000 0.850408
0.324381 0.000795 0.853788
0.430201 0.004392 0.857166
0.534778 0.007963 0.860545
0.638369 0.011510 0.863922
0.741146 0.015037 0.867299
0.843231 0.018546 0.870675
0.002022 0.119059 0.855018
0.117345 0.122339 0.858396
0.227153 0.125615 0.861774
0.334474 0.128888 0.865152
0.440162 0.132157 0.868528
0.544635 0.135423 0.871904
0.648143 0.138685 0.875280
0.750850 0.141944 0.878654
0.852875 0.145199 0.882028
0.013505 0.241159 0.866381
0.127904 0.244338 0.869757
0.237413 0.247515 0.873133
0.344552 0.250691 0.876508
0.450111 0.253864 0.879883
0.554484 0.257036 0.883257
0.657909 0.260206 0.886630
0.760548 0.263374 0.890003
0.862512 0.266540 0.893375
0.024783 0.360350 0.877737
0.138424 0.363471 0.881111
0.247652 0.366589 0.884485
0.354617 0.369707 0.887858
0.460050 0.372823 0.891230
0.564324 0.375939 0.894602
0.667669 0.379052 0.897973
0.770239 0.382165 0.901344
0.872145 0.385277 0.904714
0.035915 0.477668 0.889086
0.148909 0.480747 0.892458
0.257871 0.483824 0.895829
0.364668 0.486901 0.899200
0.469978 0.489977 0.902571
0.574156 0.493052 0.905940
0.677422 0.496126 0.909309
0.779925 0.499199 0.912678
0.881772 0.502271 0.916046
0.046935 0.593605 0.900427
0.159362 0.596651 0.903798
0.268071 0.599697 0.907167
0.374706 0.602742 0.910536
0.479896 0.605787 0.913904
0.583980 0.608830 0.917272
0.687168 0.611873 0.920639
0.789605 0.614915 0.924005
0.891394 0.617957 0.927371
0.057862 0.708448 0.911762
0.169784 0.711469 0.915130
0.278254 0.714489 0.918498
0.384731 0.717508 0.921864
0.489805 0.720527 0.925231
0.593796 0.723545 0.928596
0.696907 0.726563 0.931961
0.799278 0.729580 0.935326
0.901011 0.732596 0.938690
0.068712 0.822389 0.923090
0.180177 0.825388 0.926456
0.288419 0.828386 0.929822
0.394744 0.831384 0.933186
0.499704 0.834381 0.936551
0.603604 0.837378 0.939914
0.706640 0.840374 0.943277
0.808947 0.843370 0.946640
0.910623 0.846365 0.950002
0.079494 0.935562 0.934411
0.190543 0.938542 0.937775
0.298567 0.941522 0.941139
0.404745 0.944501 0.944501
0.509593 0.947479 0.947864
0.613404 0.950457 0.951225
0.716366 0.953435 0.954586
0.818609 0.956412 0.957947
0.920230 0.959389 0.961307
0.000000 0.000000 0.961040
0.107818 0.000000 0.964400
0.217911 0.000000 0.967759
0.325400 0.002020 0.971117
0.431207 0.005608 0.974475
0.535773 0.009170 0.977832
0.639356 0.012710 0.981188
0.742126 0.016231 0.984544
0.844205 0.019734 0.987900
0.003193 0.120173 0.972339
0.118413 0.123452 0.975697
0.228190 0.126727 0.979054
0.335492 0.129999 0.982410
0.441166 0.133267 0.985766
0.545630 0.136531 0.989121
0.649129 0.139792 0.992476
0.751829 0.143050 0.995830
0.853848 0.146304 0.999183
0.014652 0.242239 0.983632
0.128967 0.245417 0.986987
0.238447 0.248594 0.990342
0.345569 0.251769 0.993697
0.451115 0.254941 0.997051
0.555477 0.258112 1.000000
0.658895 0.261282 1.000000
0.761526 0.264449 1.000000
0.863485 0.267615 1.000000
0.025913 0.361410 0.994918
0.139484 0.364530 0.998272
0.248684 0.367648 1.000000
0.355632 0.370766 1.000000
0.461052 0.373881 1.000000
0.565317 0.376996 1.000000
0.668654 0.380110 1.000000
0.771217 0.383222 1.000000
0.873117 0.386333 1.000000
0.037033 0.478714 1.000000
0.149966 0.481792 1.000000
0.258902 0.484869 1.000000
0.365682 0.487946 1.000000
0.470980 0.491021 1.000000
0.575148 0.494096 1.000000
0.678406 0.497170 1.000000
0.780902 0.500242 1.000000
0.882744 0.503314 1.000000
0.048042 0.594639 1.000000
0.160415 0.597686 1.000000
0.269100 0.600731 1.000000
0.375719 0.603776 1.000000
0.480897 0.606820 1.000000
0.584971 0.609864 1.000000
0.688151 0.612906 1.000000
0.790581 0.615948 1.000000
0.892365 0.618989 1.000000
0.058961 0.709474 1.000000
0.170834 0.712495 1.000000
0.279281 0.715514 1.000000
0.385743 0.718534 1.000000
0.490804 0.721552 1.000000
0.594786 0.724570 1.000000
0.697890 0.727588 1.000000
0.800255 0.730604 1.000000
0.901982 0.733620 1.000000
0.069803 0.823408 1.000000
0.181225 0.826406 1.000000
0.289444 0.829405 1.000000
0.395754 0.832402 1.000000
0.500702 0.835399 1.000000
0.604594 0.838396 1.000000
0.707622 0.841392 1.000000
0.809922 0.844387 1.000000
0.911593 0.847382 1.000000
0.080579 0.936574 1.000000
0.191588 0.939554 1.000000
0.299590 0.942533 1.000000
0.405753 0.945512 1.000000
0.510591 0.948491 1.000000
0.614393 0.951469 1.000000
0.717347 0.954446 1.000000
0.819584 0.957423 1.000000
0.921200 0.960400 1.000000
