data/luts/cool.cube
TITLE "Cool"
LUT_3D_SIZE 17
0.000000 0.000000 0.000000
0.042195 0.000000 0.000000
0.099229 0.000000 0.000000
0.154858 0.000000 0.000000
0.209594 0.000000 0.000000
0.263675 0.000000 0.000000
0.317239 0.000000 0.000000
0.370379 0.000000 0.000000
0.423156 0.000000 0.000000
0.475620 0.000000 0.000000
0.527806 0.000000 0.000000
0.579744 0.001238 0.001390
0.631458 0.003039 0.003411
0.682966 0.004832 0.005424
0.734286 0.006619 0.007429
0.785431 0.008399 0.009428
0.836414 0.010174 0.011420
0.000000 0.048018 0.000000
0.047689 0.049718 0.000000
0.104550 0.051416 0.000000
0.160079 0.053112 0.000000
0.214745 0.054806 0.000000
0.268772 0.056498 0.000000
0.322293 0.058188 0.000000
0.375396 0.059876 0.000100
0.428142 0.061563 0.002127
0.480578 0.063247 0.004144
0.532739 0.064930 0.006155
0.584655 0.066612 0.008157
0.636348 0.068291 0.010154
0.687838 0.069969 0.012144
0.739140 0.071646 0.014128
0.790270 0.073321 0.016107
0.841238 0.074995 0.018081
0.000000 0.111245 0.000000
0.053160 0.112890 0.000000
0.109860 0.114535 0.000000
0.165293 0.116178 0.000000
0.219890 0.117820 0.000839
0.273865 0.119462 0.002862
0.327343 0.121102 0.004877
0.380409 0.122741 0.006885
0.433124 0.124380 0.008885
0.485533 0.126017 0.010879
0.537670 0.127654 0.012867
0.589564 0.129290 0.014849
0.641237 0.130924 0.016826
0.692708 0.132558 0.018798
0.743994 0.134191 0.020765
0.795107 0.135823 0.022728
0.846061 0.137455 0.024686
0.000000 0.172915 0.000000
0.058610 0.174529 0.001577
0.115159 0.176142 0.003597
0.170499 0.177755 0.005609
0.225030 0.179367 0.007614
0.278953 0.180978 0.009612
0.332389 0.182589 0.011603
0.385420 0.184199 0.013589
0.438104 0.185808 0.015570
0.490486 0.187417 0.017545
0.542599 0.189025 0.019515
0.594470 0.190633 0.021480
0.646123 0.192240 0.023442
0.697577 0.193846 0.025398
0.748845 0.195452 0.027351
0.799943 0.197057 0.029300
0.850882 0.198662 0.031246
0.005417 0.233594 0.006339
0.064041 0.235186 0.008342
0.120447 0.236777 0.010337
0.175698 0.238369 0.012327
0.230165 0.239959 0.014311
0.284037 0.241549 0.016289
0.337432 0.243139 0.018263
0.390427 0.244728 0.020231
0.443081 0.246317 0.022195
0.495436 0.247905 0.024154
0.547525 0.249493 0.026110
0.599375 0.251080 0.028061
0.651008 0.252667 0.030009
0.702443 0.254254 0.031953
0.753695 0.255840 0.033893
0.804778 0.257425 0.035830
0.855702 0.259010 0.037764
0.011152 0.293547 0.013050
0.069455 0.295122 0.015032
0.125725 0.296697 0.017008
0.180891 0.298272 0.018980
0.235294 0.299846 0.020947
0.289117 0.301420 0.022909
0.342471 0.302993 0.024867
0.395432 0.304566 0.026821
0.448056 0.306139 0.028771
0.500384 0.307711 0.030717
0.552449 0.309283 0.032660
0.604278 0.310854 0.034599
0.655892 0.312426 0.036535
0.707309 0.313996 0.038468
0.758544 0.315567 0.040397
0.809611 0.317137 0.042324
0.860521 0.318706 0.044248
0.016831 0.352928 0.019696
0.074852 0.354490 0.021661
0.130994 0.356051 0.023622
0.186076 0.357612 0.025579
0.240418 0.359173 0.027531
0.294192 0.360733 0.029480
0.347506 0.362294 0.031425
0.400433 0.363853 0.033366
0.453027 0.365413 0.035304
0.505329 0.366972 0.037239
0.557371 0.368531 0.039171
0.609179 0.370090 0.041099
0.660773 0.371648 0.043025
0.712172 0.373206 0.044947
0.763391 0.374764 0.046867
0.814443 0.376321 0.048785
0.865338 0.377878 0.050700
0.022466 0.411837 0.026290
0.080233 0.413388 0.028241
0.136253 0.414938 0.030188
0.191255 0.416487 0.032132
0.245537 0.418037 0.034072
0.299264 0.419586 0.036009
0.352538 0.421135 0.037942
0.405432 0.422684 0.039873
0.457996 0.424232 0.041800
0.510273 0.425781 0.043725
0.562291 0.427329 0.045647
0.614078 0.428876 0.047566
0.665653 0.430424 0.049482
0.717034 0.431971 0.051396
0.768237 0.433518 0.053307
0.819273 0.435064 0.055216
0.870155 0.436611 0.057123
0.028062 0.470346 0.032839
0.085600 0.471886 0.034778
0.141503 0.473427 0.036713
0.196427 0.474967 0.038646
0.250651 0.476507 0.040575
0.304331 0.478046 0.042501
0.357567 0.479586 0.044425
0.410427 0.481125 0.046346
0.462963 0.482664 0.048264
0.515213 0.484202 0.050179
0.567209 0.485741 0.052092
0.618975 0.487279 0.054003
0.670531 0.488817 0.055911
0.721895 0.490355 0.057816
0.773081 0.491892 0.059720
0.824102 0.493429 0.061621
0.874969 0.494966 0.063520
0.033625 0.528506 0.039348
0.090953 0.530038 0.041277
0.146745 0.531570 0.043202
0.201594 0.533101 0.045125
0.255761 0.534633 0.047044
0.309395 0.536164 0.048961
0.362592 0.537695 0.050876
0.415420 0.539225 0.052788
0.467927 0.540756 0.054697
0.520152 0.542286 0.056605
0.572125 0.543816 0.058509
0.623870 0.545346 0.060412
0.675407 0.546876 0.062313
0.726754 0.548405 0.064211
0.777924 0.549934 0.066107
0.828930 0.551464 0.068001
0.879783 0.552992 0.069893
0.039159 0.586359 0.045824
0.096293 0.587883 0.047743
0.151979 0.589407 0.049659
0.206754 0.590931 0.051572
0.260865 0.592455 0.053483
0.314454 0.593979 0.055392
0.367614 0.595502 0.057298
0.420409 0.597025 0.059202
0.472888 0.598548 0.061104
0.525088 0.600071 0.063004
0.577039 0.601594 0.064901
0.628763 0.603116 0.066797
0.680282 0.604638 0.068690
0.731611 0.606160 0.070582
0.782765 0.607682 0.072471
0.833756 0.609204 0.074359
0.884595 0.610725 0.076245
0.044666 0.643937 0.052268
0.101621 0.645454 0.054179
0.157204 0.646971 0.056086
0.211908 0.648488 0.057992
0.265965 0.650005 0.059895
0.319510 0.651522 0.061796
0.372633 0.653038 0.063695
0.425396 0.654555 0.065592
0.477847 0.656071 0.067486
0.530023 0.657587 0.069379
0.581950 0.659103 0.071270
0.633655 0.660619 0.073159
0.685154 0.662134 0.075046
0.736466 0.663650 0.076931
0.787605 0.665165 0.078814
0.838581 0.666680 0.080696
0.889406 0.668195 0.082575
0.050149 0.701265 0.058685
0.106937 0.702776 0.060587
0.162422 0.704287 0.062488
0.217057 0.705798 0.064386
0.271060 0.707309 0.066282
0.324562 0.708819 0.068176
0.377648 0.710330 0.070068
0.430380 0.711840 0.071958
0.482804 0.713350 0.073846
0.534954 0.714860 0.075732
0.586860 0.716369 0.077617
0.638544 0.717879 0.079499
0.690026 0.719388 0.081380
0.741321 0.720898 0.083259
0.792443 0.722407 0.085137
0.843405 0.723916 0.087013
0.894216 0.725425 0.088887
0.055611 0.758366 0.065076
0.112241 0.759872 0.066971
0.167633 0.761377 0.068865
0.222200 0.762882 0.070756
0.276151 0.764387 0.072645
0.329610 0.765892 0.074533
0.382660 0.767396 0.076418
0.435362 0.768901 0.078302
0.487758 0.770405 0.080184
0.539884 0.771910 0.082065
0.591768 0.773414 0.083943
0.643432 0.774918 0.085820
0.694895 0.776422 0.087695
0.746173 0.777925 0.089569
0.797280 0.779429 0.091441
0.848227 0.780932 0.093312
0.899024 0.782435 0.095181
0.061052 0.815258 0.071444
0.117535 0.816758 0.073333
0.172836 0.818258 0.075219
0.227338 0.819758 0.077104
0.281237 0.821258 0.078988
0.334655 0.822758 0.080869
0.387670 0.824257 0.082749
0.440340 0.825756 0.084627
0.492710 0.827255 0.086503
0.544812 0.828754 0.088378
0.596674 0.830253 0.090251
0.648318 0.831752 0.092122
0.699763 0.833251 0.093993
0.751024 0.834749 0.095861
0.802115 0.836248 0.097728
0.853048 0.837746 0.099594
0.903831 0.839244 0.101458
0.066475 0.871957 0.077790
0.122819 0.873452 0.079673
0.178032 0.874947 0.081554
0.232470 0.876442 0.083433
0.286319 0.877937 0.085310
0.339696 0.879432 0.087186
0.392676 0.880926 0.089060
0.445316 0.882421 0.090932
0.497659 0.883915 0.092803
0.549737 0.885409 0.094673
0.601578 0.886903 0.096541
0.653202 0.888397 0.098407
0.704629 0.889891 0.100273
0.755874 0.891385 0.102136
0.806949 0.892879 0.103998
0.857867 0.894372 0.105859
0.908637 0.895865 0.107719
0.071881 0.928476 0.084116
0.128093 0.929967 0.085993
0.183221 0.931457 0.087868
0.237597 0.932948 0.089742
0.291397 0.934438 0.091614
0.344733 0.935928 0.093484
0.397679 0.937418 0.095353
0.450289 0.938908 0.097221
0.502606 0.940398 0.099087
0.554660 0.941887 0.100951
0.606480 0.943377 0.102814
0.658085 0.944866 0.104676
0.709494 0.946356 0.106537
0.760722 0.947845 0.108396
0.811782 0.949334 0.110253
0.862685 0.950823 0.112110
0.913442 0.952312 0.113965
0.000000 0.000000 0.048112
0.042751 0.000000 0.050027
0.099767 0.000000 0.051940
0.155386 0.000000 0.053851
0.210114 0.000000 0.055759
0.264189 0.000000 0.057665
0.317750 0.000000 0.059569
0.370885 0.000000 0.061470
0.423660 0.000000 0.063369
0.476121 0.000000 0.065266
0.528305 0.000045 0.067162
0.580240 0.001851 0.069055
0.631951 0.003648 0.070946
0.683458 0.005439 0.072835
0.734776 0.007224 0.074722
0.785919 0.009003 0.076607
0.836901 0.010776 0.078491
0.000000 0.048596 0.054546
0.048242 0.050295 0.056453
0.105087 0.051992 0.058358
0.160606 0.053687 0.060261
0.215265 0.055381 0.062162
0.269286 0.057072 0.064060
0.322803 0.058761 0.065957
0.375902 0.060449 0.067851
0.428645 0.062135 0.069743
0.481078 0.063819 0.071634
0.533237 0.065502 0.073522
0.585151 0.067182 0.075409
0.636842 0.068861 0.077293
0.688329 0.070539 0.079176
0.739630 0.072215 0.081058
0.790758 0.073890 0.082937
0.841725 0.075562 0.084815
0.000000 0.111804 0.060953
0.053711 0.113449 0.062853
0.110395 0.115093 0.064751
0.165819 0.116736 0.066647
0.220410 0.118378 0.068540
0.274379 0.120019 0.070432
0.327852 0.121659 0.072321
0.380915 0.123298 0.074209
0.433627 0.124936 0.076095
0.486033 0.126573 0.077979
0.538168 0.128209 0.079862
0.590059 0.129845 0.081742
0.641730 0.131479 0.083621
0.693200 0.133113 0.085498
0.744483 0.134746 0.087374
0.795595 0.136378 0.089248
0.846548 0.138009 0.091120
0.000203 0.173463 0.067336
0.059159 0.175077 0.069229
0.115693 0.176690 0.071120
0.171024 0.178302 0.073009
0.225549 0.179914 0.074896
0.279467 0.181525 0.076781
0.332898 0.183136 0.078665
0.385926 0.184745 0.080546
0.438607 0.186355 0.082426
0.490985 0.187963 0.084305
0.543096 0.189571 0.086181
0.594966 0.191179 0.088056
0.646617 0.192785 0.089930
0.698068 0.194391 0.091802
0.749335 0.195997 0.093672
0.800431 0.197602 0.095541
0.851369 0.199206 0.097408
0.005999 0.234134 0.073696
0.064589 0.235726 0.075583
0.120980 0.237318 0.077467
0.176223 0.238909 0.079350
0.230683 0.240499 0.081231
0.284550 0.242089 0.083110
0.337940 0.243679 0.084988
0.390933 0.245268 0.086864
0.443583 0.246856 0.088739
0.495935 0.248445 0.090611
0.548022 0.250032 0.092483
0.599870 0.251619 0.094352
0.651502 0.253206 0.096221
0.702935 0.254792 0.098087
0.754185 0.256378 0.099953
0.805266 0.257963 0.101817
0.856189 0.259548 0.103679
0.011727 0.294082 0.080035
0.070000 0.295657 0.081915
0.126257 0.297232 0.083794
0.181414 0.298806 0.085671
0.235812 0.300380 0.087547
0.289629 0.301954 0.089421
0.342979 0.303527 0.091293
0.395937 0.305100 0.093164
0.448558 0.306673 0.095033
0.500883 0.308245 0.096900
0.552946 0.309817 0.098767
0.604773 0.311388 0.100632
0.656385 0.312959 0.102495
0.707800 0.314530 0.104357
0.759033 0.316100 0.106218
0.810099 0.317670 0.108077
0.861007 0.319239 0.109935
0.017402 0.353458 0.086354
0.075396 0.355020 0.088229
0.131525 0.356581 0.090102
0.186599 0.358142 0.091974
0.240935 0.359703 0.093844
0.294705 0.361263 0.095713
0.348014 0.362823 0.097580
0.400938 0.364383 0.099446
0.453529 0.365943 0.101310
0.505828 0.367502 0.103173
0.557868 0.369060 0.105034
0.609673 0.370619 0.106895
0.661266 0.372177 0.108753
0.712663 0.373735 0.110611
0.763880 0.375292 0.112467
0.814931 0.376850 0.114322
0.865825 0.378407 0.116175
0.023033 0.412364 0.092655
0.080776 0.413914 0.094525
0.136783 0.415464 0.096393
0.191777 0.417014 0.098259
0.246054 0.418563 0.100125
0.299776 0.420112 0.101988
0.353046 0.421661 0.103851
0.405936 0.423210 0.105712
0.458498 0.424758 0.107571
0.510771 0.426306 0.109430
0.562788 0.427854 0.111287
0.614572 0.429402 0.113142
0.666145 0.430949 0.114997
0.717525 0.432496 0.116850
0.768726 0.434043 0.118702
0.819761 0.435589 0.120553
0.870641 0.437136 0.122402
0.028625 0.470869 0.098939
0.086141 0.472409 0.100803
0.142033 0.473950 0.102667
0.196949 0.475490 0.104528
0.251167 0.477029 0.106389
0.304843 0.478569 0.108248
0.358074 0.480108 0.110106
0.410931 0.481647 0.111962
0.463464 0.483186 0.113818
0.515712 0.484725 0.115672
0.567705 0.486263 0.117524
0.619469 0.487801 0.119376
0.671023 0.489339 0.121226
0.722385 0.490877 0.123075
0.773570 0.492414 0.124923
0.824590 0.493951 0.126770
0.875455 0.495488 0.128616
0.034185 0.529026 0.105206
0.091493 0.530558 0.107066
0.147274 0.532090 0.108925
0.202115 0.533621 0.110782
0.256276 0.535153 0.112638
0.309906 0.536684 0.114493
0.363099 0.538215 0.116346
0.415923 0.539745 0.118199
0.468428 0.541276 0.120050
0.520651 0.542806 0.121899
0.572621 0.544336 0.123748
0.624364 0.545866 0.125596
0.675899 0.547395 0.127442
0.727244 0.548925 0.129287
0.778412 0.550454 0.131131
0.829417 0.551983 0.132974
0.880269 0.553511 0.134816
0.039716 0.586877 0.111458
0.096831 0.588401 0.113313
0.152507 0.589925 0.115168
0.207275 0.591449 0.117021
0.261380 0.592973 0.118873
0.314965 0.594496 0.120723
0.368121 0.596019 0.122573
0.420913 0.597542 0.124421
0.473389 0.599065 0.126268
0.525587 0.600588 0.128114
0.577535 0.602111 0.129959
0.629257 0.603633 0.131802
0.680774 0.605155 0.133645
0.732101 0.606677 0.135486
0.783254 0.608199 0.137327
0.834243 0.609721 0.139166
0.885081 0.611242 0.141004
0.045220 0.644452 0.117695
0.102158 0.645969 0.119547
0.157732 0.647486 0.121397
0.212428 0.649003 0.123246
0.266480 0.650520 0.125093
0.320020 0.652037 0.126940
0.373139 0.653553 0.128786
0.425899 0.655070 0.130630
0.478348 0.656586 0.132473
0.530521 0.658102 0.134315
0.582446 0.659618 0.136156
0.634148 0.661133 0.137996
0.685646 0.662649 0.139835
0.736957 0.664164 0.141673
0.788093 0.665679 0.143510
0.839068 0.667194 0.145346
0.889892 0.668709 0.147181
0.050701 0.701778 0.123919
0.107473 0.703289 0.125766
0.162949 0.704800 0.127612
0.217576 0.706311 0.129457
0.271574 0.707822 0.131301
0.325072 0.709332 0.133144
0.378154 0.710842 0.134986
0.430883 0.712353 0.136826
0.483304 0.713863 0.138666
0.535452 0.715372 0.140505
0.587356 0.716882 0.142342
0.639038 0.718392 0.144179
0.690517 0.719901 0.146014
0.741811 0.721410 0.147849
0.792931 0.722919 0.149682
0.843891 0.724428 0.151515
0.894701 0.725937 0.153346
0.056161 0.758877 0.130129
0.112776 0.760383 0.131972
0.168158 0.761888 0.133815
0.222719 0.763393 0.135656
0.276665 0.764898 0.137496
0.330119 0.766403 0.139336
0.383166 0.767907 0.141174
0.435864 0.769412 0.143011
0.488258 0.770916 0.144847
0.540382 0.772420 0.146682
0.592263 0.773924 0.148516
0.643925 0.775428 0.150349
0.695387 0.776932 0.152181
0.746663 0.778436 0.154013
0.797768 0.779939 0.155843
0.848713 0.781443 0.157672
0.899510 0.782946 0.159501
0.061600 0.815768 0.136326
0.118069 0.817268 0.138166
0.173360 0.818768 0.140005
0.227856 0.820268 0.141843
0.281751 0.821767 0.143679
0.335164 0.823267 0.145515
0.388175 0.824766 0.147350
0.440843 0.826265 0.149184
0.493209 0.827765 0.151016
0.545309 0.829264 0.152848
0.597169 0.830762 0.154679
0.648811 0.832261 0.156509
0.700254 0.833760 0.158338
0.751514 0.835258 0.160166
0.802603 0.836757 0.161993
0.853534 0.838255 0.163819
0.904317 0.839753 0.165645
0.067022 0.872465 0.142511
0.123352 0.873960 0.144348
0.178556 0.875455 0.146183
0.232987 0.876950 0.148018
0.286832 0.878445 0.149851
0.340204 0.879939 0.151683
0.393181 0.881434 0.153515
0.445818 0.882928 0.155345
0.498158 0.884423 0.157175
0.550234 0.885917 0.159004
0.602073 0.887411 0.160831
0.653695 0.888905 0.162658
0.705120 0.890399 0.164484
0.756363 0.891892 0.166309
0.807437 0.893386 0.168133
0.858353 0.894879 0.169956
0.909122 0.896372 0.171779
0.072426 0.928982 0.148685
0.128625 0.930473 0.150518
0.183744 0.931963 0.152350
0.238114 0.933454 0.154181
0.291910 0.934944 0.156012
0.345241 0.936434 0.157841
0.398184 0.937924 0.159669
0.450791 0.939414 0.161496
0.503105 0.940904 0.163323
0.555157 0.942393 0.165148
0.606974 0.943883 0.166973
0.658577 0.945372 0.168797
0.709985 0.946862 0.170620
0.761211 0.948351 0.172442
0.812269 0.949840 0.174263
0.863172 0.951329 0.176083
0.913927 0.952818 0.177903
0.000000 0.000000 0.113671
0.043306 0.000000 0.115525
0.100304 0.000000 0.117377
0.155913 0.000000 0.119229
0.210634 0.000000 0.121079
0.264704 0.000000 0.122929
0.318260 0.000000 0.124777
0.371392 0.000000 0.126623
0.424163 0.000000 0.128469
0.476621 0.000000 0.130314
0.528803 0.000659 0.132157
0.580736 0.002462 0.133999
0.632445 0.004257 0.135841
0.683950 0.006046 0.137681
0.735266 0.007829 0.139520
0.786408 0.009605 0.141358
0.837388 0.011377 0.143195
0.000000 0.049173 0.119903
0.048795 0.050871 0.121753
0.105623 0.052568 0.123602
0.161133 0.054263 0.125449
0.215784 0.055955 0.127296
0.269801 0.057646 0.129141
0.323313 0.059335 0.130985
0.376408 0.061022 0.132828
0.429148 0.062707 0.134670
0.481578 0.064391 0.136511
0.533735 0.066072 0.138351
0.585646 0.067753 0.140189
0.637335 0.069431 0.142027
0.688821 0.071108 0.143864
0.740120 0.072784 0.145699
0.791247 0.074458 0.147534
0.842212 0.076130 0.149368
0.000000 0.112363 0.126121
0.054262 0.114007 0.127967
0.110931 0.115651 0.129812
0.166345 0.117294 0.131656
0.220929 0.118935 0.133499
0.274892 0.120576 0.135340
0.328362 0.122216 0.137181
0.381421 0.123854 0.139020
0.434130 0.125492 0.140858
0.486533 0.127129 0.142696
0.538665 0.128765 0.144532
0.590555 0.130400 0.146367
0.642223 0.132034 0.148202
0.693691 0.133668 0.150035
0.744973 0.135300 0.151867
0.796084 0.136932 0.153699
0.847034 0.138562 0.155529
0.000792 0.174011 0.132327
0.059708 0.175624 0.134169
0.116227 0.177237 0.136010
0.171550 0.178850 0.137850
0.226068 0.180461 0.139690
0.279980 0.182072 0.141527
0.333407 0.183682 0.143364
0.386431 0.185292 0.145200
0.439109 0.186901 0.147035
0.491485 0.188509 0.148869
0.543593 0.190117 0.150702
0.595461 0.191724 0.152534
0.647110 0.193331 0.154365
0.698559 0.194937 0.156195
0.749825 0.196542 0.158024
0.800919 0.198147 0.159852
0.851855 0.199751 0.161680
0.006580 0.234675 0.138520
0.065136 0.236267 0.140359
0.121513 0.237858 0.142196
0.176747 0.239449 0.144033
0.231201 0.241039 0.145869
0.285063 0.242629 0.147703
0.338449 0.244219 0.149537
0.391438 0.245807 0.151369
0.444086 0.247396 0.153201
0.496435 0.248984 0.155031
0.548519 0.250571 0.156861
0.600365 0.252158 0.158690
0.651995 0.253745 0.160518
0.703426 0.255331 0.162345
0.754675 0.256916 0.164171
0.805754 0.258502 0.165996
0.856675 0.260086 0.167820
0.012303 0.294617 0.144701
0.070546 0.296192 0.146537
0.126790 0.297767 0.148371
0.181938 0.299341 0.150204
0.236329 0.300915 0.152036
0.290142 0.302488 0.153867
0.343488 0.304062 0.155698
0.396442 0.305634 0.157527
0.449060 0.307207 0.159356
0.501382 0.308779 0.161183
0.553443 0.310350 0.163010
0.605268 0.311922 0.164835
0.656877 0.313493 0.166660
0.708291 0.315063 0.168484
0.759523 0.316633 0.170307
0.810587 0.318203 0.172129
0.861494 0.319772 0.173951
0.017972 0.353989 0.150871
0.075940 0.355550 0.152703
0.132056 0.357111 0.154534
0.187122 0.358672 0.156364
0.241452 0.360233 0.158193
0.295217 0.361793 0.160021
0.348522 0.363353 0.161848
0.401443 0.364913 0.163674
0.454031 0.366472 0.165500
0.506328 0.368031 0.167324
0.558365 0.369590 0.169148
0.610168 0.371148 0.170971
0.661759 0.372706 0.172793
0.713154 0.374264 0.174614
0.764370 0.375821 0.176434
0.815418 0.377379 0.178253
0.866311 0.378935 0.180072
0.023599 0.412890 0.157030
0.081318 0.414440 0.158859
0.137314 0.415990 0.160686
0.192300 0.417540 0.162513
0.246570 0.419089 0.164339
0.300287 0.420638 0.166164
0.353554 0.422187 0.167988
0.406440 0.423736 0.169812
0.458999 0.425284 0.171634
0.511270 0.426832 0.173456
0.563284 0.428380 0.175276
0.615067 0.429927 0.177096
0.666638 0.431474 0.178915
0.718016 0.433021 0.180734
0.769215 0.434568 0.182551
0.820248 0.436114 0.184368
0.871127 0.437661 0.186183
0.029188 0.471392 0.163178
0.086682 0.472933 0.165004
0.142562 0.474473 0.166828
0.197471 0.476013 0.168652
0.251683 0.477552 0.170475
0.305354 0.479092 0.172297
0.358582 0.480631 0.174119
0.411435 0.482170 0.175939
0.463965 0.483709 0.177759
0.516211 0.485247 0.179577
0.568202 0.486785 0.181395
0.619963 0.488323 0.183212
0.671516 0.489861 0.185029
0.722876 0.491399 0.186844
0.774059 0.492936 0.188659
0.825077 0.494473 0.190473
0.875941 0.496010 0.192286
0.034744 0.529547 0.169316
0.092032 0.531079 0.171139
0.147803 0.532610 0.172960
0.202636 0.534142 0.174781
0.256792 0.535673 0.176602
0.310417 0.537204 0.178421
0.363606 0.538734 0.180239
0.416427 0.540265 0.182057
0.468929 0.541795 0.183874
0.521149 0.543325 0.185690
0.573117 0.544855 0.187505
0.624858 0.546385 0.189319
0.676391 0.547915 0.191133
0.727734 0.549444 0.192946
0.778901 0.550973 0.194758
0.829904 0.552502 0.196570
0.880755 0.554031 0.198380
0.040272 0.587394 0.175444
0.097370 0.588919 0.177264
0.153035 0.590442 0.179083
0.207795 0.591966 0.180901
0.261895 0.593490 0.182718
0.315475 0.595013 0.184535
0.368628 0.596537 0.186351
0.421416 0.598060 0.188166
0.473890 0.599582 0.189980
0.526085 0.601105 0.191793
0.578031 0.602628 0.193606
0.629751 0.604150 0.195418
0.681266 0.605672 0.197229
0.732591 0.607194 0.199039
0.783742 0.608716 0.200849
0.834730 0.610237 0.202658
0.885567 0.611759 0.204466
0.045775 0.644967 0.181563
0.102695 0.646484 0.183380
0.158259 0.648002 0.185196
0.212948 0.649519 0.187012
0.266994 0.651035 0.188826
0.320530 0.652552 0.190640
0.373646 0.654068 0.192453
0.426403 0.655585 0.194266
0.478848 0.657101 0.196077
0.531018 0.658617 0.197888
0.582942 0.660132 0.199698
0.634642 0.661648 0.201507
0.686138 0.663163 0.203316
0.737447 0.664679 0.205124
0.788582 0.666194 0.206931
0.839555 0.667709 0.208738
0.890377 0.669223 0.210543
0.051253 0.702291 0.187672
0.108009 0.703802 0.189487
0.163475 0.705313 0.191300
0.218096 0.706824 0.193113
0.272088 0.708335 0.194925
0.325581 0.709845 0.196736
0.378660 0.711355 0.198547
0.431386 0.712865 0.200357
0.483804 0.714375 0.202166
0.535950 0.715885 0.203974
0.587851 0.717395 0.205782
0.639531 0.718904 0.207589
0.691009 0.720414 0.209395
0.742300 0.721923 0.211200
0.793420 0.723432 0.213005
0.844378 0.724941 0.214809
0.895187 0.726449 0.216613
0.056711 0.759389 0.193773
0.113311 0.760894 0.195585
0.168684 0.762399 0.197396
0.223238 0.763904 0.199206
0.277178 0.765409 0.201016
0.330629 0.766914 0.202824
0.383672 0.768418 0.204632
0.436367 0.769923 0.206440
0.488758 0.771427 0.208246
0.540879 0.772931 0.210052
0.592759 0.774435 0.211858
0.644419 0.775939 0.213662
0.695878 0.777443 0.215466
0.747153 0.778946 0.217269
0.798256 0.780450 0.219072
0.849200 0.781953 0.220873
0.899995 0.783456 0.222675
0.062149 0.816277 0.199865
0.118603 0.817777 0.201674
0.173885 0.819277 0.203483
0.228374 0.820777 0.205291
0.282264 0.822276 0.207098
0.335673 0.823776 0.208904
0.388681 0.825275 0.210710
0.441345 0.826775 0.212515
0.493709 0.828274 0.214319
0.545806 0.829773 0.216123
0.597664 0.831271 0.217925
0.649304 0.832770 0.219728
0.700746 0.834269 0.221529
0.752003 0.835767 0.223330
0.803091 0.837265 0.225130
0.854021 0.838763 0.226930
0.904802 0.840262 0.228729
0.067568 0.872973 0.205949
0.123885 0.874468 0.207755
0.179080 0.875963 0.209561
0.233505 0.877458 0.211367
0.287345 0.878952 0.213172
0.340713 0.880447 0.214976
0.393686 0.881941 0.216779
0.446320 0.883436 0.218582
0.498658 0.884930 0.220384
0.550731 0.886424 0.222185
0.602568 0.887918 0.223986
0.654188 0.889412 0.225786
0.705611 0.890906 0.227585
0.756853 0.892399 0.229384
0.807925 0.893893 0.231182
0.858840 0.895386 0.232979
0.909608 0.896880 0.234776
0.072971 0.929489 0.212024
0.129156 0.930979 0.213829
0.184268 0.932470 0.215632
0.238631 0.933960 0.217435
0.292422 0.935450 0.219238
0.345750 0.936940 0.221040
0.398689 0.938430 0.222841
0.451293 0.939920 0.224641
0.503604 0.941410 0.226441
0.555654 0.942899 0.228240
0.607469 0.944389 0.230038
0.659070 0.945878 0.231836
0.710476 0.947367 0.233633
0.761700 0.948856 0.235430
0.812757 0.950345 0.237226
0.863658 0.951834 0.239021
0.914412 0.953323 0.240816
0.000000 0.000000 0.177614
0.043861 0.000000 0.179433
0.100842 0.000000 0.181251
0.156440 0.000000 0.183068
0.211154 0.000000 0.184885
0.265219 0.000000 0.186700
0.318770 0.000000 0.188515
0.371898 0.000000 0.190329
0.424667 0.000000 0.192142
0.477122 0.000000 0.193955
0.529301 0.001272 0.195766
0.581232 0.003072 0.197577
0.632939 0.004866 0.199388
0.684441 0.006652 0.201197
0.735756 0.008433 0.203006
0.786896 0.010208 0.204814
0.837875 0.011977 0.206621
0.000000 0.049750 0.183730
0.049348 0.051448 0.185546
0.106159 0.053144 0.187361
