data/luts/flat.cube
TITLE "Flat"
LUT_3D_SIZE 5
0.211011 0.211011 0.211011
0.354721 0.226259 0.226259
0.491439 0.241369 0.241369
0.623878 0.256353 0.256353
0.753246 0.271223 0.271223
0.261779 0.388416 0.261779
0.402563 0.402563 0.276611
0.537610 0.416652 0.291342
0.668887 0.430686 0.305979
0.797369 0.444667 0.320530
0.311287 0.556202 0.311287
0.449744 0.569788 0.325807
0.583337 0.583337 0.340249
0.713565 0.596852 0.354617
0.841229 0.610333 0.368915
0.359830 0.718381 0.359830
0.496359 0.731593 0.374104
0.628669 0.744779 0.388313
0.757939 0.757939 0.402461
0.884844 0.771075 0.416550
0.407597 0.876617 0.407597
0.542480 0.889550 0.421666
0.673641 0.902463 0.435680
0.802033 0.915356 0.449643
0.928229 0.928229 0.463555
0.216206 0.216206 0.345241
0.359584 0.231405 0.359584
0.496122 0.246471 0.373859
0.628438 0.261415 0.388069
0.757713 0.276250 0.402218
0.266828 0.393227 0.393227
0.407354 0.407354 0.407354
0.542245 0.421424 0.421424
0.673412 0.435440 0.435440
0.801808 0.449403 0.449403
0.316227 0.560820 0.440529
0.454474 0.574393 0.454474
0.587931 0.587931 0.468370
0.718058 0.601434 0.482218
0.845643 0.614903 0.496022
0.364685 0.722871 0.487249
0.501036 0.736074 0.501036
0.633224 0.749251 0.514780
0.762403 0.762403 0.528483
0.889234 0.775530 0.542146
0.412381 0.881011 0.533462
0.547111 0.893937 0.547111
0.678162 0.906843 0.560721
0.806470 0.919730 0.574295
0.932597 0.932597 0.587833
0.221384 0.221384 0.473179
0.364439 0.236536 0.487011
0.500799 0.251559 0.500799
0.632994 0.266465 0.514544
0.762177 0.281264 0.528248
0.271865 0.398031 0.519538
0.412139 0.412139 0.533227
0.546876 0.426190 0.546876
0.677933 0.440188 0.560488
0.806245 0.454134 0.574062
0.321158 0.565434 0.565434
0.459199 0.578995 0.578995
0.592521 0.592521 0.592521
0.722548 0.606012 0.606012
0.850054 0.619470 0.619470
0.369532 0.727358 0.610916
0.505709 0.740552 0.624362
0.637776 0.753720 0.637776
0.766864 0.766864 0.651160
0.893621 0.779983 0.664513
0.417159 0.885403 0.656025
0.551737 0.898323 0.669367
0.682680 0.911222 0.682680
0.810903 0.924102 0.695965
0.936962 0.936962 0.709222
0.226545 0.226545 0.597204
0.369287 0.241652 0.610684
0.505472 0.256634 0.624131
0.637546 0.271502 0.637546
0.766638 0.286267 0.650930
0.276889 0.402829 0.642422
0.416917 0.416917 0.655795
0.551503 0.430950 0.669138
0.682451 0.444929 0.682451
0.810679 0.458859 0.695736
0.326080 0.570043 0.687291
0.463917 0.583592 0.700566
0.597106 0.597106 0.713814
0.727035 0.610586 0.727035
0.854463 0.624033 0.740229
0.374372 0.731841 0.731841
0.510376 0.745027 0.745027
0.642325 0.758187 0.758187
0.771322 0.771322 0.771322
0.898007 0.784433 0.784433
0.421930 0.889793 0.776098
0.556359 0.902705 0.789200
0.687195 0.915598 0.802279
0.815335 0.928471 0.815335
0.941325 0.941325 0.828368
0.231690 0.231690 0.718403
0.374127 0.246753 0.731614
0.510140 0.261695 0.744800
0.642095 0.276528 0.757960
0.771096 0.291259 0.771096
0.281902 0.407620 0.762745
0.421689 0.421689 0.775872
0.556125 0.435703 0.788975
0.686966 0.449665 0.802054
0.815110 0.463578 0.815110
0.330992 0.574648 0.806810
0.468631 0.588185 0.819858
0.601688 0.601688 0.832884
0.731518 0.615157 0.845887
0.858869 0.628593 0.858869
0.379204 0.736322 0.850616
0.515039 0.749499 0.863590
0.646870 0.762650 0.876544
0.775777 0.775777 0.889477
0.902390 0.788880 0.902390
0.426695 0.894180 0.894180
0.560977 0.907086 0.907086
0.691706 0.919972 0.919972
0.819763 0.932839 0.932839
0.945687 0.945687 0.945687
