data/luts/flat.cube
TITLE "Flat"
LUT_3D_SIZE 17
0.211011 0.211011 0.211011
0.247884 0.214837 0.214837
0.284042 0.218654 0.218654
0.319623 0.222461 0.222461
0.354721 0.226259 0.226259
0.389405 0.230049 0.230049
0.423727 0.233830 0.233830
0.457727 0.237603 0.237603
0.491439 0.241369 0.241369
0.524889 0.245126 0.245126
0.558100 0.248876 0.248876
0.591091 0.252618 0.252618
0.623878 0.256353 0.256353
0.656476 0.260081 0.260081
0.688896 0.263802 0.263802
0.721149 0.267516 0.267516
0.753246 0.271223 0.271223
0.223845 0.256724 0.223845
0.260451 0.260451 0.227640
0.296397 0.264171 0.231427
0.331802 0.267885 0.235205
0.366750 0.271592 0.238975
0.401304 0.275292 0.242737
0.435510 0.278986 0.246492
0.469408 0.282674 0.250239
0.503026 0.286356 0.253978
0.536391 0.290032 0.257711
0.569524 0.293702 0.261436
0.602443 0.297366 0.265155
0.635163 0.301024 0.268866
0.667698 0.304677 0.272572
0.700059 0.308325 0.276270
0.732258 0.311967 0.279963
0.764303 0.315604 0.283649
0.236578 0.301388 0.236578
0.272940 0.305040 0.240346
0.308687 0.308687 0.244105
0.343926 0.312329 0.247857
0.378732 0.315965 0.251601
0.413161 0.319597 0.255338
0.447257 0.323223 0.259068
0.481055 0.326844 0.262791
0.514583 0.330460 0.266507
0.547866 0.334072 0.270216
0.580923 0.337678 0.273919
0.613771 0.341280 0.277615
0.646426 0.344878 0.281306
0.678899 0.348471 0.284990
0.711203 0.352059 0.288668
0.743348 0.355643 0.292340
0.775342 0.359223 0.296006
0.249221 0.345235 0.249221
0.285356 0.348828 0.252962
0.320917 0.352416 0.256697
0.355999 0.355999 0.260424
0.390669 0.359578 0.264144
0.424978 0.363153 0.267858
0.458968 0.366724 0.271565
0.492670 0.370291 0.275265
0.526111 0.373853 0.278960
0.559313 0.377412 0.282647
0.592296 0.380966 0.286329
0.625076 0.384517 0.290005
0.657667 0.388063 0.293675
0.690081 0.391606 0.297339
0.722328 0.395145 0.300998
0.754420 0.398681 0.304651
0.786364 0.402212 0.308298
0.261779 0.388416 0.261779
0.297703 0.391958 0.265497
0.333090 0.395497 0.269208
0.368023 0.399032 0.272913
0.402563 0.402563 0.276611
0.436758 0.406091 0.280303
0.470645 0.409615 0.283989
0.504253 0.413135 0.287668
0.537610 0.416652 0.291342
0.570735 0.420166 0.295010
0.603646 0.423676 0.298672
0.636359 0.427183 0.302328
0.668887 0.430686 0.305979
0.701242 0.434186 0.309625
0.733435 0.437683 0.313265
0.765474 0.441176 0.316900
0.797369 0.444667 0.320530
0.274260 0.431034 0.274260
0.309987 0.434534 0.277956
0.345209 0.438030 0.281645
0.380000 0.441524 0.285329
0.414416 0.445014 0.289006
0.448501 0.448501 0.292678
0.482288 0.451984 0.296344
0.515807 0.455465 0.300004
0.549081 0.458943 0.303658
0.582130 0.462417 0.307307
0.614971 0.465889 0.310951
0.647619 0.469357 0.314589
0.680086 0.472823 0.318222
0.712384 0.476286 0.321851
0.744523 0.479746 0.325474
0.776511 0.483203 0.329092
0.808358 0.486657 0.332705
0.286668 0.473167 0.286668
0.322211 0.476630 0.290344
0.357277 0.480090 0.294013
0.391933 0.483546 0.297677
0.426230 0.487000 0.301335
0.460208 0.490451 0.304987
0.493900 0.493900 0.308634
0.527332 0.497345 0.312276
0.560526 0.500788 0.315913
0.593501 0.504229 0.319544
0.626274 0.507666 0.323170
0.658858 0.511101 0.326791
0.691265 0.514533 0.330408
0.723507 0.517963 0.334019
0.755593 0.521390 0.337626
0.787532 0.524815 0.341228
0.819331 0.528237 0.344826
0.299009 0.514875 0.299009
0.334378 0.518304 0.302665
0.369296 0.521731 0.306316
0.403822 0.525155 0.309961
0.438005 0.528577 0.313601
0.471881 0.531996 0.317235
0.505480 0.535413 0.320865
0.538828 0.538828 0.324489
0.571944 0.542240 0.328109
0.604848 0.545649 0.331723
0.637554 0.549057 0.335333
0.670076 0.552461 0.338938
0.702425 0.555864 0.342538
0.734612 0.559264 0.346134
0.766646 0.562662 0.349725
0.798535 0.566057 0.353312
0.830288 0.569450 0.356895
0.311287 0.556202 0.311287
0.346492 0.559602 0.314924
0.381268 0.563000 0.318557
0.415671 0.566395 0.322185
0.449744 0.569788 0.325807
0.483521 0.573179 0.329425
0.517031 0.576567 0.333038
0.550296 0.579953 0.336646
0.583337 0.583337 0.340249
0.616171 0.586719 0.343848
0.648812 0.590099 0.347442
0.681273 0.593477 0.351032
0.713565 0.596852 0.354617
0.745698 0.600225 0.358198
0.777681 0.603597 0.361775
0.809522 0.606966 0.365347
0.841229 0.610333 0.368915
0.323504 0.597188 0.323504
0.358554 0.600561 0.327125
0.393196 0.603932 0.330741
0.427480 0.607301 0.334352
0.461448 0.610668 0.337958
0.495129 0.614032 0.341560
0.528552 0.617395 0.345157
0.561738 0.620756 0.348750
0.594706 0.624115 0.352338
0.627471 0.627471 0.355921
0.660049 0.630826 0.359501
0.692450 0.634179 0.363076
0.724686 0.637530 0.366646
0.756766 0.640878 0.370213
0.788700 0.644225 0.373776
0.820493 0.647570 0.377334
0.852155 0.650914 0.380889
0.335665 0.637863 0.335665
0.370568 0.641211 0.339270
0.405081 0.644558 0.342870
0.439252 0.647903 0.346465
0.473117 0.651246 0.350056
0.506707 0.654587 0.353643
0.540045 0.657926 0.357225
0.573154 0.661263 0.360803
0.606050 0.664599 0.364376
0.638749 0.667932 0.367945
0.671264 0.671264 0.371511
0.703607 0.674594 0.375072
0.735788 0.677922 0.378629
0.767817 0.681249 0.382182
0.799701 0.684573 0.385731
0.831449 0.687896 0.389276
0.863066 0.691217 0.392818
0.347773 0.678253 0.347773
0.382535 0.681579 0.351363
0.416925 0.684904 0.354947
0.450987 0.688226 0.358528
0.484754 0.691547 0.362104
0.518254 0.694866 0.365676
0.551511 0.698184 0.369244
0.584544 0.701500 0.372808
0.617371 0.704814 0.376367
0.650005 0.708126 0.379923
0.682459 0.711436 0.383475
0.714745 0.714745 0.387022
0.746873 0.718052 0.390566
0.778851 0.721358 0.394106
0.810687 0.724662 0.397643
0.842388 0.727964 0.401176
0.873962 0.731265 0.404705
0.359830 0.718381 0.359830
0.394458 0.721687 0.363405
0.428731 0.724990 0.366975
0.462687 0.728293 0.370542
0.496359 0.731593 0.374104
0.529773 0.734892 0.377662
0.562950 0.738189 0.381216
0.595910 0.741485 0.384767
0.628669 0.744779 0.388313
0.661239 0.748071 0.391856
0.693634 0.751362 0.395394
0.725864 0.754651 0.398929
0.757939 0.757939 0.402461
0.789867 0.761225 0.405989
0.821656 0.764510 0.409513
0.853313 0.767793 0.413033
0.884844 0.771075 0.416550
0.371839 0.758266 0.371839
0.406339 0.761552 0.375400
0.440498 0.764837 0.378957
0.474353 0.768120 0.382509
0.507933 0.771401 0.386058
0.541263 0.774681 0.389603
0.574363 0.777960 0.393144
0.607252 0.781236 0.396682
0.639944 0.784512 0.400215
0.672453 0.787786 0.403746
0.704789 0.791058 0.407272
0.736965 0.794330 0.410795
0.768988 0.797599 0.414314
0.800867 0.800867 0.417830
0.832610 0.804134 0.421342
0.864222 0.807399 0.424851
0.895711 0.810663 0.428357
0.383802 0.797924 0.383802
0.418179 0.801192 0.387349
0.452230 0.804459 0.390893
0.485986 0.807724 0.394433
0.519477 0.810988 0.397969
0.552726 0.814250 0.401501
0.585751 0.817511 0.405030
0.618570 0.820770 0.408555
0.651197 0.824028 0.412076
0.683645 0.827285 0.415594
0.715925 0.830540 0.419109
0.748047 0.833794 0.422620
0.780020 0.837047 0.426128
0.811851 0.840298 0.429632
0.843548 0.843548 0.433133
0.875117 0.846796 0.436631
0.906564 0.850044 0.440126
0.395720 0.837370 0.395720
0.429981 0.840621 0.399255
0.463926 0.843871 0.402786
0.497588 0.847119 0.406314
0.530993 0.850366 0.409837
0.564162 0.853612 0.413358
0.597114 0.856856 0.416874
0.629866 0.860100 0.420388
0.662429 0.863341 0.423898
0.694818 0.866582 0.427404
0.727043 0.869821 0.430907
0.759112 0.873059 0.434407
0.791035 0.876295 0.437904
0.822819 0.879530 0.441397
0.854471 0.882764 0.444887
0.885997 0.885997 0.448374
0.917404 0.889229 0.451858
0.407597 0.876617 0.407597
0.441744 0.879852 0.411119
0.475588 0.883086 0.414638
0.509159 0.886319 0.418154
0.542480 0.889550 0.421666
0.575572 0.892780 0.425175
0.608453 0.896009 0.428680
0.641139 0.899236 0.432182
0.673641 0.902463 0.435680
0.705972 0.905688 0.439176
0.738141 0.908912 0.442668
0.770159 0.912134 0.446157
0.802033 0.915356 0.449643
0.833771 0.918576 0.453126
0.865379 0.921795 0.456605
0.896863 0.925013 0.460082
0.928229 0.928229 0.463555
0.212312 0.212312 0.245407
0.249156 0.216134 0.249156
0.285292 0.219948 0.252898
0.320855 0.223752 0.256633
0.355938 0.227547 0.260360
0.390608 0.231334 0.264080
0.424918 0.235113 0.267794
0.458908 0.238883 0.271501
0.492610 0.242645 0.275202
0.526052 0.246400 0.278896
0.559255 0.250147 0.282584
0.592238 0.253887 0.286266
0.625018 0.257620 0.289942
0.657609 0.261345 0.293612
0.690023 0.265064 0.297276
0.722272 0.268776 0.300935
0.754363 0.272481 0.304588
0.225135 0.257990 0.257990
0.261715 0.261715 0.261715
0.297640 0.265433 0.265433
0.333028 0.269145 0.269145
0.367962 0.272849 0.272849
0.402503 0.276548 0.276548
0.436698 0.280239 0.280239
0.470585 0.283925 0.283925
0.504194 0.287605 0.287605
0.537551 0.291279 0.291279
0.570676 0.294947 0.294947
0.603588 0.298609 0.298609
0.636301 0.302266 0.302266
0.668829 0.305917 0.305917
0.701185 0.309562 0.309562
0.733378 0.313203 0.313203
0.765418 0.316838 0.316838
0.237859 0.302629 0.270494
0.274196 0.306279 0.274196
0.309925 0.309925 0.277892
0.345147 0.313564 0.281582
0.379939 0.317199 0.285266
0.414356 0.320829 0.288943
0.448441 0.324453 0.292615
0.482229 0.328073 0.296281
0.515748 0.331687 0.299941
0.549023 0.335297 0.303595
0.582072 0.338902 0.307245
0.614913 0.342503 0.310888
0.647561 0.346098 0.314527
0.680029 0.349690 0.318160
0.712327 0.353277 0.321788
0.744466 0.356859 0.325411
0.776455 0.360437 0.329030
0.250492 0.346456 0.282924
0.286605 0.350047 0.286605
0.322149 0.353633 0.290281
0.357215 0.357215 0.293950
0.391872 0.360793 0.297614
0.426169 0.364367 0.301272
0.460148 0.367936 0.304925
0.493840 0.371501 0.308572
0.527273 0.375062 0.312214
0.560467 0.378619 0.315850
0.593443 0.382172 0.319482
0.626216 0.385722 0.323108
0.658800 0.389267 0.326729
0.691208 0.392809 0.330346
0.723450 0.396346 0.333957
0.755537 0.399880 0.337564
0.787475 0.403411 0.341166
0.263043 0.389619 0.295285
0.298946 0.393161 0.298946
0.334316 0.396698 0.302602
0.369234 0.400232 0.306253
0.403762 0.403762 0.309898
0.437945 0.407288 0.313538
0.471821 0.410811 0.317173
0.505421 0.414330 0.320802
0.538769 0.417846 0.324427
0.571886 0.421358 0.328046
0.604790 0.424867 0.331661
0.637496 0.428373 0.335271
0.670018 0.431875 0.338876
0.702368 0.435374 0.342476
0.734555 0.438870 0.346072
0.766589 0.442362 0.349664
0.798479 0.445851 0.353251
0.275516 0.432223 0.307581
0.311224 0.435722 0.311224
0.346430 0.439217 0.314862
0.381207 0.442709 0.318495
0.415611 0.446198 0.322122
0.449684 0.449684 0.325745
0.483462 0.453167 0.329363
0.516972 0.456646 0.332976
0.550238 0.460123 0.336584
0.583279 0.463596 0.340187
0.616113 0.467067 0.343786
0.648755 0.470535 0.347380
0.681216 0.473999 0.350970
0.713508 0.477461 0.354555
0.745641 0.480920 0.358136
0.777625 0.484376 0.361713
0.809466 0.487829 0.365286
0.287917 0.474344 0.319816
0.323442 0.477805 0.323442
0.358492 0.481264 0.327063
0.393135 0.484720 0.330679
0.427420 0.488173 0.334290
0.461388 0.491623 0.337896
0.495070 0.495070 0.341498
0.528493 0.498515 0.345095
0.561680 0.501957 0.348688
0.594648 0.505396 0.352276
0.627414 0.508833 0.355860
0.659991 0.512267 0.359439
0.692393 0.515698 0.363014
0.724629 0.519127 0.366585
0.756710 0.522554 0.370152
0.788643 0.525977 0.373714
0.820437 0.529399 0.377273
0.300251 0.516039 0.331994
0.335603 0.519468 0.335603
0.370506 0.522894 0.339208
0.405020 0.526318 0.342808
0.439192 0.529739 0.346404
0.473058 0.533157 0.349995
0.506648 0.536573 0.353581
0.539987 0.539987 0.357163
0.573096 0.543398 0.360741
0.605992 0.546807 0.364315
0.638691 0.550213 0.367884
0.671207 0.553617 0.371449
0.703550 0.557019 0.375011
0.735732 0.560418 0.378568
0.767761 0.563815 0.382121
0.799645 0.567210 0.385670
0.831393 0.570602 0.389216
0.312523 0.557357 0.344118
0.347712 0.560756 0.347712
0.382474 0.564153 0.351301
0.416865 0.567547 0.354886
0.450927 0.570940 0.358466
0.484695 0.574330 0.362043
0.518195 0.577717 0.365615
0.551453 0.581103 0.369183
0.584486 0.584486 0.372746
0.617313 0.587867 0.376306
0.649947 0.591246 0.379862
0.682402 0.594623 0.383413
0.714688 0.597998 0.386961
0.746816 0.601371 0.390505
0.778794 0.604741 0.394046
0.810631 0.608110 0.397582
0.842333 0.611476 0.401115
0.324734 0.598334 0.356190
0.359769 0.601706 0.359769
0.394397 0.605076 0.363344
0.428670 0.608444 0.366914
0.462627 0.611811 0.370480
0.496300 0.615175 0.374043
0.529714 0.618537 0.377601
0.562892 0.621897 0.381155
0.595852 0.625255 0.384706
0.628611 0.628611 0.388252
0.661182 0.631965 0.391795
0.693577 0.635317 0.395334
0.725808 0.638667 0.398869
0.757883 0.642015 0.402400
0.789811 0.645362 0.405928
0.821600 0.648706 0.409452
0.853257 0.652048 0.412973
0.336890 0.639000 0.368213
0.371778 0.642348 0.371778
0.406278 0.645694 0.375339
0.440438 0.649038 0.378895
0.474293 0.652381 0.382448
0.507874 0.655721 0.385997
0.541204 0.659060 0.389542
0.574305 0.662396 0.393083
0.607194 0.665731 0.396621
0.639886 0.669064 0.400155
0.672395 0.672395 0.403685
0.704732 0.675725 0.407211
0.736908 0.679052 0.410734
0.768932 0.682378 0.414254
0.800811 0.685702 0.417769
0.832554 0.689024 0.421282
0.864167 0.692345 0.424791
0.348993 0.679383 0.380189
0.383741 0.682709 0.383741
0.418119 0.686032 0.387288
0.452170 0.689354 0.390832
0.485927 0.692675 0.394372
0.519418 0.695993 0.397908
0.552667 0.699310 0.401440
0.585693 0.702625 0.404969
0.618512 0.705939 0.408494
0.651140 0.709250 0.412016
0.683588 0.712560 0.415534
0.715869 0.715869 0.419049
0.747991 0.719175 0.422560
0.779963 0.722480 0.426068
0.811795 0.725784 0.429572
0.843492 0.729085 0.433073
0.875061 0.732385 0.436571
0.361045 0.719504 0.392121
0.395660 0.722809 0.395660
0.429920 0.726112 0.399194
0.463866 0.729414 0.402725
0.497529 0.732713 0.406253
0.530934 0.736012 0.409777
0.564104 0.739308 0.413297
0.597056 0.742604 0.416814
0.629808 0.745897 0.420327
0.662372 0.749189 0.423837
0.694761 0.752479 0.427344
0.726986 0.755768 0.430847
0.759055 0.759055 0.434347
0.790978 0.762341 0.437844
0.822763 0.765625 0.441337
0.854415 0.768908 0.444827
0.885942 0.772189 0.448314
0.373049 0.759382 0.404010
0.407536 0.762668 0.407536
0.441684 0.765952 0.411059
0.475529 0.769234 0.414578
0.509100 0.772515 0.418093
0.542421 0.775795 0.421606
0.575514 0.779073 0.425114
0.608396 0.782349 0.428620
0.641081 0.785624 0.432122
0.673583 0.788897 0.435620
0.705915 0.792170 0.439116
0.738085 0.795440 0.442608
0.770103 0.798709 0.446097
0.801977 0.801977 0.449583
0.833715 0.805243 0.453066
0.865323 0.808508 0.456545
0.896807 0.811771 0.460022
0.385007 0.799034 0.415858
0.419372 0.802302 0.419372
0.453412 0.805568 0.422883
0.487159 0.808832 0.426391
0.520641 0.812096 0.429895
0.553881 0.815357 0.433396
0.586899 0.818618 0.436893
0.619711 0.821877 0.440387
0.652332 0.825134 0.443879
0.684774 0.828391 0.447366
0.717049 0.831646 0.450851
0.749165 0.834899 0.454333
0.781133 0.838151 0.457811
0.812959 0.841402 0.461287
0.844651 0.844651 0.464760
0.876216 0.847899 0.468229
0.907659 0.851146 0.471696
0.396921 0.838474 0.427667
0.431170 0.841725 0.431170
0.465105 0.844974 0.434669
0.498757 0.848222 0.438166
0.532154 0.851469 0.441659
0.565315 0.854714 0.445149
0.598260 0.857958 0.448635
0.631005 0.861201 0.452119
0.663562 0.864442 0.455600
0.695945 0.867682 0.459077
0.728164 0.870921 0.462552
0.760228 0.874158 0.466023
0.792146 0.877394 0.469492
0.823925 0.880629 0.472957
0.855573 0.883862 0.476420
0.887095 0.887095 0.479879
0.918497 0.890326 0.483336
0.408794 0.877716 0.439438
0.442930 0.880951 0.442930
0.476764 0.884184 0.446419
0.510325 0.887416 0.449904
0.543638 0.890647 0.453387
0.576723 0.893877 0.456866
0.609597 0.897105 0.460342
0.642275 0.900332 0.463816
0.674771 0.903558 0.467286
0.707096 0.906783 0.470754
0.739261 0.910006 0.474218
0.771273 0.913228 0.477680
0.803142 0.916449 0.481138
0.834875 0.919669 0.484594
0.866479 0.922888 0.488047
0.897959 0.926105 0.491498
0.929321 0.929321 0.494945
0.213611 0.213611 0.279173
0.250428 0.217430 0.282860
0.286542 0.221240 0.286542
0.322086 0.225042 0.290217
0.357154 0.228834 0.293887
0.391811 0.232618 0.297551
0.426109 0.236394 0.301209
0.460088 0.240162 0.304862
0.493781 0.243921 0.308509
0.527214 0.247673 0.312151
0.560409 0.251418 0.315788
0.593385 0.255155 0.319419
0.626158 0.258886 0.323046
0.658743 0.262609 0.326667
0.691151 0.266325 0.330283
0.723394 0.270035 0.333895
0.755480 0.273738 0.337502
0.226423 0.259256 0.291554
0.262979 0.262979 0.295222
0.298883 0.266694 0.298883
0.334254 0.270403 0.302540
0.369173 0.274106 0.306190
0.403701 0.277802 0.309836
0.437885 0.281492 0.313476
0.471762 0.285176 0.317110
0.505362 0.288853 0.320740
0.538710 0.292525 0.324365
0.571828 0.296191 0.327984
0.604732 0.299851 0.331599
0.637439 0.303506 0.335209
0.669961 0.307155 0.338814
0.702311 0.310799 0.342415
0.734498 0.314438 0.346011
0.766533 0.318071 0.349602
0.239138 0.303869 0.303869
0.275452 0.307518 0.307518
0.311161 0.311161 0.311161
0.346368 0.314799 0.314799
0.381146 0.318432 0.318432
0.415550 0.322060 0.322060
0.449624 0.325683 0.325683
0.483402 0.329301 0.329301
0.516913 0.332914 0.332914
0.550179 0.336522 0.336522
0.583221 0.340125 0.340125
0.616055 0.343724 0.343724
0.648697 0.347319 0.347319
0.681158 0.350908 0.350908
0.713451 0.354494 0.354494
0.745585 0.358075 0.358075
0.777568 0.361652 0.361652
0.251763 0.347676 0.316123
0.287854 0.351265 0.319754
0.323380 0.354850 0.323380
0.358431 0.358431 0.327001
0.393074 0.362007 0.330617
0.427360 0.365579 0.334228
0.461328 0.369147 0.337834
0.495011 0.372711 0.341436
0.528435 0.376271 0.345033
0.561621 0.379826 0.348626
0.594590 0.383378 0.352214
0.627356 0.386926 0.355798
0.659934 0.390470 0.359378
0.692336 0.394010 0.362953
0.724572 0.397547 0.366524
0.756653 0.401080 0.370091
0.788587 0.404609 0.373653
0.264305 0.390822 0.328318
0.300189 0.394362 0.331932
0.335541 0.397898 0.335541
0.370445 0.401431 0.339146
0.404960 0.404960 0.342746
0.439132 0.408485 0.346342
0.472998 0.412006 0.349933
0.506589 0.415525 0.353519
0.539928 0.419039 0.357102
0.573037 0.422550 0.360680
0.605934 0.426058 0.364253
0.638634 0.429563 0.367823
0.671150 0.433064 0.371388
0.703493 0.436562 0.374949
0.735675 0.440056 0.378507
0.767704 0.443547 0.382060
0.799589 0.447036 0.385609
0.276771 0.433412 0.340457
0.312460 0.436909 0.344056
0.347650 0.440403 0.347650
0.382413 0.443895 0.351239
0.416804 0.447382 0.354824
0.450867 0.450867 0.358405
0.484635 0.454349 0.361981
0.518136 0.457827 0.365553
0.551394 0.461303 0.369121
0.584428 0.464775 0.372685
0.617255 0.468245 0.376245
0.649890 0.471712 0.379801
0.682345 0.475175 0.383352
0.714631 0.478636 0.386900
0.746759 0.482094 0.390444
0.778738 0.485549 0.393985
0.810575 0.489001 0.397521
0.289165 0.475520 0.352545
0.324672 0.478980 0.356128
0.359707 0.482438 0.359707
0.394337 0.485893 0.363282
0.428610 0.489345 0.366853
0.462567 0.492794 0.370419
0.496240 0.496240 0.373981
0.529655 0.499684 0.377540
0.562833 0.503125 0.381094
0.595794 0.506564 0.384645
0.628553 0.509999 0.388191
0.661124 0.513433 0.391734
0.693520 0.516863 0.395273
0.725751 0.520291 0.398808
0.757826 0.523717 0.402339
0.789755 0.527139 0.405867
0.821544 0.530560 0.409391
0.301493 0.517204 0.364583
0.336828 0.520632 0.368152
0.371717 0.524057 0.371717
0.406218 0.527480 0.375277
0.440378 0.530900 0.378834
0.474234 0.534318 0.382387
0.507815 0.537733 0.385936
0.541145 0.541145 0.389481
0.574247 0.544556 0.393023
0.607136 0.547964 0.396560
0.639829 0.551369 0.400094
0.672338 0.554773 0.403624
0.704675 0.558173 0.407151
0.736851 0.561572 0.410674
0.768875 0.564968 0.414193
0.800755 0.568362 0.417709
0.832498 0.571754 0.421221
0.313758 0.558512 0.376573
0.348931 0.561910 0.380128
0.383680 0.565306 0.383680
0.418058 0.568700 0.387227
0.452110 0.572091 0.390771
0.485867 0.575480 0.394311
0.519359 0.578867 0.397847
0.552609 0.582252 0.401380
0.585635 0.585635 0.404908
0.618455 0.589015 0.408434
0.651082 0.592393 0.411955
0.683531 0.595770 0.415473
0.715812 0.599144 0.418988
0.747934 0.602515 0.422499
0.779907 0.605885 0.426007
0.811739 0.609253 0.429512
0.843436 0.612619 0.433013
0.325964 0.599479 0.388518
0.360983 0.602851 0.392060
0.395599 0.606220 0.395599
0.429860 0.609588 0.399134
0.463806 0.612953 0.402665
0.497469 0.616317 0.406192
0.530875 0.619678 0.409716
0.564045 0.623037 0.413237
0.596998 0.626395 0.416753
0.629750 0.629750 0.420267
0.662315 0.633104 0.423777
0.694704 0.636455 0.427283
0.726929 0.639804 0.430787
0.758999 0.643152 0.434287
0.790922 0.646498 0.437783
0.822707 0.649841 0.441277
0.854359 0.653183 0.444767
0.338114 0.640137 0.400420
0.372988 0.643485 0.403949
0.407476 0.646830 0.407476
0.441624 0.650174 0.410998
0.475469 0.653515 0.414517
0.509041 0.656855 0.418033
0.542363 0.660193 0.421545
0.575456 0.663529 0.425054
0.608338 0.666863 0.428559
0.641023 0.670196 0.432061
0.673526 0.673526 0.435560
0.705858 0.676855 0.439056
0.738028 0.680182 0.442548
0.770046 0.683507 0.446037
0.801921 0.686830 0.449523
0.833659 0.690152 0.453006
0.865267 0.693472 0.456486
0.350212 0.680513 0.412280
0.384946 0.683838 0.415798
0.419312 0.687161 0.419312
0.453352 0.690482 0.422823
0.487100 0.693802 0.426330
0.520582 0.697120 0.429835
0.553823 0.700436 0.433336
0.586841 0.703751 0.436833
0.619654 0.707063 0.440327
0.652275 0.710375 0.443819
0.684717 0.713684 0.447306
0.716992 0.716992 0.450791
0.749108 0.720298 0.454273
0.781076 0.723602 0.457752
0.812903 0.726905 0.461227
0.844595 0.730206 0.464700
0.876160 0.733506 0.468169
0.362259 0.720627 0.424100
0.396860 0.723931 0.427607
0.431110 0.727233 0.431110
0.465045 0.730534 0.434609
0.498698 0.733834 0.438106
0.532095 0.737132 0.441599
0.565257 0.740428 0.445089
0.598202 0.743722 0.448576
0.630947 0.747015 0.452059
0.663505 0.750307 0.455540
0.695888 0.753596 0.459017
0.728107 0.756885 0.462492
0.760171 0.760171 0.465963
0.792089 0.763457 0.469432
0.823869 0.766740 0.472897
0.855517 0.770022 0.476360
0.887039 0.773303 0.479820
0.374258 0.760498 0.435883
0.408733 0.763783 0.439378
0.442870 0.767067 0.442870
0.476704 0.770349 0.446359
0.510266 0.773629 0.449844
0.543579 0.776908 0.453327
0.576665 0.780185 0.456806
0.609539 0.783461 0.460283
0.642218 0.786736 0.463756
0.674714 0.790009 0.467226
0.707039 0.793280 0.470694
0.739204 0.796550 0.474158
0.771217 0.799819 0.477620
0.803086 0.803086 0.481079
0.834819 0.806352 0.484535
0.866423 0.809616 0.487988
0.897904 0.812879 0.491438
0.386212 0.800144 0.447628
0.420565 0.803411 0.451112
0.454594 0.806677 0.454594
0.488331 0.809941 0.458072
0.521805 0.813204 0.461548
0.555037 0.816465 0.465020
0.588047 0.819725 0.468489
0.620853 0.822983 0.471956
0.653467 0.826240 0.475419
0.685903 0.829496 0.478880
0.718172 0.832751 0.482337
0.750283 0.836004 0.485792
0.782245 0.839255 0.489244
0.814067 0.842506 0.492694
0.845754 0.845754 0.496140
0.877315 0.849002 0.499584
0.908754 0.852248 0.503025
0.398122 0.839579 0.459338
0.432359 0.842829 0.462812
0.466283 0.846077 0.466283
0.499927 0.849325 0.469751
0.533314 0.852571 0.473217
0.566468 0.855816 0.476679
0.599406 0.859059 0.480139
0.632143 0.862301 0.483596
0.664695 0.865542 0.487049
0.697072 0.868782 0.490500
0.729285 0.872020 0.493949
0.761344 0.875257 0.497394
0.793257 0.878493 0.500837
0.825031 0.881727 0.504277
0.856674 0.884960 0.507715
0.888192 0.888192 0.511150
0.919590 0.891423 0.514582
0.409990 0.878814 0.471013
0.444115 0.882049 0.474478
0.477939 0.885282 0.477939
0.511491 0.888513 0.481398
0.544796 0.891744 0.484853
0.577873 0.894973 0.488306
0.610740 0.898201 0.491756
0.643412 0.901428 0.495204
0.675902 0.904653 0.498648
0.708221 0.907878 0.502090
0.740380 0.911101 0.505529
0.772387 0.914322 0.508966
0.804252 0.917543 0.512400
0.835980 0.920762 0.515831
0.867579 0.923981 0.519260
0.899055 0.927198 0.522686
0.930413 0.930413 0.526110
0.214909 0.214909 0.312424
0.251699 0.218725 0.316060
0.287791 0.222532 0.319691
0.323317 0.226331 0.323317
0.358369 0.230120 0.326938
0.393013 0.233901 0.330554
0.427300 0.237674 0.334166
0.461268 0.241439 0.337772
0.494952 0.245196 0.341374
0.528376 0.248946 0.344972
0.561563 0.252688 0.348564
0.594532 0.256423 0.352153
0.627298 0.260151 0.355736
0.659876 0.263872 0.359316
0.692279 0.267586 0.362891
0.724515 0.271293 0.366462
0.756597 0.274994 0.370029
0.227711 0.260521 0.324636
0.264241 0.264241 0.328255
0.300126 0.267955 0.331870
