data/luts/flat.cube
TITLE "Flat"
LUT_3D_SIZE 9
0.211011 0.211011 0.211011
0.284042 0.218654 0.218654
0.354721 0.226259 0.226259
0.423727 0.233830 0.233830
0.491439 0.241369 0.241369
0.558100 0.248876 0.248876
0.623878 0.256353 0.256353
0.688896 0.263802 0.263802
0.753246 0.271223 0.271223
0.236578 0.301388 0.236578
0.308687 0.308687 0.244105
0.378732 0.315965 0.251601
0.447257 0.323223 0.259068
0.514583 0.330460 0.266507
0.580923 0.337678 0.273919
0.646426 0.344878 0.281306
0.711203 0.352059 0.288668
0.775342 0.359223 0.296006
0.261779 0.388416 0.261779
0.333090 0.395497 0.269208
0.402563 0.402563 0.276611
0.470645 0.409615 0.283989
0.537610 0.416652 0.291342
0.603646 0.423676 0.298672
0.668887 0.430686 0.305979
0.733435 0.437683 0.313265
0.797369 0.444667 0.320530
0.286668 0.473167 0.286668
0.357277 0.480090 0.294013
0.426230 0.487000 0.301335
0.493900 0.493900 0.308634
0.560526 0.500788 0.315913
0.626274 0.507666 0.323170
0.691265 0.514533 0.330408
0.755593 0.521390 0.337626
0.819331 0.528237 0.344826
0.311287 0.556202 0.311287
0.381268 0.563000 0.318557
0.449744 0.569788 0.325807
0.517031 0.576567 0.333038
0.583337 0.583337 0.340249
0.648812 0.590099 0.347442
0.713565 0.596852 0.354617
0.777681 0.603597 0.361775
0.841229 0.610333 0.368915
0.335665 0.637863 0.335665
0.405081 0.644558 0.342870
0.473117 0.651246 0.350056
0.540045 0.657926 0.357225
0.606050 0.664599 0.364376
0.671264 0.671264 0.371511
0.735788 0.677922 0.378629
0.799701 0.684573 0.385731
0.863066 0.691217 0.392818
0.359830 0.718381 0.359830
0.428731 0.724990 0.366975
0.496359 0.731593 0.374104
0.562950 0.738189 0.381216
0.628669 0.744779 0.388313
0.693634 0.751362 0.395394
0.757939 0.757939 0.402461
0.821656 0.764510 0.409513
0.884844 0.771075 0.416550
0.383802 0.797924 0.383802
0.452230 0.804459 0.390893
0.519477 0.810988 0.397969
0.585751 0.817511 0.405030
0.651197 0.824028 0.412076
0.715925 0.830540 0.419109
0.780020 0.837047 0.426128
0.843548 0.843548 0.433133
0.906564 0.850044 0.440126
0.407597 0.876617 0.407597
0.475588 0.883086 0.414638
0.542480 0.889550 0.421666
0.608453 0.896009 0.428680
0.673641 0.902463 0.435680
0.738141 0.908912 0.442668
0.802033 0.915356 0.449643
0.865379 0.921795 0.456605
0.928229 0.928229 0.463555
0.213611 0.213611 0.279173
0.286542 0.221240 0.286542
0.357154 0.228834 0.293887
0.426109 0.236394 0.301209
0.493781 0.243921 0.308509
0.560409 0.251418 0.315788
0.626158 0.258886 0.323046
0.691151 0.266325 0.330283
0.755480 0.273738 0.337502
0.239138 0.303869 0.303869
0.311161 0.311161 0.311161
0.381146 0.318432 0.318432
0.449624 0.325683 0.325683
0.516913 0.332914 0.332914
0.583221 0.340125 0.340125
0.648697 0.347319 0.347319
0.713451 0.354494 0.354494
0.777568 0.361652 0.361652
0.264305 0.390822 0.328318
0.335541 0.397898 0.335541
0.404960 0.404960 0.342746
0.472998 0.412006 0.349933
0.539928 0.419039 0.357102
0.605934 0.426058 0.364253
0.671150 0.433064 0.371388
0.735675 0.440056 0.378507
0.799589 0.447036 0.385609
0.289165 0.475520 0.352545
0.359707 0.482438 0.359707
0.428610 0.489345 0.366853
0.496240 0.496240 0.373981
0.562833 0.503125 0.381094
0.628553 0.509999 0.388191
0.693520 0.516863 0.395273
0.757826 0.523717 0.402339
0.821544 0.530560 0.409391
0.313758 0.558512 0.376573
0.383680 0.565306 0.383680
0.452110 0.572091 0.390771
0.519359 0.578867 0.397847
0.585635 0.585635 0.404908
0.651082 0.592393 0.411955
0.715812 0.599144 0.418988
0.779907 0.605885 0.426007
0.843436 0.612619 0.433013
0.338114 0.640137 0.400420
0.407476 0.646830 0.407476
0.475469 0.653515 0.414517
0.542363 0.660193 0.421545
0.608338 0.666863 0.428559
0.673526 0.673526 0.435560
0.738028 0.680182 0.442548
0.801921 0.686830 0.449523
0.865267 0.693472 0.456486
0.362259 0.720627 0.424100
0.431110 0.727233 0.431110
0.498698 0.733834 0.438106
0.565257 0.740428 0.445089
0.630947 0.747015 0.452059
0.695888 0.753596 0.459017
0.760171 0.760171 0.465963
0.823869 0.766740 0.472897
0.887039 0.773303 0.479820
0.386212 0.800144 0.447628
0.454594 0.806677 0.454594
0.521805 0.813204 0.461548
0.588047 0.819725 0.468489
0.653467 0.826240 0.475419
0.718172 0.832751 0.482337
0.782245 0.839255 0.489244
0.845754 0.845754 0.496140
0.908754 0.852248 0.503025
0.409990 0.878814 0.471013
0.477939 0.885282 0.477939
0.544796 0.891744 0.484853
0.610740 0.898201 0.491756
0.675902 0.904653 0.498648
0.740380 0.911101 0.505529
0.804252 0.917543 0.512400
0.867579 0.923981 0.519260
0.930413 0.930413 0.526110
0.216206 0.216206 0.345241
0.289039 0.223823 0.352421
0.359584 0.231405 0.359584
0.428490 0.238954 0.366730
0.496122 0.246471 0.373859
0.562717 0.253957 0.380972
0.628438 0.261415 0.388069
0.693406 0.268846 0.395151
0.757713 0.276250 0.402218
0.241694 0.306348 0.369327
0.313633 0.313633 0.376450
0.383558 0.320897 0.383558
0.451990 0.328141 0.390649
0.519241 0.335365 0.397725
0.585518 0.342570 0.404787
0.650967 0.349757 0.411834
0.715698 0.356927 0.418867
0.779794 0.364079 0.425887
0.266828 0.393227 0.393227
0.337990 0.400298 0.400298
0.407354 0.407354 0.407354
0.475350 0.414396 0.414396
0.542245 0.421424 0.421424
0.608222 0.428439 0.428439
0.673412 0.435440 0.435440
0.737914 0.442428 0.442428
0.801808 0.449403 0.449403
0.291660 0.477870 0.416957
0.362136 0.484785 0.423980
0.430989 0.491688 0.430989
0.498580 0.498580 0.437985
0.565140 0.505461 0.444969
0.630831 0.512332 0.451939
0.695774 0.519192 0.458898
0.760058 0.526042 0.465844
0.823757 0.532882 0.472778
0.316227 0.560820 0.440529
0.386090 0.567611 0.447508
0.454474 0.574393 0.454474
0.521687 0.581167 0.461428
0.587931 0.587931 0.468370
0.653352 0.594687 0.475300
0.718058 0.601434 0.482218
0.782132 0.608173 0.489126
0.845643 0.614903 0.496022
0.340561 0.642411 0.463957
0.409869 0.649101 0.470894
0.477820 0.655784 0.477820
0.544679 0.662459 0.484734
0.610624 0.669127 0.491638
0.675787 0.675787 0.498530
0.740266 0.682440 0.505411
0.804139 0.689087 0.512282
0.867468 0.695726 0.519142
0.364685 0.722871 0.487249
0.433487 0.729476 0.494148
0.501036 0.736074 0.501036
0.567562 0.742666 0.507914
0.633224 0.749251 0.514780
0.698141 0.755830 0.521637
0.762403 0.762403 0.528483
0.826081 0.768970 0.535320
0.889234 0.775530 0.542146
0.388620 0.802363 0.510415
0.456957 0.808894 0.517278
0.524131 0.815419 0.524131
0.590343 0.821938 0.530973
0.655735 0.828452 0.537806
0.720417 0.834960 0.544629
0.784470 0.841463 0.551443
0.847960 0.847960 0.558247
0.910943 0.854452 0.565041
0.412381 0.881011 0.533462
0.480288 0.887477 0.540291
0.547111 0.893937 0.547111
0.613026 0.900393 0.553921
0.678162 0.906843 0.560721
0.742618 0.913289 0.567513
0.806470 0.919730 0.574295
0.869779 0.926166 0.581068
0.932597 0.932597 0.587833
0.218797 0.218797 0.409799
0.291533 0.226402 0.416836
0.362013 0.233972 0.423859
0.430869 0.241510 0.430869
0.498461 0.249016 0.437865
0.565023 0.256493 0.444849
0.630716 0.263942 0.451820
0.695660 0.271363 0.458778
0.759945 0.278758 0.465725
0.244246 0.308824 0.433417
0.316102 0.316102 0.440409
0.385968 0.323359 0.447388
0.454354 0.330596 0.454354
0.521569 0.337814 0.461308
0.587815 0.345013 0.468251
0.653237 0.352194 0.475181
0.717944 0.359357 0.482100
0.782020 0.366504 0.489007
0.269348 0.395630 0.456888
0.340437 0.402696 0.463837
0.409747 0.409747 0.470775
0.477701 0.416785 0.477701
0.544561 0.423808 0.484616
0.610508 0.430818 0.491519
0.675673 0.437814 0.498411
0.740153 0.444798 0.505293
0.804027 0.451769 0.512164
0.294151 0.480220 0.480220
0.364562 0.487130 0.487130
0.433367 0.494029 0.494029
0.500918 0.500918 0.500918
0.567445 0.507795 0.507795
0.633109 0.514662 0.514662
0.698027 0.521519 0.521519
0.762290 0.528366 0.528366
0.825969 0.535202 0.535202
0.318694 0.563127 0.503423
0.388498 0.569915 0.510297
0.456837 0.576695 0.517160
0.524013 0.583465 0.524013
0.590226 0.590226 0.530856
0.655621 0.596979 0.537689
0.720303 0.603724 0.544512
0.784357 0.610460 0.551325
0.847849 0.617187 0.558130
0.343005 0.644684 0.526505
0.412260 0.651372 0.533345
0.480169 0.658052 0.540174
0.546994 0.664724 0.546994
0.612910 0.671390 0.553804
0.678048 0.678048 0.560604
0.742504 0.684698 0.567396
0.806357 0.691342 0.574178
0.869668 0.697979 0.580952
0.367110 0.725115 0.549474
0.435863 0.731717 0.556281
0.503373 0.738313 0.563078
0.569866 0.744903 0.569866
0.635501 0.751486 0.576645
0.700393 0.758063 0.583416
0.764634 0.764634 0.590177
0.828293 0.771198 0.596930
0.891428 0.777757 0.603675
0.391026 0.804582 0.572335
0.459318 0.811110 0.579111
0.526456 0.817633 0.585878
0.592637 0.824151 0.592637
0.658003 0.830663 0.599387
0.722661 0.837169 0.606128
0.786694 0.843670 0.612861
0.850166 0.850166 0.619586
0.913131 0.856656 0.626303
0.414771 0.883208 0.595095
0.482637 0.889671 0.601842
0.549425 0.896130 0.608580
0.615310 0.902584 0.615310
0.680421 0.909033 0.622032
0.744855 0.915477 0.628746
0.808687 0.921916 0.635452
0.871978 0.928350 0.642150
0.934780 0.934780 0.648841
0.221384 0.221384 0.473179
0.294025 0.228977 0.480101
0.364439 0.236536 0.487011
0.433246 0.244063 0.493911
0.500799 0.251559 0.500799
0.567328 0.259026 0.507677
0.632994 0.266465 0.514544
0.697913 0.273877 0.521401
0.762177 0.281264 0.528248
0.246795 0.311298 0.496420
0.318569 0.318569 0.503305
0.388376 0.325819 0.510178
0.456717 0.333050 0.517042
0.523895 0.340261 0.523895
0.590110 0.347454 0.530738
0.655506 0.354629 0.537571
0.720189 0.361786 0.544395
0.784244 0.368927 0.551208
0.271865 0.398031 0.519538
0.342882 0.405092 0.526388
0.412139 0.412139 0.533227
0.480051 0.419171 0.540056
0.546876 0.426190 0.546876
0.612794 0.433195 0.553687
0.677933 0.440188 0.560488
0.742391 0.447167 0.567279
0.806245 0.454134 0.574062
0.296640 0.482568 0.542540
0.366987 0.489474 0.549357
0.435742 0.496370 0.556164
0.503255 0.503255 0.562961
0.569750 0.510129 0.569750
0.635385 0.516992 0.576529
0.700279 0.523845 0.583299
0.764521 0.530688 0.590061
0.828181 0.537522 0.596814
0.321158 0.565434 0.565434
0.390904 0.572219 0.572219
0.459199 0.578995 0.578995
0.526338 0.585762 0.585762
0.592521 0.592521 0.592521
0.657888 0.599271 0.599271
0.722548 0.606012 0.606012
0.786581 0.612745 0.612745
0.850054 0.619470 0.619470
0.345448 0.646956 0.588224
0.414650 0.653641 0.594979
0.482518 0.660319 0.601726
0.549307 0.666989 0.608464
0.615195 0.673651 0.615195
0.680307 0.680307 0.621917
0.744742 0.686955 0.628631
0.808575 0.693597 0.635337
0.871867 0.700231 0.642035
0.369532 0.727358 0.610916
0.438237 0.733958 0.617643
0.505709 0.740552 0.624362
0.572169 0.747139 0.631073
0.637776 0.753720 0.637776
0.702645 0.760295 0.644472
0.766864 0.766864 0.651160
0.830504 0.773426 0.657840
0.893621 0.779983 0.664513
0.393431 0.806799 0.633514
0.461678 0.813326 0.640215
0.528779 0.819847 0.646908
0.594930 0.826363 0.653593
0.660270 0.832873 0.660270
0.724905 0.839378 0.666940
0.788917 0.845877 0.673603
0.852370 0.852370 0.680259
0.915319 0.858859 0.686907
0.417159 0.885403 0.656025
0.484983 0.891865 0.662699
0.551737 0.898323 0.669367
0.617594 0.904775 0.676027
0.682680 0.911222 0.682680
0.747091 0.917664 0.689326
0.810903 0.924102 0.695965
0.874177 0.930534 0.702597
0.936962 0.936962 0.709222
0.223966 0.223966 0.535597
0.296514 0.231548 0.542423
0.366864 0.239096 0.549240
0.435622 0.246612 0.556047
0.503136 0.254098 0.562844
0.569633 0.261555 0.569633
0.635270 0.268985 0.576412
0.700165 0.276389 0.583183
0.764408 0.283767 0.589945
0.249341 0.313770 0.558523
0.321033 0.321033 0.565317
0.390782 0.328277 0.572102
0.459079 0.335501 0.578878
0.526220 0.342706 0.585646
0.592404 0.349892 0.592404
0.657774 0.357061 0.599154
0.722434 0.364213 0.605896
0.786468 0.371348 0.612630
0.274378 0.400431 0.581343
0.345324 0.407487 0.588107
0.414529 0.414529 0.594863
0.482399 0.421556 0.601610
0.549190 0.428571 0.608348
0.615079 0.435571 0.615079
0.680193 0.442559 0.621801
0.744628 0.449534 0.628515
0.808462 0.456497 0.635222
0.299126 0.484915 0.604064
0.369410 0.491817 0.610800
0.438117 0.498709 0.617527
0.505590 0.505590 0.624246
0.572053 0.512461 0.630958
0.637661 0.519321 0.637661
0.702531 0.526170 0.644357
0.766751 0.533010 0.651045
0.830392 0.539840 0.657725
0.323620 0.567739 0.626691
0.393309 0.574521 0.633399
0.461559 0.581294 0.640100
0.528662 0.588058 0.646792
0.594814 0.594814 0.653478
0.660155 0.601561 0.660155
0.724792 0.608300 0.666826
0.788804 0.615030 0.673489
0.852259 0.621752 0.680144
0.347888 0.649227 0.649227
0.417038 0.655910 0.655910
0.484864 0.662585 0.662585
0.551620 0.669252 0.669252
0.617478 0.675912 0.675912
0.682566 0.682566 0.682566
0.746978 0.689212 0.689212
0.810791 0.695851 0.695851
0.874066 0.702483 0.702483
0.371953 0.729600 0.671678
0.440610 0.736198 0.678335
0.508043 0.742790 0.684986
0.574472 0.749375 0.691629
0.640051 0.755954 0.698266
0.704895 0.762526 0.704895
0.769093 0.769093 0.711518
0.832714 0.775654 0.718134
0.895814 0.782208 0.724744
0.395834 0.809017 0.694046
0.464037 0.815542 0.700680
0.531102 0.822061 0.707307
0.597222 0.828574 0.713928
0.662536 0.835083 0.720541
0.727148 0.841585 0.727148
0.791139 0.848083 0.733749
0.854575 0.854575 0.740343
0.917507 0.861061 0.746930
0.419545 0.887598 0.716336
0.487329 0.894059 0.722947
0.554049 0.900514 0.729552
0.619877 0.906965 0.736150
0.684938 0.913410 0.742742
0.749327 0.919851 0.749327
0.813119 0.926287 0.755906
0.876375 0.932718 0.762479
0.939144 0.939144 0.769045
0.226545 0.226545 0.597204
0.299000 0.234115 0.603948
0.369287 0.241652 0.610684
0.437997 0.249157 0.617411
0.505472 0.256634 0.624131
0.571936 0.264081 0.630842
0.637546 0.271502 0.637546
0.702417 0.278897 0.644242
0.766638 0.286267 0.650930
0.251883 0.316239 0.619859
0.323495 0.323495 0.626575
0.393187 0.330732 0.633284
0.461439 0.337950 0.639984
0.528544 0.345148 0.646677
0.594698 0.352329 0.653363
0.660041 0.359492 0.660041
0.724678 0.366638 0.666711
0.788692 0.373767 0.673374
0.276889 0.402829 0.642422
0.347765 0.409880 0.649112
0.416917 0.416917 0.655795
0.484746 0.423940 0.662470
0.551503 0.430950 0.669138
0.617363 0.437946 0.675798
0.682451 0.444929 0.682451
0.746865 0.451900 0.689097
0.810679 0.458859 0.695736
0.301610 0.487260 0.664898
0.371830 0.494159 0.671563
0.440490 0.501047 0.678221
0.507925 0.507925 0.684872
0.574355 0.514792 0.691515
0.639936 0.521648 0.698152
0.704781 0.528494 0.704781
0.768980 0.535331 0.711404
0.832602 0.542157 0.718020
0.326080 0.570043 0.687291
0.395712 0.576822 0.693932
0.463917 0.583592 0.700566
0.530984 0.590353 0.707193
0.597106 0.597106 0.713814
0.662421 0.603850 0.720428
0.727035 0.610586 0.727035
0.791027 0.617314 0.733635
0.854463 0.624033 0.740229
0.350326 0.651497 0.709604
0.419424 0.658177 0.716222
0.487210 0.664850 0.722834
0.553932 0.671515 0.729438
0.619761 0.678173 0.736037
0.684823 0.684823 0.742628
0.749214 0.691467 0.749214
0.813007 0.698104 0.755793
0.876264 0.704733 0.762366
0.374372 0.731841 0.731841
0.442981 0.738437 0.738437
0.510376 0.745027 0.745027
0.576773 0.751610 0.751610
0.642325 0.758187 0.758187
0.707145 0.764757 0.764757
0.771322 0.771322 0.771322
0.834923 0.777880 0.777880
0.898007 0.784433 0.784433
0.398235 0.811233 0.754005
0.466394 0.817756 0.760579
0.533424 0.824273 0.767148
0.599513 0.830785 0.773710
0.664801 0.837292 0.780266
0.729390 0.843792 0.786817
0.793361 0.850288 0.793361
0.856778 0.856778 0.799900
0.919693 0.863263 0.806433
0.421930 0.889793 0.776098
0.489673 0.896252 0.782652
0.556359 0.902705 0.789200
0.622159 0.909154 0.795742
0.687195 0.915598 0.802279
0.751562 0.922037 0.808810
0.815335 0.928471 0.815335
0.878573 0.934901 0.821854
0.941325 0.941325 0.828368
0.229119 0.229119 0.658111
0.301484 0.236678 0.664783
0.371708 0.244204 0.671449
0.440370 0.251700 0.678107
0.507806 0.259166 0.684757
0.574239 0.266605 0.691401
0.639821 0.274016 0.698038
0.704667 0.281403 0.704667
0.768867 0.288764 0.711290
0.254421 0.318705 0.680529
0.325955 0.325955 0.687177
0.395590 0.333185 0.693818
0.463798 0.340396 0.700452
0.530867 0.347589 0.707079
0.596990 0.354763 0.713700
0.662307 0.361921 0.720314
0.726921 0.369061 0.726921
0.790914 0.376185 0.733522
0.279397 0.405225 0.702866
0.350203 0.412271 0.709491
0.419304 0.419304 0.716109
0.487091 0.426322 0.722720
0.553815 0.433327 0.729325
0.619646 0.440319 0.735923
0.684709 0.447298 0.742515
0.749101 0.454265 0.749101
0.812895 0.461219 0.755680
0.304091 0.489604 0.725125
0.374249 0.496500 0.731728
0.442861 0.503384 0.738324
0.510258 0.510258 0.744913
0.576656 0.517121 0.751497
0.642210 0.523974 0.758073
0.707031 0.530817 0.764644
0.771209 0.537650 0.771209
0.834812 0.544473 0.777767
0.328537 0.572346 0.747311
0.398113 0.579122 0.753892
0.466275 0.585889 0.760466
0.533306 0.592648 0.767035
0.599397 0.599397 0.773597
0.664687 0.606139 0.780154
0.729277 0.612872 0.786704
0.793249 0.619597 0.793249
0.856666 0.626314 0.799787
0.352763 0.653767 0.769425
0.421809 0.660444 0.775985
0.489554 0.667114 0.782539
0.556242 0.673777 0.789087
0.622043 0.680432 0.795630
0.687080 0.687080 0.802166
0.751449 0.693722 0.808697
0.815222 0.700356 0.815222
0.878461 0.706983 0.821742
0.376789 0.734082 0.791470
0.445351 0.740676 0.798010
0.512708 0.747263 0.804545
0.579073 0.753844 0.811074
0.644598 0.760419 0.817597
0.709394 0.766987 0.824114
0.773550 0.773550 0.830626
0.837132 0.780106 0.837132
0.900199 0.786657 0.843633
0.400634 0.813449 0.813449
0.468750 0.819970 0.819970
0.535744 0.826486 0.826486
0.601804 0.832995 0.832995
0.667066 0.839500 0.839500
0.731632 0.845999 0.845999
0.795582 0.852493 0.852493
0.858981 0.858981 0.858981
0.921880 0.865464 0.865464
0.424313 0.891987 0.835364
0.492016 0.898444 0.841867
0.558669 0.904896 0.848364
0.624440 0.911343 0.854855
0.689451 0.917785 0.861342
0.753796 0.924223 0.867823
0.817549 0.930655 0.874299
0.880770 0.937083 0.880770
0.943506 0.943506 0.887235
0.231690 0.231690 0.718403
0.303965 0.239237 0.725012
0.374127 0.246753 0.731614
0.442741 0.254238 0.738210
0.510140 0.261695 0.744800
0.576540 0.269125 0.751383
0.642095 0.276528 0.757960
0.706917 0.283905 0.764531
0.771096 0.291259 0.771096
0.256956 0.321170 0.740610
0.328413 0.328413 0.747197
0.397991 0.335636 0.753779
0.466155 0.342841 0.760353
0.533188 0.350027 0.766922
0.599281 0.357196 0.773484
0.664572 0.364347 0.780041
0.729163 0.371482 0.786592
0.793136 0.378600 0.793136
0.281902 0.407620 0.762745
0.352639 0.414661 0.769312
0.421689 0.421689 0.775872
0.489435 0.428702 0.782427
0.556125 0.435703 0.788975
0.621927 0.442691 0.795517
0.686966 0.449665 0.802054
0.751336 0.456628 0.808585
0.815110 0.463578 0.815110
0.306570 0.491947 0.784811
0.376666 0.498839 0.791357
0.445231 0.505720 0.797898
0.512590 0.512590 0.804432
0.578957 0.519450 0.810961
0.644483 0.526299 0.817484
0.709281 0.533139 0.824002
0.773437 0.539968 0.830514
0.837021 0.546788 0.837021
0.330992 0.574648 0.806810
0.400513 0.581421 0.813337
0.468631 0.588185 0.819858
0.535626 0.594941 0.826373
0.601688 0.601688 0.832884
0.666951 0.608426 0.839388
0.731518 0.615157 0.845887
0.795470 0.621879 0.852381
0.858869 0.628593 0.858869
0.355197 0.656035 0.828744
0.424193 0.662710 0.835252
0.491897 0.669378 0.841755
0.558552 0.676038 0.848252
0.624324 0.682691 0.854744
0.689337 0.689337 0.861230
0.753683 0.695975 0.867711
0.817437 0.702607 0.874188
0.880658 0.709232 0.880658
0.379204 0.736322 0.850616
0.447720 0.742913 0.857106
0.515039 0.749499 0.863590
0.581372 0.756077 0.870070
0.646870 0.762650 0.876544
0.711643 0.769217 0.883013
0.775777 0.775777 0.889477
0.839341 0.782331 0.895936
0.902390 0.788880 0.902390
0.403032 0.815664 0.872427
0.471105 0.822183 0.878900
0.538063 0.828697 0.885367
0.604093 0.835205 0.891829
0.669329 0.841708 0.898286
0.733873 0.848205 0.904738
0.797803 0.854697 0.911185
0.861183 0.861183 0.917628
0.924065 0.867664 0.924065
0.426695 0.894180 0.894180
0.494357 0.900636 0.900636
0.560977 0.907086 0.907086
0.626720 0.913531 0.913531
0.691706 0.919972 0.919972
0.756030 0.926408 0.926408
0.819763 0.932839 0.932839
0.882966 0.939265 0.939265
0.945687 0.945687 0.945687
