data/luts/vivid.cube
TITLE "Vivid"
LUT_3D_SIZE 17
0.020000 0.020000 0.020000
0.031060 0.020000 0.020000
0.111112 0.020000 0.020000
0.195603 0.020000 0.020000
0.282262 0.020000 0.020000
0.370403 0.020000 0.020000
0.459679 0.020000 0.020000
0.549877 0.020000 0.020000
0.640852 0.020000 0.020000
0.732501 0.020000 0.020000
0.824745 0.020000 0.020000
0.917521 0.020000 0.020000
1.000000 0.020000 0.020000
1.000000 0.020000 0.020000
1.000000 0.020000 0.020000
1.000000 0.020000 0.020000
1.000000 0.020000 0.020000
0.020000 0.022222 0.020000
0.020000 0.020000 0.020000
0.096772 0.020000 0.020000
0.180754 0.020000 0.020000
0.267102 0.020000 0.020000
0.355017 0.020000 0.020000
0.444113 0.020000 0.020000
0.534163 0.020000 0.020000
0.625011 0.020000 0.020000
0.716550 0.020000 0.020000
0.808695 0.020000 0.020000
0.901383 0.020000 0.020000
0.994562 0.020000 0.020000
1.000000 0.020000 0.020000
1.000000 0.020000 0.020000
1.000000 0.020000 0.020000
1.000000 0.020000 0.020000
0.020000 0.090993 0.020000
0.020000 0.086772 0.020000
0.082564 0.082564 0.020000
0.165974 0.078370 0.020000
0.251988 0.074192 0.020000
0.339665 0.070029 0.020000
0.428576 0.065883 0.020000
0.518473 0.061756 0.020000
0.609191 0.057650 0.020000
0.700616 0.053566 0.020000
0.792662 0.049506 0.020000
0.885259 0.045475 0.020000
0.978356 0.041475 0.020000
1.000000 0.037512 0.020000
1.000000 0.033594 0.020000
1.000000 0.029733 0.020000
1.000000 0.025948 0.020000
0.020000 0.164379 0.020000
0.020000 0.160002 0.020000
0.068517 0.155632 0.020000
0.151268 0.151268 0.020000
0.236924 0.146912 0.020000
0.324350 0.142564 0.020000
0.413068 0.138223 0.020000
0.502807 0.133890 0.020000
0.593393 0.129566 0.020000
0.684702 0.125250 0.020000
0.776645 0.120942 0.020000
0.869151 0.116644 0.020000
0.962165 0.112356 0.020000
1.000000 0.108077 0.020000
1.000000 0.103809 0.020000
1.000000 0.099552 0.020000
1.000000 0.095306 0.020000
0.020000 0.239768 0.020000
0.020000 0.235297 0.020000
0.054674 0.230830 0.020000
0.136645 0.226368 0.020000
0.221911 0.221911 0.020000
0.309074 0.217459 0.020000
0.397591 0.213012 0.020000
0.487167 0.208571 0.020000
0.577616 0.204134 0.020000
0.668807 0.199703 0.020000
0.760645 0.195277 0.020000
0.853058 0.190856 0.020000
0.945987 0.186442 0.020000
1.000000 0.182033 0.020000
1.000000 0.177631 0.020000
1.000000 0.173234 0.020000
1.000000 0.168844 0.020000
0.020000 0.316498 0.020000
0.020000 0.311959 0.020000
0.041108 0.307423 0.020000
0.122113 0.302891 0.020000
0.206955 0.298363 0.020000
0.293838 0.293838 0.020000
0.382146 0.289317 0.020000
0.471553 0.284800 0.020000
0.561861 0.280287 0.020000
0.652931 0.275777 0.020000
0.744662 0.271272 0.020000
0.836980 0.266770 0.020000
0.929823 0.262273 0.020000
1.000000 0.257780 0.020000
1.000000 0.253291 0.020000
1.000000 0.248806 0.020000
1.000000 0.244326 0.020000
0.020000 0.394245 0.020000
0.020000 0.389653 0.020000
0.027994 0.385063 0.020000
0.107683 0.380476 0.020000
0.192058 0.375892 0.020000
0.278645 0.371311 0.020000
0.366733 0.366733 0.020000
0.455967 0.362158 0.020000
0.546129 0.357586 0.020000
0.637074 0.353017 0.020000
0.728697 0.348451 0.020000
0.820918 0.343889 0.020000
0.913674 0.339329 0.020000
1.000000 0.334773 0.020000
1.000000 0.330220 0.020000
1.000000 0.325671 0.020000
1.000000 0.321125 0.020000
0.020000 0.472814 0.020000
0.020000 0.468177 0.020000
0.020000 0.463543 0.020000
0.093372 0.458911 0.020000
0.177225 0.454281 0.020000
0.263495 0.449654 0.020000
0.351354 0.445030 0.020000
0.440408 0.440408 0.020000
0.530421 0.435788 0.020000
0.621239 0.431171 0.020000
0.712750 0.426557 0.020000
0.804872 0.421945 0.020000
0.897539 0.417336 0.020000
0.990698 0.412729 0.020000
1.000000 0.408125 0.020000
1.000000 0.403524 0.020000
1.000000 0.398926 0.020000
0.020000 0.552074 0.020000
0.020000 0.547400 0.020000
0.020000 0.542727 0.020000
0.079200 0.538057 0.020000
0.162462 0.533388 0.020000
0.248393 0.528722 0.020000
0.336012 0.524058 0.020000
0.424877 0.519396 0.020000
0.514737 0.514737 0.020000
0.605424 0.510079 0.020000
0.696822 0.505424 0.020000
0.788842 0.500771 0.020000
0.881419 0.496120 0.020000
0.974496 0.491471 0.020000
1.000000 0.486825 0.020000
1.000000 0.482181 0.020000
1.000000 0.477539 0.020000
0.020000 0.631931 0.020000
0.020000 0.627223 0.020000
0.020000 0.622518 0.020000
0.065197 0.617814 0.020000
0.147775 0.613112 0.020000
0.233341 0.608412 0.020000
0.320706 0.603714 0.020000
0.409377 0.599017 0.020000
0.499077 0.594323 0.020000
0.589630 0.589630 0.020000
0.680912 0.584940 0.020000
0.772830 0.580251 0.020000
0.865314 0.575564 0.020000
0.958307 0.570880 0.020000
1.000000 0.566197 0.020000
1.000000 0.561516 0.020000
1.000000 0.556837 0.020000
0.020000 0.712314 0.020000
0.020000 0.707577 0.020000
0.020000 0.702842 0.020000
0.051411 0.698108 0.020000
0.133172 0.693376 0.020000
0.218341 0.688646 0.020000
0.305439 0.683918 0.020000
0.393907 0.679191 0.020000
0.483443 0.674466 0.020000
0.573858 0.669742 0.020000
0.665021 0.665021 0.020000
0.756834 0.660301 0.020000
0.849224 0.655583 0.020000
0.942133 0.650866 0.020000
1.000000 0.646151 0.020000
1.000000 0.641439 0.020000
1.000000 0.636727 0.020000
0.020000 0.793166 0.020000
0.020000 0.788403 0.020000
0.020000 0.783642 0.020000
0.037930 0.778882 0.020000
0.118663 0.774123 0.020000
0.203398 0.769366 0.020000
0.290213 0.764610 0.020000
0.378469 0.759856 0.020000
0.467836 0.755104 0.020000
0.558109 0.750353 0.020000
0.649149 0.745603 0.020000
0.740855 0.740855 0.020000
0.833150 0.736109 0.020000
0.925972 0.731364 0.020000
1.000000 0.726621 0.020000
1.000000 0.721880 0.020000
1.000000 0.717140 0.020000
0.020000 0.874445 0.020000
0.020000 0.869658 0.020000
0.020000 0.864873 0.020000
0.024988 0.860088 0.020000
0.104261 0.855305 0.020000
0.188516 0.850524 0.020000
0.275030 0.845744 0.020000
0.363064 0.840965 0.020000
0.452256 0.836187 0.020000
0.542383 0.831411 0.020000
0.633298 0.826637 0.020000
0.724895 0.821864 0.020000
0.817092 0.817092 0.020000
0.909826 0.812322 0.020000
1.000000 0.807553 0.020000
1.000000 0.802785 0.020000
1.000000 0.798019 0.020000
0.020000 0.956113 0.020000
0.020000 0.951304 0.020000
0.020000 0.946496 0.020000
0.020000 0.941690 0.020000
0.089981 0.936885 0.020000
0.173700 0.932081 0.020000
0.259891 0.927278 0.020000
0.347694 0.922477 0.020000
0.436703 0.917676 0.020000
0.526680 0.912878 0.020000
0.617467 0.908080 0.020000
0.708952 0.903284 0.020000
0.801050 0.898489 0.020000
0.893695 0.893695 0.020000
0.986835 0.888903 0.020000
1.000000 0.884112 0.020000
1.000000 0.879322 0.020000
0.020000 1.000000 0.020000
0.020000 1.000000 0.020000
0.020000 1.000000 0.020000
0.020000 1.000000 0.020000
0.075846 1.000000 0.020000
0.158954 1.000000 0.020000
0.244801 1.000000 0.020000
0.332360 1.000000 0.020000
0.421180 0.999537 0.020000
0.511002 0.994718 0.020000
0.601657 0.989899 0.020000
0.693028 0.985081 0.020000
0.785024 0.980265 0.020000
0.877579 0.975450 0.020000
0.970636 0.970636 0.020000
1.000000 0.965823 0.020000
1.000000 0.961012 0.020000
0.020000 1.000000 0.020000
0.020000 1.000000 0.020000
0.020000 1.000000 0.020000
0.020000 1.000000 0.020000
0.061889 1.000000 0.020000
0.144287 1.000000 0.020000
0.229761 1.000000 0.020000
0.317063 1.000000 0.020000
0.405687 1.000000 0.020000
0.495349 1.000000 0.020000
0.585869 1.000000 0.020000
0.677122 1.000000 0.020000
0.769016 1.000000 0.020000
0.861477 1.000000 0.020000
0.954451 1.000000 0.020000
1.000000 1.000000 0.020000
1.000000 1.000000 0.020000
0.020000 1.000000 0.020000
0.020000 1.000000 0.020000
0.020000 1.000000 0.020000
0.020000 1.000000 0.020000
0.048166 1.000000 0.020000
0.129705 1.000000 0.020000
0.214774 1.000000 0.020000
0.301806 1.000000 0.020000
0.390224 1.000000 0.020000
0.479721 1.000000 0.020000
0.570103 1.000000 0.020000
0.661236 1.000000 0.020000
0.753024 1.000000 0.020000
0.845391 1.000000 0.020000
0.938280 1.000000 0.020000
1.000000 1.000000 0.020000
1.000000 1.000000 0.020000
0.020000 0.020000 0.033617
0.029755 0.020000 0.029755
0.109659 0.020000 0.025970
0.194101 0.020000 0.022309
0.280730 0.020000 0.020000
0.368849 0.020000 0.020000
0.458107 0.020000 0.020000
0.548289 0.020000 0.020000
0.639252 0.020000 0.020000
0.730890 0.020000 0.020000
0.823124 0.020000 0.020000
0.915892 0.020000 0.020000
1.000000 0.020000 0.020000
1.000000 0.020000 0.020000
1.000000 0.020000 0.020000
1.000000 0.020000 0.020000
1.000000 0.020000 0.020000
0.020000 0.021035 0.021035
0.020000 0.020000 0.020000
0.095331 0.020000 0.020000
0.179259 0.020000 0.020000
0.265574 0.020000 0.020000
0.353465 0.020000 0.020000
0.442544 0.020000 0.020000
0.532578 0.020000 0.020000
0.623413 0.020000 0.020000
0.714940 0.020000 0.020000
0.807076 0.020000 0.020000
0.899755 0.020000 0.020000
0.992925 0.020000 0.020000
1.000000 0.020000 0.020000
1.000000 0.020000 0.020000
1.000000 0.020000 0.020000
1.000000 0.020000 0.020000
0.020000 0.089558 0.020000
0.020000 0.085341 0.020000
0.081138 0.081138 0.020000
0.164486 0.076949 0.020000
0.250465 0.072776 0.020000
0.338117 0.068619 0.020000
0.427009 0.064480 0.020000
0.516890 0.060360 0.020000
0.607595 0.056260 0.020000
0.699009 0.052184 0.020000
0.791044 0.048134 0.020000
0.883633 0.044113 0.020000
0.976721 0.040125 0.020000
1.000000 0.036176 0.020000
1.000000 0.032276 0.020000
1.000000 0.028437 0.020000
1.000000 0.024687 0.020000
0.020000 0.162892 0.020000
0.020000 0.158517 0.020000
0.067110 0.154149 0.020000
0.149788 0.149788 0.020000
0.235406 0.145435 0.020000
0.322807 0.141089 0.020000
0.411505 0.136751 0.020000
0.501227 0.132421 0.020000
0.591799 0.128099 0.020000
0.683096 0.123786 0.020000
0.775029 0.119482 0.020000
0.867526 0.115187 0.020000
0.960531 0.110902 0.020000
1.000000 0.106627 0.020000
1.000000 0.102362 0.020000
1.000000 0.098108 0.020000
1.000000 0.093866 0.020000
0.020000 0.238249 0.020000
0.020000 0.233779 0.020000
0.053290 0.229314 0.020000
0.135173 0.224854 0.020000
0.220399 0.220399 0.020000
0.307534 0.215949 0.020000
0.396030 0.211503 0.020000
0.485590 0.207063 0.020000
0.576024 0.202628 0.020000
0.667203 0.198199 0.020000
0.759031 0.193775 0.020000
0.851434 0.189357 0.020000
0.944354 0.184944 0.020000
1.000000 0.180537 0.020000
1.000000 0.176137 0.020000
1.000000 0.171742 0.020000
1.000000 0.167354 0.020000
0.020000 0.314956 0.020000
0.020000 0.310418 0.020000
0.039759 0.305884 0.020000
0.120651 0.301353 0.020000
0.205448 0.296826 0.020000
0.292302 0.292302 0.020000
0.380588 0.287783 0.020000
0.469979 0.283267 0.020000
0.560272 0.278755 0.020000
0.651329 0.274247 0.020000
0.743050 0.269743 0.020000
0.835358 0.265243 0.020000
0.928192 0.260747 0.020000
1.000000 0.256255 0.020000
1.000000 0.251767 0.020000
1.000000 0.247284 0.020000
1.000000 0.242806 0.020000
0.020000 0.392685 0.020000
0.020000 0.388094 0.020000
0.026713 0.383505 0.020000
0.106233 0.378919 0.020000
0.190557 0.374336 0.020000
0.277113 0.369756 0.020000
0.365179 0.365179 0.020000
0.454395 0.360605 0.020000
0.544542 0.356034 0.020000
0.635475 0.351466 0.020000
0.727087 0.346901 0.020000
0.819297 0.342340 0.020000
0.912044 0.337782 0.020000
1.000000 0.333227 0.020000
1.000000 0.328675 0.020000
1.000000 0.324127 0.020000
1.000000 0.319582 0.020000
0.020000 0.471239 0.020000
0.020000 0.466603 0.020000
0.020000 0.461970 0.020000
0.091935 0.457338 0.020000
0.175731 0.452710 0.020000
0.261969 0.448083 0.020000
0.349804 0.443460 0.020000
0.438838 0.438838 0.020000
0.528836 0.434220 0.020000
0.619641 0.429604 0.020000
0.711141 0.424990 0.020000
0.803253 0.420379 0.020000
0.895911 0.415771 0.020000
0.989062 0.411165 0.020000
1.000000 0.406562 0.020000
1.000000 0.401962 0.020000
1.000000 0.397365 0.020000
0.020000 0.550486 0.020000
0.020000 0.545813 0.020000
0.020000 0.541141 0.020000
0.077778 0.536471 0.020000
0.160976 0.531804 0.020000
0.246871 0.527138 0.020000
0.334465 0.522475 0.020000
0.423311 0.517814 0.020000
0.513155 0.513155 0.020000
0.603828 0.508498 0.020000
0.695215 0.503843 0.020000
0.787225 0.499191 0.020000
0.879792 0.494541 0.020000
0.972861 0.489893 0.020000
1.000000 0.485248 0.020000
1.000000 0.480604 0.020000
1.000000 0.475964 0.020000
0.020000 0.630332 0.020000
0.020000 0.625625 0.020000
0.020000 0.620920 0.020000
0.063795 0.616217 0.020000
0.146297 0.611516 0.020000
0.231824 0.606816 0.020000
0.319163 0.602118 0.020000
0.407814 0.597423 0.020000
0.497498 0.592729 0.020000
0.588037 0.588037 0.020000
0.679307 0.583347 0.020000
0.771214 0.578659 0.020000
0.863689 0.573973 0.020000
0.956674 0.569289 0.020000
1.000000 0.564607 0.020000
1.000000 0.559927 0.020000
1.000000 0.555249 0.020000
0.020000 0.710705 0.020000
0.020000 0.705969 0.020000
0.020000 0.701234 0.020000
0.050034 0.696501 0.020000
0.131703 0.691770 0.020000
0.216830 0.687040 0.020000
0.303900 0.682312 0.020000
0.392347 0.677586 0.020000
0.481867 0.672862 0.020000
0.572268 0.668139 0.020000
0.663418 0.663418 0.020000
0.755220 0.658698 0.020000
0.847601 0.653981 0.020000
0.940501 0.649265 0.020000
1.000000 0.644551 0.020000
1.000000 0.639838 0.020000
1.000000 0.635128 0.020000
0.020000 0.791549 0.020000
0.020000 0.786786 0.020000
0.020000 0.782025 0.020000
0.036593 0.777266 0.020000
0.117204 0.772507 0.020000
0.201893 0.767751 0.020000
0.288678 0.762996 0.020000
0.376912 0.758242 0.020000
0.466262 0.753490 0.020000
0.556521 0.748740 0.020000
0.647548 0.743991 0.020000
0.739243 0.739243 0.020000
0.831528 0.734498 0.020000
0.924342 0.729753 0.020000
1.000000 0.725011 0.020000
1.000000 0.720270 0.020000
1.000000 0.715530 0.020000
0.020000 0.872819 0.020000
0.020000 0.868033 0.020000
0.020000 0.863248 0.020000
0.023740 0.858464 0.020000
0.102813 0.853681 0.020000
0.187017 0.848900 0.020000
0.273499 0.844121 0.020000
0.361511 0.839342 0.020000
0.450684 0.834565 0.020000
0.540797 0.829790 0.020000
0.631699 0.825016 0.020000
0.723284 0.820243 0.020000
0.815472 0.815472 0.020000
0.908197 0.810702 0.020000
1.000000 0.805933 0.020000
1.000000 0.801166 0.020000
1.000000 0.796401 0.020000
0.020000 0.954480 0.020000
0.020000 0.949671 0.020000
0.020000 0.944864 0.020000
0.020000 0.940058 0.020000
0.088547 0.935253 0.020000
0.172208 0.930449 0.020000
0.258366 0.925647 0.020000
0.346145 0.920846 0.020000
0.435135 0.916047 0.020000
0.525096 0.911248 0.020000
0.615870 0.906451 0.020000
0.707344 0.901655 0.020000
0.799431 0.896861 0.020000
0.892067 0.892067 0.020000
0.985199 0.887276 0.020000
1.000000 0.882485 0.020000
1.000000 0.877696 0.020000
0.020000 1.000000 0.020000
0.020000 1.000000 0.020000
0.020000 1.000000 0.020000
0.020000 1.000000 0.020000
0.074428 1.000000 0.020000
0.157470 1.000000 0.020000
0.243280 1.000000 0.020000
0.330814 1.000000 0.020000
0.419614 0.997900 0.020000
0.509421 0.993081 0.020000
0.600063 0.988263 0.020000
0.691421 0.983446 0.020000
0.783407 0.978630 0.020000
0.875953 0.973815 0.020000
0.969002 0.969002 0.020000
1.000000 0.964189 0.020000
1.000000 0.959378 0.020000
0.020000 1.000000 0.020000
0.020000 1.000000 0.020000
0.020000 1.000000 0.020000
0.020000 1.000000 0.020000
0.060492 1.000000 0.020000
0.142811 1.000000 0.020000
0.228245 1.000000 0.020000
0.315521 1.000000 0.020000
0.404124 1.000000 0.020000
0.493770 1.000000 0.020000
0.584276 1.000000 0.020000
0.675518 1.000000 0.020000
0.767400 1.000000 0.020000
0.859853 1.000000 0.020000
0.952818 1.000000 0.020000
1.000000 1.000000 0.020000
1.000000 1.000000 0.020000
0.020000 1.000000 0.020000
0.020000 1.000000 0.020000
0.020000 1.000000 0.020000
0.020000 1.000000 0.020000
0.046796 1.000000 0.020000
0.128238 1.000000 0.020000
0.213265 1.000000 0.020000
0.300268 1.000000 0.020000
0.388665 1.000000 0.020000
0.478145 1.000000 0.020000
0.568512 1.000000 0.020000
0.659633 1.000000 0.020000
0.751410 1.000000 0.020000
0.843768 1.000000 0.020000
0.936648 1.000000 0.020000
1.000000 1.000000 0.020000
1.000000 1.000000 0.020000
0.020000 0.020000 0.116775
0.028460 0.020000 0.112486
0.108207 0.020000 0.108207
0.192600 0.020000 0.103939
0.279198 0.020000 0.099681
0.367294 0.020000 0.095435
0.456534 0.020000 0.091200
0.546702 0.020000 0.086978
0.637652 0.020000 0.082770
0.729279 0.020000 0.078575
0.821503 0.020000 0.074396
0.914262 0.020000 0.070232
1.000000 0.020000 0.066086
1.000000 0.020000 0.061958
1.000000 0.020000 0.057850
1.000000 0.020000 0.053765
1.000000 0.020000 0.049704
0.020000 0.020000 0.102387
0.020000 0.020000 0.098134
0.093892 0.020000 0.093892
0.177764 0.020000 0.089662
0.264047 0.020000 0.085444
0.351914 0.020000 0.081241
0.440974 0.020000 0.077052
0.530993 0.020000 0.072878
0.621816 0.020000 0.068720
0.713331 0.020000 0.064581
0.805457 0.020000 0.060460
0.898126 0.020000 0.056360
0.991289 0.020000 0.052284
1.000000 0.020000 0.048233
1.000000 0.020000 0.044211
1.000000 0.020000 0.040222
1.000000 0.020000 0.036272
0.020000 0.088125 0.088125
0.020000 0.083912 0.083912
0.079714 0.079714 0.079714
0.162999 0.075530 0.075530
0.248943 0.071362 0.071362
0.336570 0.067211 0.067211
0.425443 0.063078 0.063078
0.515308 0.058965 0.058965
0.606000 0.054873 0.054873
0.697402 0.050806 0.050806
0.789426 0.046765 0.046765
0.882006 0.042754 0.042754
0.975086 0.038779 0.038779
1.000000 0.034846 0.034846
1.000000 0.030964 0.030964
1.000000 0.027152 0.027152
1.000000 0.023443 0.023443
0.020000 0.161405 0.074011
0.020000 0.157033 0.069849
0.065704 0.152667 0.065704
0.148309 0.148309 0.061578
0.233888 0.143958 0.057473
0.321263 0.139615 0.053390
0.409941 0.135279 0.049331
0.499647 0.130952 0.045301
0.590205 0.126633 0.041303
0.681491 0.122323 0.037342
0.773413 0.118022 0.033426
0.865900 0.113730 0.029567
0.958897 0.109449 0.025786
1.000000 0.105177 0.022134
1.000000 0.100916 0.020000
1.000000 0.096666 0.020000
1.000000 0.092428 0.020000
0.020000 0.236730 0.060081
0.020000 0.232262 0.055984
0.051909 0.227799 0.051909
0.133703 0.223341 0.047861
0.218887 0.218887 0.043841
0.305995 0.214438 0.039856
0.394470 0.209995 0.035910
0.484013 0.205557 0.032014
0.574433 0.201124 0.028180
0.665600 0.196696 0.024437
0.757417 0.192274 0.020867
0.849810 0.187857 0.020000
0.942722 0.183447 0.020000
1.000000 0.179042 0.020000
1.000000 0.174644 0.020000
1.000000 0.170251 0.020000
1.000000 0.165865 0.020000
0.020000 0.313415 0.046394
0.020000 0.308878 0.042386
0.038415 0.304345 0.038415
0.119191 0.299815 0.034485
0.203942 0.295289 0.030610
0.290767 0.290767 0.026805
0.379031 0.286249 0.023108
0.468404 0.281734 0.020000
0.558683 0.277223 0.020000
0.649728 0.272717 0.020000
0.741438 0.268214 0.020000
0.833736 0.263715 0.020000
0.926561 0.259221 0.020000
1.000000 0.254731 0.020000
1.000000 0.250245 0.020000
1.000000 0.245763 0.020000
1.000000 0.241286 0.020000
0.020000 0.391126 0.033067
0.020000 0.386535 0.029215
0.025443 0.381947 0.025443
0.104784 0.377362 0.021808
0.189058 0.372780 0.020000
0.275582 0.368201 0.020000
0.363625 0.363625 0.020000
0.452823 0.359052 0.020000
0.542956 0.354482 0.020000
0.633876 0.349916 0.020000
0.725476 0.345352 0.020000
0.817677 0.340792 0.020000
0.910415 0.336234 0.020000
1.000000 0.331681 0.020000
1.000000 0.327130 0.020000
1.000000 0.322583 0.020000
1.000000 0.318039 0.020000
0.020000 0.469665 0.020558
0.020000 0.465029 0.020000
0.020000 0.460397 0.020000
0.090499 0.455766 0.020000
0.174238 0.451138 0.020000
0.260442 0.446513 0.020000
0.348254 0.441890 0.020000
0.437270 0.437270 0.020000
0.527252 0.432652 0.020000
0.618044 0.428036 0.020000
0.709533 0.423424 0.020000
0.801634 0.418814 0.020000
0.894283 0.414206 0.020000
0.987426 0.409602 0.020000
1.000000 0.405000 0.020000
1.000000 0.400401 0.020000
1.000000 0.395804 0.020000
0.020000 0.548899 0.020000
0.020000 0.544226 0.020000
0.020000 0.539555 0.020000
0.076358 0.534886 0.020000
0.159490 0.530219 0.020000
0.245350 0.525554 0.020000
0.332918 0.520892 0.020000
0.421745 0.516231 0.020000
0.511573 0.511573 0.020000
0.602233 0.506917 0.020000
0.693608 0.502263 0.020000
0.785608 0.497612 0.020000
0.878166 0.492962 0.020000
0.971226 0.488315 0.020000
1.000000 0.483671 0.020000
1.000000 0.479028 0.020000
1.000000 0.474388 0.020000
0.020000 0.628733 0.020000
0.020000 0.624027 0.020000
0.020000 0.619323 0.020000
0.062394 0.614620 0.020000
0.144820 0.609919 0.020000
0.230308 0.605220 0.020000
0.317620 0.600524 0.020000
0.406251 0.595828 0.020000
0.495919 0.591135 0.020000
0.586444 0.586444 0.020000
0.677702 0.581755 0.020000
0.769599 0.577067 0.020000
0.862064 0.572382 0.020000
0.955041 0.567699 0.020000
1.000000 0.563017 0.020000
1.000000 0.558338 0.020000
1.000000 0.553661 0.020000
0.020000 0.709096 0.020000
0.020000 0.704360 0.020000
0.020000 0.699626 0.020000
0.048661 0.694894 0.020000
0.130235 0.690163 0.020000
0.215320 0.685434 0.020000
0.302361 0.680707 0.020000
0.390787 0.675981 0.020000
0.480290 0.671257 0.020000
0.570677 0.666535 0.020000
0.661815 0.661815 0.020000
0.753606 0.657096 0.020000
0.845977 0.652379 0.020000
0.938869 0.647664 0.020000
1.000000 0.642950 0.020000
1.000000 0.638238 0.020000
1.000000 0.633529 0.020000
0.020000 0.789931 0.020000
0.020000 0.785169 0.020000
0.020000 0.780409 0.020000
0.035260 0.775650 0.020000
0.115747 0.770892 0.020000
0.200389 0.766136 0.020000
0.287144 0.761381 0.020000
0.375356 0.756628 0.020000
0.464688 0.751877 0.020000
0.554932 0.747127 0.020000
0.645947 0.742378 0.020000
0.737632 0.737632 0.020000
0.829907 0.732886 0.020000
0.922711 0.728143 0.020000
1.000000 0.723400 0.020000
1.000000 0.718660 0.020000
1.000000 0.713921 0.020000
0.020000 0.871194 0.020000
0.020000 0.866408 0.020000
0.020000 0.861623 0.020000
0.022512 0.856840 0.020000
0.101367 0.852058 0.020000
0.185519 0.847277 0.020000
0.271969 0.842498 0.020000
0.359958 0.837720 0.020000
0.449113 0.832943 0.020000
0.539211 0.828168 0.020000
0.630100 0.823395 0.020000
0.721674 0.818622 0.020000
0.813852 0.813852 0.020000
0.906568 0.809082 0.020000
0.999773 0.804314 0.020000
1.000000 0.799548 0.020000
1.000000 0.794783 0.020000
0.020000 0.952846 0.020000
0.020000 0.948038 0.020000
0.020000 0.943231 0.020000
0.020000 0.938426 0.020000
0.087114 0.933622 0.020000
0.170717 0.928818 0.020000
0.256841 0.924017 0.020000
0.344595 0.919216 0.020000
0.433567 0.914417 0.020000
0.523513 0.909619 0.020000
0.614274 0.904822 0.020000
0.705735 0.900027 0.020000
0.797813 0.895233 0.020000
0.890440 0.890440 0.020000
0.983563 0.885649 0.020000
1.000000 0.880858 0.020000
1.000000 0.876070 0.020000
0.020000 1.000000 0.020000
0.020000 1.000000 0.020000
0.020000 1.000000 0.020000
0.020000 1.000000 0.020000
0.073012 1.000000 0.020000
0.155986 1.000000 0.020000
0.241760 1.000000 0.020000
0.329269 1.000000 0.020000
0.418049 0.996264 0.020000
0.507839 0.991444 0.020000
0.598468 0.986627 0.020000
0.689815 0.981810 0.020000
0.781791 0.976994 0.020000
0.874327 0.972180 0.020000
0.967367 0.967367 0.020000
1.000000 0.962555 0.020000
1.000000 0.957745 0.020000
0.020000 1.000000 0.020000
0.020000 1.000000 0.020000
0.020000 1.000000 0.020000
0.020000 1.000000 0.020000
0.059098 1.000000 0.020000
0.141335 1.000000 0.020000
0.226731 1.000000 0.020000
0.313980 1.000000 0.020000
0.402562 1.000000 0.020000
0.492191 1.000000 0.020000
0.582684 1.000000 0.020000
0.673913 1.000000 0.020000
0.765785 1.000000 0.020000
0.858228 1.000000 0.020000
0.951185 1.000000 0.020000
1.000000 1.000000 0.020000
1.000000 1.000000 0.020000
0.020000 1.000000 0.020000
0.020000 1.000000 0.020000
0.020000 1.000000 0.020000
0.020000 1.000000 0.020000
0.045431 1.000000 0.020000
0.126773 1.000000 0.020000
0.211756 1.000000 0.020000
0.298731 1.000000 0.020000
0.387106 1.000000 0.020000
0.476569 1.000000 0.020000
0.566922 1.000000 0.020000
0.658031 1.000000 0.020000
0.749797 1.000000 0.020000
0.842146 1.000000 0.020000
0.935016 1.000000 0.020000
1.000000 1.000000 0.020000
1.000000 1.000000 0.020000
0.020000 0.020000 0.204377
0.027174 0.020000 0.199946
0.106756 0.020000 0.195519
0.191099 0.020000 0.191099
0.277666 0.020000 0.186684
0.365740 0.020000 0.182275
0.454962 0.020000 0.177872
0.545115 0.020000 0.173475
0.636052 0.020000 0.169084
0.727668 0.020000 0.164700
0.819882 0.020000 0.160323
0.912632 0.020000 0.155952
1.000000 0.020000 0.151588
1.000000 0.020000 0.147232
1.000000 0.020000 0.142883
1.000000 0.020000 0.138541
1.000000 0.020000 0.134208
0.020000 0.020000 0.189491
0.020000 0.020000 0.185078
0.092454 0.020000 0.180671
