data/luts/vivid.cube
TITLE "Vivid"
LUT_3D_SIZE 5
0.020000 0.020000 0.020000
0.282262 0.020000 0.020000
0.640852 0.020000 0.020000
1.000000 0.020000 0.020000
1.000000 0.020000 0.020000
0.020000 0.239768 0.020000
0.221911 0.221911 0.020000
0.577616 0.204134 0.020000
0.945987 0.186442 0.020000
1.000000 0.168844 0.020000
0.020000 0.552074 0.020000
0.162462 0.533388 0.020000
0.514737 0.514737 0.020000
0.881419 0.496120 0.020000
1.000000 0.477539 0.020000
0.020000 0.874445 0.020000
0.104261 0.855305 0.020000
0.452256 0.836187 0.020000
0.817092 0.817092 0.020000
1.000000 0.798019 0.020000
0.020000 1.000000 0.020000
0.048166 1.000000 0.020000
0.390224 1.000000 0.020000
0.753024 1.000000 0.020000
1.000000 1.000000 0.020000
0.020000 0.020000 0.294197
0.276135 0.020000 0.276135
0.634453 0.020000 0.258136
1.000000 0.020000 0.240205
1.000000 0.020000 0.222347
0.020000 0.233695 0.233695
0.215865 0.215865 0.215865
0.571251 0.198116 0.198116
0.939458 0.180455 0.180455
1.000000 0.162890 0.162890
0.020000 0.545725 0.174048
0.156522 0.527050 0.156522
0.508410 0.508410 0.139107
0.874914 0.489806 0.121820
1.000000 0.471238 0.104678
0.020000 0.867943 0.115561
0.098479 0.848810 0.098479
0.445972 0.829700 0.081582
0.810612 0.810612 0.064916
1.000000 0.791547 0.048561
0.020000 1.000000 0.058920
0.042711 1.000000 0.042711
0.383990 1.000000 0.027110
0.746571 1.000000 0.020000
1.000000 1.000000 0.020000
0.020000 0.020000 0.665770
0.270015 0.020000 0.646899
0.628057 0.020000 0.628057
0.997681 0.020000 0.609244
1.000000 0.020000 0.590461
0.020000 0.227631 0.602403
0.209828 0.209828 0.583631
0.564890 0.192108 0.564890
0.932932 0.174478 0.546182
1.000000 0.156949 0.527507
0.020000 0.539379 0.539379
0.150594 0.520716 0.520716
0.502088 0.502088 0.502088
0.868411 0.483496 0.483496
1.000000 0.464941 0.464941
0.020000 0.861443 0.476736
0.092718 0.842318 0.458195
0.439693 0.823215 0.439693
0.804135 0.804135 0.421232
1.000000 0.785078 0.402813
0.020000 1.000000 0.414521
0.037321 1.000000 0.396118
0.377760 1.000000 0.377760
0.740122 1.000000 0.359449
1.000000 1.000000 0.341188
0.020000 0.020000 1.000000
0.263903 0.020000 1.000000
0.621665 0.020000 1.000000
0.991135 0.020000 0.991135
1.000000 0.020000 0.971871
0.020000 0.221576 0.984119
0.203800 0.203800 0.964862
0.558533 0.186110 0.945625
0.926408 0.168513 0.926408
1.000000 0.151021 0.907211
0.020000 0.533037 0.919416
0.144681 0.514386 0.900227
0.495770 0.495770 0.881058
0.861911 0.477190 0.861911
1.000000 0.458648 0.842785
0.020000 0.854945 0.854945
0.086980 0.835828 0.835828
0.433419 0.816733 0.816733
0.797661 0.797661 0.797661
1.000000 0.778612 0.778612
0.020000 1.000000 0.790723
0.032015 1.000000 0.771683
0.371536 1.000000 0.752666
0.733675 1.000000 0.733675
1.000000 1.000000 0.714708
0.020000 0.020000 1.000000
0.257798 0.020000 1.000000
0.615276 0.020000 1.000000
0.984590 0.020000 1.000000
1.000000 0.020000 1.000000
0.020000 0.215530 1.000000
0.197783 0.197783 1.000000
0.552180 0.180123 1.000000
0.919886 0.162561 1.000000
1.000000 0.145106 1.000000
0.020000 0.526699 1.000000
0.138781 0.508060 1.000000
0.489456 0.489456 1.000000
0.855413 0.470889 1.000000
1.000000 0.452360 1.000000
0.020000 0.848451 1.000000
0.081266 0.829341 1.000000
0.427150 0.810253 1.000000
0.791189 0.791189 1.000000
1.000000 0.772148 1.000000
0.020000 1.000000 1.000000
0.026827 1.000000 1.000000
0.365318 1.000000 1.000000
0.727231 1.000000 1.000000
1.000000 1.000000 1.000000
