data/luts/vivid.cube
TITLE "Vivid"
LUT_3D_SIZE 9
0.020000 0.020000 0.020000
0.111112 0.020000 0.020000
0.282262 0.020000 0.020000
0.459679 0.020000 0.020000
0.640852 0.020000 0.020000
0.824745 0.020000 0.020000
1.000000 0.020000 0.020000
1.000000 0.020000 0.020000
1.000000 0.020000 0.020000
0.020000 0.090993 0.020000
0.082564 0.082564 0.020000
0.251988 0.074192 0.020000
0.428576 0.065883 0.020000
0.609191 0.057650 0.020000
0.792662 0.049506 0.020000
0.978356 0.041475 0.020000
1.000000 0.033594 0.020000
1.000000 0.025948 0.020000
0.020000 0.239768 0.020000
0.054674 0.230830 0.020000
0.221911 0.221911 0.020000
0.397591 0.213012 0.020000
0.577616 0.204134 0.020000
0.760645 0.195277 0.020000
0.945987 0.186442 0.020000
1.000000 0.177631 0.020000
1.000000 0.168844 0.020000
0.020000 0.394245 0.020000
0.027994 0.385063 0.020000
0.192058 0.375892 0.020000
0.366733 0.366733 0.020000
0.546129 0.357586 0.020000
0.728697 0.348451 0.020000
0.913674 0.339329 0.020000
1.000000 0.330220 0.020000
1.000000 0.321125 0.020000
0.020000 0.552074 0.020000
0.020000 0.542727 0.020000
0.162462 0.533388 0.020000
0.336012 0.524058 0.020000
0.514737 0.514737 0.020000
0.696822 0.505424 0.020000
0.881419 0.496120 0.020000
1.000000 0.486825 0.020000
1.000000 0.477539 0.020000
0.020000 0.712314 0.020000
0.020000 0.702842 0.020000
0.133172 0.693376 0.020000
0.305439 0.683918 0.020000
0.483443 0.674466 0.020000
0.665021 0.665021 0.020000
0.849224 0.655583 0.020000
1.000000 0.646151 0.020000
1.000000 0.636727 0.020000
0.020000 0.874445 0.020000
0.020000 0.864873 0.020000
0.104261 0.855305 0.020000
0.275030 0.845744 0.020000
0.452256 0.836187 0.020000
0.633298 0.826637 0.020000
0.817092 0.817092 0.020000
1.000000 0.807553 0.020000
1.000000 0.798019 0.020000
0.020000 1.000000 0.020000
0.020000 1.000000 0.020000
0.075846 1.000000 0.020000
0.244801 1.000000 0.020000
0.421180 0.999537 0.020000
0.601657 0.989899 0.020000
0.785024 0.980265 0.020000
0.970636 0.970636 0.020000
1.000000 0.961012 0.020000
0.020000 1.000000 0.020000
0.020000 1.000000 0.020000
0.048166 1.000000 0.020000
0.214774 1.000000 0.020000
0.390224 1.000000 0.020000
0.570103 1.000000 0.020000
0.753024 1.000000 0.020000
0.938280 1.000000 0.020000
1.000000 1.000000 0.020000
0.020000 0.020000 0.116775
0.108207 0.020000 0.108207
0.279198 0.020000 0.099681
0.456534 0.020000 0.091200
0.637652 0.020000 0.082770
0.821503 0.020000 0.074396
1.000000 0.020000 0.066086
1.000000 0.020000 0.057850
1.000000 0.020000 0.049704
0.020000 0.088125 0.088125
0.079714 0.079714 0.079714
0.248943 0.071362 0.071362
0.425443 0.063078 0.063078
0.606000 0.054873 0.054873
0.789426 0.046765 0.046765
0.975086 0.038779 0.038779
1.000000 0.030964 0.030964
1.000000 0.023443 0.023443
0.020000 0.236730 0.060081
0.051909 0.227799 0.051909
0.218887 0.218887 0.043841
0.394470 0.209995 0.035910
0.574433 0.201124 0.028180
0.757417 0.192274 0.020867
0.942722 0.183447 0.020000
1.000000 0.174644 0.020000
1.000000 0.165865 0.020000
0.020000 0.391126 0.033067
0.025443 0.381947 0.025443
0.189058 0.372780 0.020000
0.363625 0.363625 0.020000
0.542956 0.354482 0.020000
0.725476 0.345352 0.020000
0.910415 0.336234 0.020000
1.000000 0.327130 0.020000
1.000000 0.318039 0.020000
0.020000 0.548899 0.020000
0.020000 0.539555 0.020000
0.159490 0.530219 0.020000
0.332918 0.520892 0.020000
0.511573 0.511573 0.020000
0.693608 0.502263 0.020000
0.878166 0.492962 0.020000
1.000000 0.483671 0.020000
1.000000 0.474388 0.020000
0.020000 0.709096 0.020000
0.020000 0.699626 0.020000
0.130235 0.690163 0.020000
0.302361 0.680707 0.020000
0.480290 0.671257 0.020000
0.661815 0.661815 0.020000
0.845977 0.652379 0.020000
1.000000 0.642950 0.020000
1.000000 0.633529 0.020000
0.020000 0.871194 0.020000
0.020000 0.861623 0.020000
0.101367 0.852058 0.020000
0.271969 0.842498 0.020000
0.449113 0.832943 0.020000
0.630100 0.823395 0.020000
0.813852 0.813852 0.020000
0.999773 0.804314 0.020000
1.000000 0.794783 0.020000
0.020000 1.000000 0.020000
0.020000 1.000000 0.020000
0.073012 1.000000 0.020000
0.241760 1.000000 0.020000
0.418049 0.996264 0.020000
0.598468 0.986627 0.020000
0.781791 0.976994 0.020000
0.967367 0.967367 0.020000
1.000000 0.957745 0.020000
0.020000 1.000000 0.020000
0.020000 1.000000 0.020000
0.045431 1.000000 0.020000
0.211756 1.000000 0.020000
0.387106 1.000000 0.020000
0.566922 1.000000 0.020000
0.749797 1.000000 0.020000
0.935016 1.000000 0.020000
1.000000 1.000000 0.020000
0.020000 0.020000 0.294197
0.105307 0.020000 0.285158
0.276135 0.020000 0.276135
0.453390 0.020000 0.267127
0.634453 0.020000 0.258136
0.818262 0.020000 0.249162
1.000000 0.020000 0.240205
1.000000 0.020000 0.231267
1.000000 0.020000 0.222347
0.020000 0.085262 0.263852
0.076871 0.076871 0.254867
0.245899 0.068541 0.245899
0.422310 0.060282 0.236949
0.602809 0.052108 0.228017
0.786192 0.044037 0.219105
0.971816 0.036102 0.210212
1.000000 0.028366 0.201340
1.000000 0.021034 0.192490
0.020000 0.233695 0.233695
0.049156 0.224770 0.224770
0.215865 0.215865 0.215865
0.391350 0.206980 0.206980
0.571251 0.198116 0.198116
0.754189 0.189274 0.189274
0.939458 0.180455 0.180455
1.000000 0.171660 0.171660
1.000000 0.162890 0.162890
0.020000 0.388007 0.203750
0.022952 0.378833 0.194894
0.186060 0.369670 0.186060
0.360519 0.360519 0.177250
0.539783 0.351380 0.168464
0.722256 0.342254 0.159704
0.907156 0.333141 0.150972
1.000000 0.324041 0.142268
1.000000 0.314955 0.133596
0.020000 0.545725 0.174048
0.020000 0.536383 0.165272
0.156522 0.527050 0.156522
0.329827 0.517726 0.147800
0.508410 0.508410 0.139107
0.690395 0.499103 0.130446
0.874914 0.489806 0.121820
1.000000 0.480517 0.113229
1.000000 0.471238 0.104678
0.020000 0.705879 0.144632
0.020000 0.696412 0.135950
0.127302 0.686951 0.127302
0.299286 0.677497 0.118688
0.477138 0.668050 0.110111
0.658610 0.658610 0.101575
0.842731 0.649176 0.093084
1.000000 0.639750 0.084642
1.000000 0.630331 0.076255
0.020000 0.867943 0.115561
0.020000 0.858374 0.106999
0.098479 0.848810 0.098479
0.268911 0.839252 0.090005
0.445972 0.829700 0.081582
0.626903 0.820153 0.073216
0.810612 0.810612 0.064916
0.996499 0.801077 0.056693
1.000000 0.791547 0.048561
0.020000 1.000000 0.086932
0.020000 1.000000 0.078529
0.070186 1.000000 0.070186
0.238721 1.000000 0.061913
0.414920 0.992990 0.053720
0.595279 0.983355 0.045627
0.778558 0.973724 0.037662
0.964099 0.964099 0.029878
1.000000 0.954478 0.022423
0.020000 1.000000 0.058920
0.020000 1.000000 0.050761
0.042711 1.000000 0.042711
0.208739 1.000000 0.034803
0.383990 1.000000 0.027110
0.563742 1.000000 0.020000
0.746571 1.000000 0.020000
0.931754 1.000000 0.020000
1.000000 1.000000 0.020000
0.020000 0.020000 0.478049
0.102411 0.020000 0.468772
0.273074 0.020000 0.459505
0.450248 0.020000 0.450248
0.631255 0.020000 0.441000
0.815021 0.020000 0.431763
1.000000 0.020000 0.422536
1.000000 0.020000 0.413320
1.000000 0.020000 0.404114
0.020000 0.082406 0.446880
0.074035 0.074035 0.437636
0.242858 0.065728 0.428403
0.419179 0.057496 0.419179
0.599619 0.049354 0.409967
0.782958 0.041325 0.400765
0.968547 0.033448 0.391575
1.000000 0.025807 0.382396
1.000000 0.020000 0.373228
0.020000 0.230662 0.415824
0.046417 0.221744 0.406616
0.212845 0.212845 0.397418
0.388232 0.203967 0.388232
0.568070 0.195110 0.379057
0.750962 0.186276 0.369894
0.936195 0.177465 0.360743
1.000000 0.168679 0.351604
1.000000 0.159918 0.342477
0.020000 0.384890 0.384890
0.020576 0.375720 0.375720
0.183065 0.366561 0.366561
0.357414 0.357414 0.357414
0.536612 0.348280 0.348280
0.719036 0.339158 0.339158
0.903899 0.330049 0.330049
1.000000 0.320954 0.320954
1.000000 0.311872 0.311872
0.020000 0.542551 0.354087
0.020000 0.533213 0.344957
0.153556 0.523883 0.335840
0.326736 0.514561 0.326736
0.505249 0.505249 0.317646
0.687183 0.495945 0.308569
0.871662 0.486650 0.299507
1.000000 0.477365 0.290460
1.000000 0.468089 0.281427
0.020000 0.702664 0.323425
0.020000 0.693198 0.314340
0.124372 0.683740 0.305268
0.296212 0.674288 0.296212
0.473987 0.664843 0.287169
0.655405 0.655405 0.278142
0.839486 0.645974 0.269131
1.000000 0.636550 0.260137
1.000000 0.627133 0.251159
0.020000 0.864692 0.292918
0.020000 0.855125 0.283881
0.095595 0.845564 0.274860
0.265855 0.836008 0.265855
0.442832 0.826457 0.256866
0.623707 0.816912 0.247894
0.807373 0.807373 0.238940
0.993226 0.797840 0.230004
1.000000 0.788312 0.221087
0.020000 1.000000 0.262580
0.020000 1.000000 0.253598
0.067368 1.000000 0.244632
0.235685 0.999356 0.235685
0.411792 0.989718 0.226756
0.592092 0.980084 0.217846
0.775326 0.970455 0.208956
0.960831 0.960831 0.200087
1.000000 0.951212 0.191240
0.020000 1.000000 0.232432
0.020000 1.000000 0.223510
0.040007 1.000000 0.214607
0.205725 1.000000 0.205725
0.380874 1.000000 0.196864
0.560564 1.000000 0.188025
0.743346 1.000000 0.179209
0.928492 1.000000 0.170418
1.000000 1.000000 0.161652
0.020000 0.020000 0.665770
0.099521 0.020000 0.656331
0.270015 0.020000 0.646899
0.447106 0.020000 0.637475
0.628057 0.020000 0.628057
0.811782 0.020000 0.618647
0.997681 0.020000 0.609244
1.000000 0.020000 0.599849
1.000000 0.020000 0.590461
0.020000 0.079556 0.634045
0.071206 0.071206 0.624631
0.239818 0.062923 0.615223
0.416050 0.054720 0.605823
0.596431 0.046613 0.596431
0.779725 0.038630 0.587046
0.965279 0.030819 0.577669
1.000000 0.023306 0.568299
1.000000 0.020000 0.558938
0.020000 0.227631 0.602403
0.043691 0.218720 0.593013
0.209828 0.209828 0.583631
0.385115 0.200957 0.574257
0.564890 0.192108 0.564890
0.747736 0.183281 0.555532
0.932932 0.174478 0.546182
1.000000 0.165700 0.536840
1.000000 0.156949 0.527507
0.020000 0.381775 0.570846
0.020000 0.372608 0.561482
0.180073 0.363453 0.552127
0.354310 0.354310 0.542780
0.533441 0.345180 0.533441
0.715817 0.336063 0.524111
0.900642 0.326959 0.514789
1.000000 0.317868 0.505476
1.000000 0.308791 0.496172
0.020000 0.539379 0.539379
0.020000 0.530043 0.530043
0.150594 0.520716 0.520716
0.323648 0.511398 0.511398
0.502088 0.502088 0.502088
0.683971 0.492787 0.492787
0.868411 0.483496 0.483496
1.000000 0.474214 0.474214
1.000000 0.464941 0.464941
0.020000 0.699448 0.508007
0.020000 0.689985 0.498701
0.121447 0.680529 0.489404
0.293139 0.671080 0.480115
0.470837 0.661637 0.470837
0.652201 0.652201 0.461567
0.836241 0.642773 0.452308
1.000000 0.633351 0.443058
1.000000 0.623937 0.433819
0.020000 0.861443 0.476736
0.020000 0.851878 0.467461
0.092718 0.842318 0.458195
0.262800 0.832764 0.448939
0.439693 0.823215 0.439693
0.620511 0.813672 0.430457
0.804135 0.804135 0.421232
0.989953 0.794604 0.412017
1.000000 0.785078 0.402813
0.020000 1.000000 0.445572
0.020000 1.000000 0.436330
0.064559 1.000000 0.427098
0.232650 0.996082 0.417876
0.408665 0.986445 0.408665
0.588905 0.976813 0.399465
0.772094 0.967186 0.390276
0.957564 0.957564 0.381099
1.000000 0.947946 0.371933
0.020000 1.000000 0.414521
0.020000 1.000000 0.405314
0.037321 1.000000 0.396118
0.202713 1.000000 0.386934
0.377760 1.000000 0.377760
0.557386 1.000000 0.368599
0.740122 1.000000 0.359449
0.925230 1.000000 0.350312
1.000000 1.000000 0.341188
0.020000 0.020000 0.856298
0.096636 0.020000 0.846736
0.266958 0.020000 0.837179
0.443966 0.020000 0.827628
0.624861 0.020000 0.818082
0.808542 0.020000 0.808542
0.994408 0.020000 0.799008
1.000000 0.020000 0.789480
1.000000 0.020000 0.779958
0.020000 0.076713 0.824152
0.068385 0.068385 0.814609
0.236781 0.060128 0.805071
0.412921 0.051955 0.795539
0.593242 0.043887 0.786013
0.776493 0.035955 0.776493
0.962011 0.028223 0.766978
1.000000 0.020905 0.757470
1.000000 0.020000 0.747968
0.020000 0.224603 0.792070
0.040981 0.215698 0.782546
0.206813 0.206813 0.773028
0.381999 0.197949 0.763516
0.561711 0.189107 0.754010
0.744510 0.180289 0.744510
0.929669 0.171494 0.735017
1.000000 0.162725 0.725530
1.000000 0.153983 0.716049
0.020000 0.378660 0.760055
0.020000 0.369498 0.750551
0.177084 0.360347 0.741053
0.351208 0.351208 0.731562
0.530272 0.342083 0.722077
0.712599 0.332970 0.712599
0.897385 0.323870 0.703127
1.000000 0.314784 0.693661
1.000000 0.305712 0.684202
0.020000 0.536208 0.728108
0.020000 0.526875 0.718626
0.147636 0.517551 0.709150
0.320561 0.508235 0.699680
0.498928 0.498928 0.690217
0.680760 0.489631 0.680760
0.865161 0.480342 0.671311
1.000000 0.471063 0.661868
1.000000 0.461794 0.652432
0.020000 0.696234 0.696234
0.020000 0.686773 0.686773
0.118526 0.677319 0.677319
0.290068 0.667872 0.667872
0.467688 0.658432 0.658432
0.648999 0.648999 0.648999
0.832997 0.639572 0.639572
1.000000 0.630153 0.630153
1.000000 0.620742 0.620742
0.020000 0.858194 0.664435
0.020000 0.848630 0.654997
0.089846 0.839073 0.645566
0.259748 0.829520 0.636142
0.436556 0.819974 0.626726
0.617317 0.810433 0.617317
0.800897 0.800897 0.607915
0.986681 0.791368 0.598521
1.000000 0.781845 0.589134
0.020000 1.000000 0.632713
0.020000 1.000000 0.623300
0.061758 1.000000 0.613893
0.229618 0.992809 0.604494
0.405539 0.983174 0.595103
0.585719 0.973543 0.585719
0.768863 0.963918 0.576343
0.954297 0.954297 0.566975
1.000000 0.944681 0.557615
0.020000 1.000000 0.601074
0.020000 1.000000 0.591686
0.034656 1.000000 0.582305
0.199704 1.000000 0.572932
0.374648 1.000000 0.563566
0.554209 1.000000 0.554209
0.736898 1.000000 0.544860
0.921969 1.000000 0.535520
1.000000 1.000000 0.526187
0.020000 0.020000 1.000000
0.093756 0.020000 1.000000
0.263903 0.020000 1.000000
0.440826 0.020000 1.000000
0.621665 0.020000 1.000000
0.805304 0.020000 1.000000
0.991135 0.020000 0.991135
1.000000 0.020000 0.981500
1.000000 0.020000 0.971871
0.020000 0.073878 1.000000
0.065572 0.065572 1.000000
0.233746 0.057342 0.997264
0.409794 0.049202 0.987627
0.590055 0.041175 0.977994
0.773261 0.033301 0.968366
0.958743 0.025667 0.958743
1.000000 0.020000 0.949125
1.000000 0.020000 0.939512
0.020000 0.221576 0.984119
0.038288 0.212678 0.974488
0.203800 0.203800 0.964862
0.378884 0.194944 0.955241
0.558533 0.186110 0.945625
0.741286 0.177299 0.936014
0.926408 0.168513 0.926408
1.000000 0.159754 0.916807
1.000000 0.151021 0.907211
0.020000 0.375547 0.951740
0.020000 0.366389 0.942125
0.174098 0.357242 0.932516
0.348108 0.348108 0.922912
0.527103 0.338986 0.913312
0.709381 0.329878 0.903718
0.894129 0.320783 0.894129
1.000000 0.311701 0.884546
1.000000 0.302634 0.874968
0.020000 0.533037 0.919416
0.020000 0.523707 0.909819
0.144681 0.514386 0.900227
0.317475 0.505073 0.890640
0.495770 0.495770 0.881058
0.677551 0.486475 0.871482
0.861911 0.477190 0.861911
1.000000 0.467914 0.852345
1.000000 0.458648 0.842785
0.020000 0.693020 0.887151
0.020000 0.683562 0.877571
0.115609 0.674110 0.867997
0.286999 0.664665 0.858428
0.464540 0.655228 0.848864
0.645797 0.645797 0.839306
0.829754 0.636373 0.829754
1.000000 0.626956 0.820207
1.000000 0.617547 0.810666
0.020000 0.854945 0.854945
0.020000 0.845384 0.845384
0.086980 0.835828 0.835828
0.256697 0.826278 0.826278
0.433419 0.816733 0.816733
0.614123 0.807194 0.807194
0.797661 0.797661 0.797661
0.983409 0.788133 0.788133
1.000000 0.778612 0.778612
0.020000 1.000000 0.822802
0.020000 1.000000 0.813259
0.058966 0.999175 0.803722
0.226588 0.989536 0.794191
0.402415 0.979903 0.784666
0.582534 0.970274 0.775147
0.765633 0.960650 0.765633
0.951031 0.951031 0.756126
1.000000 0.941417 0.746625
0.020000 1.000000 0.790723
0.020000 1.000000 0.781200
0.032015 1.000000 0.771683
0.196697 1.000000 0.762171
0.371536 1.000000 0.752666
0.551033 1.000000 0.743167
0.733675 1.000000 0.733675
0.918709 1.000000 0.724188
1.000000 1.000000 0.714708
0.020000 0.020000 1.000000
0.090882 0.020000 1.000000
0.260850 0.020000 1.000000
0.437688 0.020000 1.000000
0.618470 0.020000 1.000000
0.802066 0.020000 1.000000
0.987862 0.020000 1.000000
1.000000 0.020000 1.000000
1.000000 0.020000 1.000000
0.020000 0.071049 1.000000
0.062768 0.062768 1.000000
0.230713 0.054566 1.000000
0.406668 0.046462 1.000000
0.586869 0.038481 1.000000
0.770030 0.030675 1.000000
0.955476 0.023170 1.000000
1.000000 0.020000 1.000000
1.000000 0.020000 1.000000
0.020000 0.218552 1.000000
0.035615 0.209661 1.000000
0.200790 0.200790 1.000000
0.375771 0.191941 1.000000
0.555356 0.183115 1.000000
0.738062 0.174313 1.000000
0.923146 0.165536 1.000000
1.000000 0.156785 1.000000
1.000000 0.148062 1.000000
0.020000 0.372436 1.000000
0.020000 0.363281 1.000000
0.171114 0.354139 1.000000
0.345009 0.345009 1.000000
0.523935 0.335892 1.000000
0.706165 0.326788 1.000000
0.890874 0.317697 1.000000
1.000000 0.308621 1.000000
1.000000 0.299558 1.000000
0.020000 0.529868 1.000000
0.020000 0.520541 1.000000
0.141729 0.511222 1.000000
0.314391 0.501913 1.000000
0.492612 0.492612 1.000000
0.674341 0.483321 1.000000
0.858662 0.474039 1.000000
1.000000 0.464766 1.000000
1.000000 0.455504 1.000000
0.020000 0.689807 1.000000
0.020000 0.680351 1.000000
0.112697 0.670902 1.000000
0.283932 0.661460 1.000000
0.461393 0.652024 1.000000
0.642596 0.642596 1.000000
0.826511 0.633174 1.000000
1.000000 0.623760 1.000000
1.000000 0.614353 1.000000
0.020000 0.851698 1.000000
0.020000 0.842138 1.000000
0.084120 0.832584 1.000000
0.253648 0.823035 1.000000
0.430284 0.813493 1.000000
0.610930 0.803956 0.999410
0.794424 0.794424 0.989772
0.980138 0.784899 0.980138
1.000000 0.775379 0.970509
0.020000 1.000000 1.000000
0.020000 1.000000 1.000000
0.056185 0.995901 0.995901
0.223560 0.986264 0.986264
0.399292 0.976632 0.976632
0.579350 0.967005 0.967005
0.762404 0.957383 0.957383
0.947765 0.947765 0.947765
1.000000 0.938153 0.938153
0.020000 1.000000 0.982757
0.020000 1.000000 0.973127
0.029403 1.000000 0.963501
0.193693 1.000000 0.953881
0.368427 1.000000 0.944265
0.547858 1.000000 0.934655
0.730452 1.000000 0.925049
0.915449 1.000000 0.915449
1.000000 1.000000 0.905854
0.020000 0.020000 1.000000
0.088014 0.020000 1.000000
0.257798 0.020000 1.000000
0.434551 0.020000 1.000000
0.615276 0.020000 1.000000
0.798829 0.020000 1.000000
0.984590 0.020000 1.000000
1.000000 0.020000 1.000000
1.000000 0.020000 1.000000
0.020000 0.068229 1.000000
0.059973 0.059973 1.000000
0.227682 0.051802 1.000000
0.403543 0.043736 1.000000
0.583684 0.035807 1.000000
0.766799 0.028080 1.000000
0.952210 0.020778 1.000000
1.000000 0.020000 1.000000
1.000000 0.020000 1.000000
0.020000 0.215530 1.000000
0.032965 0.206646 1.000000
0.197783 0.197783 1.000000
0.372660 0.188941 1.000000
0.552180 0.180123 1.000000
0.734838 0.171329 1.000000
0.919886 0.162561 1.000000
1.000000 0.153819 1.000000
1.000000 0.145106 1.000000
0.020000 0.369325 1.000000
0.020000 0.360175 1.000000
0.168134 0.351037 1.000000
0.341911 0.341911 1.000000
0.520769 0.332798 1.000000
0.702949 0.323699 1.000000
0.887620 0.314613 1.000000
1.000000 0.305541 1.000000
1.000000 0.296484 1.000000
0.020000 0.526699 1.000000
0.020000 0.517375 1.000000
0.138781 0.508060 1.000000
0.311309 0.498753 1.000000
0.489456 0.489456 1.000000
0.671133 0.480168 1.000000
0.855413 0.470889 1.000000
1.000000 0.461620 1.000000
1.000000 0.452360 1.000000
0.020000 0.686595 1.000000
0.020000 0.677142 1.000000
0.109789 0.667695 1.000000
0.280867 0.658254 1.000000
0.458247 0.648821 1.000000
0.639395 0.639395 1.000000
0.823269 0.629976 1.000000
1.000000 0.620565 1.000000
1.000000 0.611160 1.000000
0.020000 0.848451 1.000000
0.020000 0.838893 1.000000
0.081266 0.829341 1.000000
0.250602 0.819794 1.000000
0.427150 0.810253 1.000000
0.607738 0.800718 1.000000
0.791189 0.791189 1.000000
0.976868 0.781665 1.000000
1.000000 0.772148 1.000000
0.020000 1.000000 1.000000
0.020000 1.000000 1.000000
0.053414 0.992628 1.000000
0.220534 0.982992 1.000000
0.396170 0.973362 1.000000
0.576167 0.963737 1.000000
0.759175 0.954116 1.000000
0.944501 0.944501 1.000000
1.000000 0.934890 1.000000
0.020000 1.000000 1.000000
0.020000 1.000000 1.000000
0.026827 1.000000 1.000000
0.190692 1.000000 1.000000
0.365318 1.000000 1.000000
0.544684 1.000000 1.000000
0.727231 1.000000 1.000000
0.912190 1.000000 1.000000
1.000000 1.000000 1.000000
