data/luts/warm.cube
TITLE "Warm"
LUT_3D_SIZE 17
0.005400 0.005100 0.004500
0.080740 0.003962 0.003495
0.156079 0.002823 0.002491
0.231419 0.001685 0.001486
0.306758 0.000546 0.000482
0.382098 0.000000 0.000000
0.457437 0.000000 0.000000
0.532777 0.000000 0.000000
0.608116 0.000000 0.000000
0.683456 0.000000 0.000000
0.758796 0.000000 0.000000
0.834135 0.000000 0.000000
0.909475 0.000000 0.000000
0.984814 0.000000 0.000000
1.000000 0.000000 0.000000
1.000000 0.000000 0.000000
1.000000 0.000000 0.000000
0.001345 0.073563 0.001121
0.076684 0.072424 0.000116
0.152024 0.071286 0.000000
0.227363 0.070147 0.000000
0.302703 0.069009 0.000000
0.378043 0.067870 0.000000
0.453382 0.066732 0.000000
0.528722 0.065593 0.000000
0.604061 0.064455 0.000000
0.679401 0.063316 0.000000
0.754740 0.062178 0.000000
0.830080 0.061039 0.000000
0.905420 0.059901 0.000000
0.980759 0.058762 0.000000
1.000000 0.057624 0.000000
1.000000 0.056486 0.000000
1.000000 0.055347 0.000000
0.000000 0.142025 0.000000
0.072629 0.140887 0.000000
0.147969 0.139748 0.000000
0.223308 0.138610 0.000000
0.298648 0.137471 0.000000
0.373987 0.136333 0.000000
0.449327 0.135194 0.000000
0.524667 0.134056 0.000000
0.600006 0.132917 0.000000
0.675346 0.131779 0.000000
0.750685 0.130640 0.000000
0.826025 0.129502 0.000000
0.901364 0.128364 0.000000
0.976704 0.127225 0.000000
1.000000 0.126087 0.000000
1.000000 0.124948 0.000000
1.000000 0.123810 0.000000
0.000000 0.210488 0.000000
0.068574 0.209349 0.000000
0.143914 0.208211 0.000000
0.219253 0.207072 0.000000
0.294593 0.205934 0.000000
0.369932 0.204795 0.000000
0.445272 0.203657 0.000000
0.520611 0.202519 0.000000
0.595951 0.201380 0.000000
0.671290 0.200242 0.000000
0.746630 0.199103 0.000000
0.821970 0.197965 0.000000
0.897309 0.196826 0.000000
0.972649 0.195688 0.000000
1.000000 0.194549 0.000000
1.000000 0.193411 0.000000
1.000000 0.192272 0.000000
0.000000 0.278950 0.000000
0.064519 0.277812 0.000000
0.139858 0.276673 0.000000
0.215198 0.275535 0.000000
0.290537 0.274397 0.000000
0.365877 0.273258 0.000000
0.441217 0.272120 0.000000
0.516556 0.270981 0.000000
0.591896 0.269843 0.000000
0.667235 0.268704 0.000000
0.742575 0.267566 0.000000
0.817914 0.266427 0.000000
0.893254 0.265289 0.000000
0.968594 0.264150 0.000000
1.000000 0.263012 0.000000
1.000000 0.261873 0.000000
1.000000 0.260735 0.000000
0.000000 0.347413 0.000000
0.060464 0.346275 0.000000
0.135803 0.345136 0.000000
0.211143 0.343998 0.000000
0.286482 0.342859 0.000000
0.361822 0.341721 0.000000
0.437161 0.340582 0.000000
0.512501 0.339444 0.000000
0.587841 0.338305 0.000000
0.663180 0.337167 0.000000
0.738520 0.336028 0.000000
0.813859 0.334890 0.000000
0.889199 0.333751 0.000000
0.964538 0.332613 0.000000
1.000000 0.331474 0.000000
1.000000 0.330336 0.000000
1.000000 0.329197 0.000000
0.000000 0.415876 0.000000
0.056408 0.414737 0.000000
0.131748 0.413599 0.000000
0.207088 0.412460 0.000000
0.282427 0.411322 0.000000
0.357767 0.410183 0.000000
0.433106 0.409045 0.000000
0.508446 0.407906 0.000000
0.583785 0.406768 0.000000
0.659125 0.405629 0.000000
0.734464 0.404491 0.000000
0.809804 0.403352 0.000000
0.885144 0.402214 0.000000
0.960483 0.401075 0.000000
1.000000 0.399937 0.000000
1.000000 0.398799 0.000000
1.000000 0.397660 0.000000
0.000000 0.484338 0.000000
0.052353 0.483200 0.000000
0.127693 0.482061 0.000000
0.203032 0.480923 0.000000
0.278372 0.479784 0.000000
0.353712 0.478646 0.000000
0.429051 0.477507 0.000000
0.504391 0.476369 0.000000
0.579730 0.475230 0.000000
0.655070 0.474092 0.000000
0.730409 0.472953 0.000000
0.805749 0.471815 0.000000
0.881088 0.470677 0.000000
0.956428 0.469538 0.000000
1.000000 0.468400 0.000000
1.000000 0.467261 0.000000
1.000000 0.466123 0.000000
0.000000 0.552801 0.000000
0.048298 0.551662 0.000000
0.123638 0.550524 0.000000
0.198977 0.549385 0.000000
0.274317 0.548247 0.000000
0.349656 0.547108 0.000000
0.424996 0.545970 0.000000
0.500335 0.544832 0.000000
0.575675 0.543693 0.000000
0.651015 0.542555 0.000000
0.726354 0.541416 0.000000
0.801694 0.540278 0.000000
0.877033 0.539139 0.000000
0.952373 0.538001 0.000000
1.000000 0.536862 0.000000
1.000000 0.535724 0.000000
1.000000 0.534585 0.000000
0.000000 0.621263 0.000000
0.044243 0.620125 0.000000
0.119582 0.618986 0.000000
0.194922 0.617848 0.000000
0.270262 0.616710 0.000000
0.345601 0.615571 0.000000
0.420941 0.614433 0.000000
0.496280 0.613294 0.000000
0.571620 0.612156 0.000000
0.646959 0.611017 0.000000
0.722299 0.609879 0.000000
0.797638 0.608740 0.000000
0.872978 0.607602 0.000000
0.948318 0.606463 0.000000
1.000000 0.605325 0.000000
1.000000 0.604186 0.000000
1.000000 0.603048 0.000000
0.000000 0.689726 0.000000
0.040188 0.688588 0.000000
0.115527 0.687449 0.000000
0.190867 0.686311 0.000000
0.266206 0.685172 0.000000
0.341546 0.684034 0.000000
0.416886 0.682895 0.000000
0.492225 0.681757 0.000000
0.567565 0.680618 0.000000
0.642904 0.679480 0.000000
0.718244 0.678341 0.000000
0.793583 0.677203 0.000000
0.868923 0.676064 0.000000
0.944262 0.674926 0.000000
1.000000 0.673787 0.000000
1.000000 0.672649 0.000000
1.000000 0.671510 0.000000
0.000000 0.758189 0.000000
0.036133 0.757050 0.000000
0.111472 0.755912 0.000000
0.186812 0.754773 0.000000
0.262151 0.753635 0.000000
0.337491 0.752496 0.000000
0.412830 0.751358 0.000000
0.488170 0.750219 0.000000
0.563509 0.749081 0.000000
0.638849 0.747942 0.000000
0.714189 0.746804 0.000000
0.789528 0.745665 0.000000
0.864868 0.744527 0.000000
0.940207 0.743388 0.000000
1.000000 0.742250 0.000000
1.000000 0.741112 0.000000
1.000000 0.739973 0.000000
0.000000 0.826651 0.000000
0.032077 0.825513 0.000000
0.107417 0.824374 0.000000
0.182756 0.823236 0.000000
0.258096 0.822097 0.000000
0.333436 0.820959 0.000000
0.408775 0.819820 0.000000
0.484115 0.818682 0.000000
0.559454 0.817543 0.000000
0.634794 0.816405 0.000000
0.710133 0.815267 0.000000
0.785473 0.814128 0.000000
0.860812 0.812990 0.000000
0.936152 0.811851 0.000000
1.000000 0.810713 0.000000
1.000000 0.809574 0.000000
1.000000 0.808436 0.000000
0.000000 0.895114 0.000000
0.028022 0.893975 0.000000
0.103362 0.892837 0.000000
0.178701 0.891698 0.000000
0.254041 0.890560 0.000000
0.329380 0.889421 0.000000
0.404720 0.888283 0.000000
0.480060 0.887145 0.000000
0.555399 0.886006 0.000000
0.630739 0.884868 0.000000
0.706078 0.883729 0.000000
0.781418 0.882591 0.000000
0.856757 0.881452 0.000000
0.932097 0.880314 0.000000
1.000000 0.879175 0.000000
1.000000 0.878037 0.000000
1.000000 0.876898 0.000000
0.000000 0.963576 0.000000
0.023967 0.962438 0.000000
0.099307 0.961300 0.000000
0.174646 0.960161 0.000000
0.249986 0.959023 0.000000
0.325325 0.957884 0.000000
0.400665 0.956746 0.000000
0.476004 0.955607 0.000000
0.551344 0.954469 0.000000
0.626683 0.953330 0.000000
0.702023 0.952192 0.000000
0.777363 0.951053 0.000000
0.852702 0.949915 0.000000
0.928042 0.948776 0.000000
1.000000 0.947638 0.000000
1.000000 0.946499 0.000000
1.000000 0.945361 0.000000
0.000000 1.000000 0.000000
0.019912 1.000000 0.000000
0.095251 1.000000 0.000000
0.170591 1.000000 0.000000
0.245930 1.000000 0.000000
0.321270 1.000000 0.000000
0.396610 1.000000 0.000000
0.471949 1.000000 0.000000
0.547289 1.000000 0.000000
0.622628 1.000000 0.000000
0.697968 1.000000 0.000000
0.773307 1.000000 0.000000
0.848647 1.000000 0.000000
0.923986 1.000000 0.000000
0.999326 1.000000 0.000000
1.000000 1.000000 0.000000
1.000000 1.000000 0.000000
0.000000 1.000000 0.000000
0.015857 1.000000 0.000000
0.091196 1.000000 0.000000
0.166536 1.000000 0.000000
0.241875 1.000000 0.000000
0.317215 1.000000 0.000000
0.392554 1.000000 0.000000
0.467894 1.000000 0.000000
0.543234 1.000000 0.000000
0.618573 1.000000 0.000000
0.693913 1.000000 0.000000
0.769252 1.000000 0.000000
0.844592 1.000000 0.000000
0.919931 1.000000 0.000000
0.995271 1.000000 0.000000
1.000000 1.000000 0.000000
1.000000 1.000000 0.000000
0.004991 0.004713 0.067946
0.080330 0.003575 0.066942
0.155670 0.002436 0.065937
0.231009 0.001298 0.064933
0.306349 0.000159 0.063928
0.381688 0.000000 0.062924
0.457028 0.000000 0.061919
0.532368 0.000000 0.060915
0.607707 0.000000 0.059910
0.683047 0.000000 0.058906
0.758386 0.000000 0.057901
0.833726 0.000000 0.056896
0.909065 0.000000 0.055892
0.984405 0.000000 0.054887
1.000000 0.000000 0.053883
1.000000 0.000000 0.052878
1.000000 0.000000 0.051874
0.000935 0.073176 0.064567
0.076275 0.072037 0.063562
0.151615 0.070899 0.062558
0.226954 0.069761 0.061553
0.302294 0.068622 0.060549
0.377633 0.067484 0.059544
0.452973 0.066345 0.058540
0.528312 0.065207 0.057535
0.603652 0.064068 0.056531
0.678991 0.062930 0.055526
0.754331 0.061791 0.054522
0.829671 0.060653 0.053517
0.905010 0.059514 0.052513
0.980350 0.058376 0.051508
1.000000 0.057237 0.050504
1.000000 0.056099 0.049499
1.000000 0.054960 0.048494
0.000000 0.141639 0.061188
0.072220 0.140500 0.060183
0.147559 0.139362 0.059179
0.222899 0.138223 0.058174
0.298238 0.137085 0.057170
0.373578 0.135946 0.056165
0.448918 0.134808 0.055161
0.524257 0.133669 0.054156
0.599597 0.132531 0.053151
0.674936 0.131392 0.052147
0.750276 0.130254 0.051142
0.825615 0.129115 0.050138
0.900955 0.127977 0.049133
0.976295 0.126838 0.048129
1.000000 0.125700 0.047124
1.000000 0.124561 0.046120
1.000000 0.123423 0.045115
0.000000 0.210101 0.057808
0.068165 0.208963 0.056804
0.143504 0.207824 0.055799
0.218844 0.206686 0.054795
0.294183 0.205547 0.053790
0.369523 0.204409 0.052786
0.444862 0.203270 0.051781
0.520202 0.202132 0.050777
0.595542 0.200993 0.049772
0.670881 0.199855 0.048768
0.746221 0.198716 0.047763
0.821560 0.197578 0.046759
0.896900 0.196440 0.045754
0.972239 0.195301 0.044749
1.000000 0.194163 0.043745
1.000000 0.193024 0.042740
1.000000 0.191886 0.041736
0.000000 0.278564 0.054429
0.064109 0.277425 0.053425
0.139449 0.276287 0.052420
0.214789 0.275148 0.051415
0.290128 0.274010 0.050411
0.365468 0.272871 0.049406
0.440807 0.271733 0.048402
0.516147 0.270594 0.047397
0.591486 0.269456 0.046393
0.666826 0.268318 0.045388
0.742165 0.267179 0.044384
0.817505 0.266041 0.043379
0.892845 0.264902 0.042375
0.968184 0.263764 0.041370
1.000000 0.262625 0.040366
1.000000 0.261487 0.039361
1.000000 0.260348 0.038357
0.000000 0.347026 0.051050
0.060054 0.345888 0.050045
0.135394 0.344749 0.049041
0.210733 0.343611 0.048036
0.286073 0.342472 0.047032
0.361412 0.341334 0.046027
0.436752 0.340196 0.045023
0.512092 0.339057 0.044018
0.587431 0.337919 0.043013
0.662771 0.336780 0.042009
0.738110 0.335642 0.041004
0.813450 0.334503 0.040000
0.888789 0.333365 0.038995
0.964129 0.332226 0.037991
1.000000 0.331088 0.036986
1.000000 0.329949 0.035982
1.000000 0.328811 0.034977
0.000000 0.415489 0.047670
0.055999 0.414351 0.046666
0.131339 0.413212 0.045661
0.206678 0.412074 0.044657
0.282018 0.410935 0.043652
0.357357 0.409797 0.042648
0.432697 0.408658 0.041643
0.508036 0.407520 0.040639
0.583376 0.406381 0.039634
0.658716 0.405243 0.038630
0.734055 0.404104 0.037625
0.809395 0.402966 0.036621
0.884734 0.401827 0.035616
0.960074 0.400689 0.034611
1.000000 0.399550 0.033607
1.000000 0.398412 0.032602
1.000000 0.397273 0.031598
0.000000 0.483952 0.044291
0.051944 0.482813 0.043287
0.127283 0.481675 0.042282
0.202623 0.480536 0.041278
0.277963 0.479398 0.040273
0.353302 0.478259 0.039268
0.428642 0.477121 0.038264
0.503981 0.475982 0.037259
0.579321 0.474844 0.036255
0.654660 0.473705 0.035250
0.730000 0.472567 0.034246
0.805339 0.471428 0.033241
0.880679 0.470290 0.032237
0.956019 0.469151 0.031232
1.000000 0.468013 0.030228
1.000000 0.466875 0.029223
1.000000 0.465736 0.028219
0.000000 0.552414 0.040912
0.047889 0.551276 0.039907
0.123228 0.550137 0.038903
0.198568 0.548999 0.037898
0.273907 0.547860 0.036894
0.349247 0.546722 0.035889
0.424587 0.545583 0.034885
0.499926 0.544445 0.033880
0.575266 0.543306 0.032876
0.650605 0.542168 0.031871
0.725945 0.541029 0.030866
0.801284 0.539891 0.029862
0.876624 0.538753 0.028857
0.951963 0.537614 0.027853
1.000000 0.536476 0.026848
1.000000 0.535337 0.025844
1.000000 0.534199 0.024839
0.000000 0.620877 0.037532
0.043834 0.619738 0.036528
0.119173 0.618600 0.035523
0.194513 0.617461 0.034519
0.269852 0.616323 0.033514
0.345192 0.615184 0.032510
0.420531 0.614046 0.031505
0.495871 0.612907 0.030501
0.571210 0.611769 0.029496
0.646550 0.610631 0.028492
0.721890 0.609492 0.027487
0.797229 0.608354 0.026483
0.872569 0.607215 0.025478
0.947908 0.606077 0.024474
1.000000 0.604938 0.023469
1.000000 0.603800 0.022464
1.000000 0.602661 0.021460
0.000000 0.689339 0.034153
0.039778 0.688201 0.033149
0.115118 0.687062 0.032144
0.190457 0.685924 0.031140
0.265797 0.684786 0.030135
0.341137 0.683647 0.029130
0.416476 0.682509 0.028126
0.491816 0.681370 0.027121
0.567155 0.680232 0.026117
0.642495 0.679093 0.025112
0.717834 0.677955 0.024108
0.793174 0.676816 0.023103
0.868513 0.675678 0.022099
0.943853 0.674539 0.021094
1.000000 0.673401 0.020090
1.000000 0.672262 0.019085
1.000000 0.671124 0.018081
0.000000 0.757802 0.030774
0.035723 0.756664 0.029769
0.111063 0.755525 0.028765
0.186402 0.754387 0.027760
0.261742 0.753248 0.026756
0.337081 0.752110 0.025751
0.412421 0.750971 0.024747
0.487761 0.749833 0.023742
0.563100 0.748694 0.022738
0.638440 0.747556 0.021733
0.713779 0.746417 0.020728
0.789119 0.745279 0.019724
0.864458 0.744140 0.018719
0.939798 0.743002 0.017715
1.000000 0.741863 0.016710
1.000000 0.740725 0.015706
1.000000 0.739586 0.014701
0.000000 0.826265 0.027395
0.031668 0.825126 0.026390
0.107008 0.823988 0.025385
0.182347 0.822849 0.024381
0.257687 0.821711 0.023376
0.333026 0.820572 0.022372
0.408366 0.819434 0.021367
0.483705 0.818295 0.020363
0.559045 0.817157 0.019358
0.634384 0.816018 0.018354
0.709724 0.814880 0.017349
0.785064 0.813741 0.016345
0.860403 0.812603 0.015340
0.935743 0.811464 0.014336
1.000000 0.810326 0.013331
1.000000 0.809188 0.012326
1.000000 0.808049 0.011322
0.000000 0.894727 0.024015
0.027613 0.893589 0.023011
0.102952 0.892450 0.022006
0.178292 0.891312 0.021002
0.253631 0.890173 0.019997
0.328971 0.889035 0.018993
0.404311 0.887896 0.017988
0.479650 0.886758 0.016983
0.554990 0.885619 0.015979
0.630329 0.884481 0.014974
0.705669 0.883342 0.013970
0.781008 0.882204 0.012965
0.856348 0.881066 0.011961
0.931687 0.879927 0.010956
1.000000 0.878789 0.009952
1.000000 0.877650 0.008947
1.000000 0.876512 0.007943
0.000000 0.963190 0.020636
0.023558 0.962051 0.019631
0.098897 0.960913 0.018627
0.174237 0.959774 0.017622
0.249576 0.958636 0.016618
0.324916 0.957497 0.015613
0.400255 0.956359 0.014609
0.475595 0.955221 0.013604
0.550935 0.954082 0.012600
0.626274 0.952944 0.011595
0.701614 0.951805 0.010591
0.776953 0.950667 0.009586
0.852293 0.949528 0.008581
0.927632 0.948390 0.007577
1.000000 0.947251 0.006572
1.000000 0.946113 0.005568
1.000000 0.944974 0.004563
0.000000 1.000000 0.017257
0.019502 1.000000 0.016252
0.094842 1.000000 0.015247
0.170182 1.000000 0.014243
0.245521 1.000000 0.013238
0.320861 1.000000 0.012234
0.396200 1.000000 0.011229
0.471540 1.000000 0.010225
0.546879 1.000000 0.009220
0.622219 1.000000 0.008216
0.697558 1.000000 0.007211
0.772898 1.000000 0.006207
0.848238 1.000000 0.005202
0.923577 1.000000 0.004198
0.998917 1.000000 0.003193
1.000000 1.000000 0.002189
1.000000 1.000000 0.001184
0.000000 1.000000 0.013877
0.015447 1.000000 0.012873
0.090787 1.000000 0.011868
0.166126 1.000000 0.010864
0.241466 1.000000 0.009859
0.316805 1.000000 0.008855
0.392145 1.000000 0.007850
0.467485 1.000000 0.006845
0.542824 1.000000 0.005841
0.618164 1.000000 0.004836
0.693503 1.000000 0.003832
0.768843 1.000000 0.002827
0.844182 1.000000 0.001823
0.919522 1.000000 0.000818
0.994861 1.000000 0.000000
1.000000 1.000000 0.000000
1.000000 1.000000 0.000000
0.004581 0.004327 0.131393
0.079921 0.003188 0.130388
0.155260 0.002050 0.129384
0.230600 0.000911 0.128379
0.305939 0.000000 0.127375
0.381279 0.000000 0.126370
0.456619 0.000000 0.125365
0.531958 0.000000 0.124361
0.607298 0.000000 0.123356
0.682637 0.000000 0.122352
0.757977 0.000000 0.121347
0.833316 0.000000 0.120343
0.908656 0.000000 0.119338
0.983996 0.000000 0.118334
1.000000 0.000000 0.117329
1.000000 0.000000 0.116325
1.000000 0.000000 0.115320
0.000526 0.072789 0.128013
0.075866 0.071651 0.127009
0.151205 0.070512 0.126004
0.226545 0.069374 0.125000
0.301884 0.068235 0.123995
0.377224 0.067097 0.122991
0.452563 0.065959 0.121986
0.527903 0.064820 0.120982
0.603243 0.063682 0.119977
0.678582 0.062543 0.118973
0.753922 0.061405 0.117968
0.829261 0.060266 0.116964
0.904601 0.059128 0.115959
0.979940 0.057989 0.114954
1.000000 0.056851 0.113950
1.000000 0.055712 0.112945
1.000000 0.054574 0.111941
0.000000 0.141252 0.124634
0.071810 0.140113 0.123630
0.147150 0.138975 0.122625
0.222490 0.137837 0.121620
0.297829 0.136698 0.120616
0.373169 0.135560 0.119611
0.448508 0.134421 0.118607
0.523848 0.133283 0.117602
0.599187 0.132144 0.116598
0.674527 0.131006 0.115593
0.749866 0.129867 0.114589
0.825206 0.128729 0.113584
0.900546 0.127590 0.112580
0.975885 0.126452 0.111575
1.000000 0.125313 0.110571
1.000000 0.124175 0.109566
1.000000 0.123036 0.108562
0.000000 0.209715 0.121255
0.067755 0.208576 0.120250
0.143095 0.207438 0.119246
0.218434 0.206299 0.118241
0.293774 0.205161 0.117237
0.369113 0.204022 0.116232
0.444453 0.202884 0.115228
0.519793 0.201745 0.114223
0.595132 0.200607 0.113218
0.670472 0.199468 0.112214
0.745811 0.198330 0.111209
0.821151 0.197191 0.110205
0.896490 0.196053 0.109200
0.971830 0.194914 0.108196
1.000000 0.193776 0.107191
1.000000 0.192637 0.106187
1.000000 0.191499 0.105182
0.000000 0.278177 0.117875
0.063700 0.277039 0.116871
0.139040 0.275900 0.115866
0.214379 0.274762 0.114862
0.289719 0.273623 0.113857
0.365058 0.272485 0.112853
0.440398 0.271346 0.111848
0.515737 0.270208 0.110844
0.591077 0.269069 0.109839
0.666417 0.267931 0.108835
0.741756 0.266792 0.107830
0.817096 0.265654 0.106826
0.892435 0.264515 0.105821
0.967775 0.263377 0.104816
1.000000 0.262239 0.103812
1.000000 0.261100 0.102807
1.000000 0.259962 0.101803
0.000000 0.346640 0.114496
0.059645 0.345501 0.113492
0.134984 0.344363 0.112487
0.210324 0.343224 0.111483
0.285664 0.342086 0.110478
0.361003 0.340947 0.109473
0.436343 0.339809 0.108469
0.511682 0.338670 0.107464
0.587022 0.337532 0.106460
0.662361 0.336394 0.105455
0.737701 0.335255 0.104451
0.813040 0.334117 0.103446
0.888380 0.332978 0.102442
0.963720 0.331840 0.101437
1.000000 0.330701 0.100433
1.000000 0.329563 0.099428
1.000000 0.328424 0.098424
0.000000 0.415102 0.111117
0.055590 0.413964 0.110112
0.130929 0.412825 0.109108
0.206269 0.411687 0.108103
0.281608 0.410548 0.107099
0.356948 0.409410 0.106094
0.432287 0.408272 0.105090
0.507627 0.407133 0.104085
0.582967 0.405995 0.103081
0.658306 0.404856 0.102076
0.733646 0.403718 0.101071
0.808985 0.402579 0.100067
0.884325 0.401441 0.099062
0.959664 0.400302 0.098058
1.000000 0.399164 0.097053
1.000000 0.398025 0.096049
1.000000 0.396887 0.095044
0.000000 0.483565 0.107737
0.051535 0.482426 0.106733
0.126874 0.481288 0.105728
0.202214 0.480150 0.104724
0.277553 0.479011 0.103719
0.352893 0.477873 0.102715
0.428232 0.476734 0.101710
0.503572 0.475596 0.100706
0.578911 0.474457 0.099701
0.654251 0.473319 0.098697
0.729591 0.472180 0.097692
0.804930 0.471042 0.096688
0.880270 0.469903 0.095683
0.955609 0.468765 0.094679
1.000000 0.467626 0.093674
1.000000 0.466488 0.092669
1.000000 0.465349 0.091665
0.000000 0.552028 0.104358
0.047479 0.550889 0.103354
0.122819 0.549751 0.102349
0.198158 0.548612 0.101345
0.273498 0.547474 0.100340
0.348838 0.546335 0.099335
0.424177 0.545197 0.098331
0.499517 0.544058 0.097326
0.574856 0.542920 0.096322
0.650196 0.541781 0.095317
0.725535 0.540643 0.094313
0.800875 0.539504 0.093308
0.876214 0.538366 0.092304
0.951554 0.537227 0.091299
1.000000 0.536089 0.090295
1.000000 0.534950 0.089290
1.000000 0.533812 0.088286
0.000000 0.620490 0.100979
0.043424 0.619352 0.099974
0.118764 0.618213 0.098970
0.194103 0.617075 0.097965
0.269443 0.615936 0.096961
0.344782 0.614798 0.095956
0.420122 0.613659 0.094952
0.495462 0.612521 0.093947
0.570801 0.611382 0.092943
0.646141 0.610244 0.091938
0.721480 0.609105 0.090933
0.796820 0.607967 0.089929
0.872159 0.606828 0.088924
0.947499 0.605690 0.087920
1.000000 0.604552 0.086915
1.000000 0.603413 0.085911
1.000000 0.602275 0.084906
0.000000 0.688953 0.097600
0.039369 0.687814 0.096595
0.114709 0.686676 0.095590
0.190048 0.685537 0.094586
0.265388 0.684399 0.093581
0.340727 0.683260 0.092577
0.416067 0.682122 0.091572
0.491406 0.680983 0.090568
0.566746 0.679845 0.089563
0.642085 0.678707 0.088559
0.717425 0.677568 0.087554
0.792765 0.676430 0.086550
0.868104 0.675291 0.085545
0.943444 0.674153 0.084541
1.000000 0.673014 0.083536
1.000000 0.671876 0.082531
1.000000 0.670737 0.081527
0.000000 0.757415 0.094220
0.035314 0.756277 0.093216
0.110653 0.755138 0.092211
0.185993 0.754000 0.091207
0.261332 0.752861 0.090202
0.336672 0.751723 0.089198
0.412012 0.750585 0.088193
0.487351 0.749446 0.087188
0.562691 0.748308 0.086184
0.638030 0.747169 0.085179
0.713370 0.746031 0.084175
0.788709 0.744892 0.083170
0.864049 0.743754 0.082166
0.939388 0.742615 0.081161
1.000000 0.741477 0.080157
1.000000 0.740338 0.079152
1.000000 0.739200 0.078148
0.000000 0.825878 0.090841
0.031259 0.824740 0.089836
0.106598 0.823601 0.088832
0.181938 0.822463 0.087827
0.257277 0.821324 0.086823
0.332617 0.820186 0.085818
0.407956 0.819047 0.084814
0.483296 0.817909 0.083809
0.558636 0.816770 0.082805
0.633975 0.815632 0.081800
0.709315 0.814493 0.080796
0.784654 0.813355 0.079791
0.859994 0.812216 0.078786
0.935333 0.811078 0.077782
1.000000 0.809939 0.076777
1.000000 0.808801 0.075773
1.000000 0.807662 0.074768
0.000000 0.894341 0.087462
0.027203 0.893202 0.086457
0.102543 0.892064 0.085452
0.177883 0.890925 0.084448
0.253222 0.889787 0.083443
0.328562 0.888648 0.082439
0.403901 0.887510 0.081434
0.479241 0.886371 0.080430
0.554580 0.885233 0.079425
0.629920 0.884094 0.078421
0.705259 0.882956 0.077416
0.780599 0.881817 0.076412
0.855939 0.880679 0.075407
0.931278 0.879540 0.074403
1.000000 0.878402 0.073398
1.000000 0.877263 0.072394
1.000000 0.876125 0.071389
0.000000 0.962803 0.084082
0.023148 0.961665 0.083078
0.098488 0.960526 0.082073
0.173827 0.959388 0.081069
0.249167 0.958249 0.080064
0.324506 0.957111 0.079060
0.399846 0.955972 0.078055
0.475186 0.954834 0.077050
0.550525 0.953695 0.076046
0.625865 0.952557 0.075041
0.701204 0.951418 0.074037
0.776544 0.950280 0.073032
0.851883 0.949142 0.072028
0.927223 0.948003 0.071023
1.000000 0.946865 0.070019
1.000000 0.945726 0.069014
1.000000 0.944588 0.068010
0.000000 1.000000 0.080703
0.019093 1.000000 0.079698
0.094433 1.000000 0.078694
0.169772 1.000000 0.077689
0.245112 1.000000 0.076685
0.320451 1.000000 0.075680
0.395791 1.000000 0.074676
0.471130 1.000000 0.073671
0.546470 1.000000 0.072667
0.621810 1.000000 0.071662
0.697149 1.000000 0.070658
0.772489 1.000000 0.069653
0.847828 1.000000 0.068648
0.923168 1.000000 0.067644
0.998507 1.000000 0.066639
1.000000 1.000000 0.065635
1.000000 1.000000 0.064630
0.000000 1.000000 0.077324
0.015038 1.000000 0.076319
0.090377 1.000000 0.075315
0.165717 1.000000 0.074310
0.241057 1.000000 0.073305
0.316396 1.000000 0.072301
0.391736 1.000000 0.071296
0.467075 1.000000 0.070292
0.542415 1.000000 0.069287
0.617754 1.000000 0.068283
0.693094 1.000000 0.067278
0.768433 1.000000 0.066274
0.843773 1.000000 0.065269
0.919113 1.000000 0.064265
0.994452 1.000000 0.063260
1.000000 1.000000 0.062256
1.000000 1.000000 0.061251
0.004172 0.003940 0.194839
0.079511 0.002802 0.193835
0.154851 0.001663 0.192830
0.230191 0.000525 0.191825
0.305530 0.000000 0.190821
0.380870 0.000000 0.189816
0.456209 0.000000 0.188812
0.531549 0.000000 0.187807
0.606888 0.000000 0.186803
0.682228 0.000000 0.185798
0.757567 0.000000 0.184794
0.832907 0.000000 0.183789
0.908247 0.000000 0.182785
0.983586 0.000000 0.181780
1.000000 0.000000 0.180776
1.000000 0.000000 0.179771
1.000000 0.000000 0.178767
0.000117 0.072403 0.191460
0.075456 0.071264 0.190455
0.150796 0.070126 0.189451
