data/luts/warm.cube
TITLE "Warm"
LUT_3D_SIZE 9
0.005400 0.005100 0.004500
0.156079 0.002823 0.002491
0.306758 0.000546 0.000482
0.457437 0.000000 0.000000
0.608116 0.000000 0.000000
0.758796 0.000000 0.000000
0.909475 0.000000 0.000000
1.000000 0.000000 0.000000
1.000000 0.000000 0.000000
0.000000 0.142025 0.000000
0.147969 0.139748 0.000000
0.298648 0.137471 0.000000
0.449327 0.135194 0.000000
0.600006 0.132917 0.000000
0.750685 0.130640 0.000000
0.901364 0.128364 0.000000
1.000000 0.126087 0.000000
1.000000 0.123810 0.000000
0.000000 0.278950 0.000000
0.139858 0.276673 0.000000
0.290537 0.274397 0.000000
0.441217 0.272120 0.000000
0.591896 0.269843 0.000000
0.742575 0.267566 0.000000
0.893254 0.265289 0.000000
1.000000 0.263012 0.000000
1.000000 0.260735 0.000000
0.000000 0.415876 0.000000
0.131748 0.413599 0.000000
0.282427 0.411322 0.000000
0.433106 0.409045 0.000000
0.583785 0.406768 0.000000
0.734464 0.404491 0.000000
0.885144 0.402214 0.000000
1.000000 0.399937 0.000000
1.000000 0.397660 0.000000
0.000000 0.552801 0.000000
0.123638 0.550524 0.000000
0.274317 0.548247 0.000000
0.424996 0.545970 0.000000
0.575675 0.543693 0.000000
0.726354 0.541416 0.000000
0.877033 0.539139 0.000000
1.000000 0.536862 0.000000
1.000000 0.534585 0.000000
0.000000 0.689726 0.000000
0.115527 0.687449 0.000000
0.266206 0.685172 0.000000
0.416886 0.682895 0.000000
0.567565 0.680618 0.000000
0.718244 0.678341 0.000000
0.868923 0.676064 0.000000
1.000000 0.673787 0.000000
1.000000 0.671510 0.000000
0.000000 0.826651 0.000000
0.107417 0.824374 0.000000
0.258096 0.822097 0.000000
0.408775 0.819820 0.000000
0.559454 0.817543 0.000000
0.710133 0.815267 0.000000
0.860812 0.812990 0.000000
1.000000 0.810713 0.000000
1.000000 0.808436 0.000000
0.000000 0.963576 0.000000
0.099307 0.961300 0.000000
0.249986 0.959023 0.000000
0.400665 0.956746 0.000000
0.551344 0.954469 0.000000
0.702023 0.952192 0.000000
0.852702 0.949915 0.000000
1.000000 0.947638 0.000000
1.000000 0.945361 0.000000
0.000000 1.000000 0.000000
0.091196 1.000000 0.000000
0.241875 1.000000 0.000000
0.392554 1.000000 0.000000
0.543234 1.000000 0.000000
0.693913 1.000000 0.000000
0.844592 1.000000 0.000000
0.995271 1.000000 0.000000
1.000000 1.000000 0.000000
0.004581 0.004327 0.131393
0.155260 0.002050 0.129384
0.305939 0.000000 0.127375
0.456619 0.000000 0.125365
0.607298 0.000000 0.123356
0.757977 0.000000 0.121347
0.908656 0.000000 0.119338
1.000000 0.000000 0.117329
1.000000 0.000000 0.115320
0.000000 0.141252 0.124634
0.147150 0.138975 0.122625
0.297829 0.136698 0.120616
0.448508 0.134421 0.118607
0.599187 0.132144 0.116598
0.749866 0.129867 0.114589
0.900546 0.127590 0.112580
1.000000 0.125313 0.110571
1.000000 0.123036 0.108562
0.000000 0.278177 0.117875
0.139040 0.275900 0.115866
0.289719 0.273623 0.113857
0.440398 0.271346 0.111848
0.591077 0.269069 0.109839
0.741756 0.266792 0.107830
0.892435 0.264515 0.105821
1.000000 0.262239 0.103812
1.000000 0.259962 0.101803
0.000000 0.415102 0.111117
0.130929 0.412825 0.109108
0.281608 0.410548 0.107099
0.432287 0.408272 0.105090
0.582967 0.405995 0.103081
0.733646 0.403718 0.101071
0.884325 0.401441 0.099062
1.000000 0.399164 0.097053
1.000000 0.396887 0.095044
0.000000 0.552028 0.104358
0.122819 0.549751 0.102349
0.273498 0.547474 0.100340
0.424177 0.545197 0.098331
0.574856 0.542920 0.096322
0.725535 0.540643 0.094313
0.876214 0.538366 0.092304
1.000000 0.536089 0.090295
1.000000 0.533812 0.088286
0.000000 0.688953 0.097600
0.114709 0.686676 0.095590
0.265388 0.684399 0.093581
0.416067 0.682122 0.091572
0.566746 0.679845 0.089563
0.717425 0.677568 0.087554
0.868104 0.675291 0.085545
1.000000 0.673014 0.083536
1.000000 0.670737 0.081527
0.000000 0.825878 0.090841
0.106598 0.823601 0.088832
0.257277 0.821324 0.086823
0.407956 0.819047 0.084814
0.558636 0.816770 0.082805
0.709315 0.814493 0.080796
0.859994 0.812216 0.078786
1.000000 0.809939 0.076777
1.000000 0.807662 0.074768
0.000000 0.962803 0.084082
0.098488 0.960526 0.082073
0.249167 0.958249 0.080064
0.399846 0.955972 0.078055
0.550525 0.953695 0.076046
0.701204 0.951418 0.074037
0.851883 0.949142 0.072028
1.000000 0.946865 0.070019
1.000000 0.944588 0.068010
0.000000 1.000000 0.077324
0.090377 1.000000 0.075315
0.241057 1.000000 0.073305
0.391736 1.000000 0.071296
0.542415 1.000000 0.069287
0.693094 1.000000 0.067278
0.843773 1.000000 0.065269
0.994452 1.000000 0.063260
1.000000 1.000000 0.061251
0.003763 0.003553 0.258285
0.154442 0.001277 0.256276
0.305121 0.000000 0.254267
0.455800 0.000000 0.252258
0.606479 0.000000 0.250249
0.757158 0.000000 0.248240
0.907837 0.000000 0.246231
1.000000 0.000000 0.244222
1.000000 0.000000 0.242213
0.000000 0.140479 0.251527
0.146331 0.138202 0.249518
0.297010 0.135925 0.247509
0.447689 0.133648 0.245500
0.598369 0.131371 0.243491
0.749048 0.129094 0.241481
0.899727 0.126817 0.239472
1.000000 0.124540 0.237463
1.000000 0.122263 0.235454
0.000000 0.277404 0.244768
0.138221 0.275127 0.242759
0.288900 0.272850 0.240750
0.439579 0.270573 0.238741
0.590258 0.268296 0.236732
0.740937 0.266019 0.234723
0.891616 0.263742 0.232714
1.000000 0.261465 0.230705
1.000000 0.259188 0.228696
0.000000 0.414329 0.238010
0.130111 0.412052 0.236000
0.280790 0.409775 0.233991
0.431469 0.407498 0.231982
0.582148 0.405221 0.229973
0.732827 0.402944 0.227964
0.883506 0.400667 0.225955
1.000000 0.398390 0.223946
1.000000 0.396114 0.221937
0.000000 0.551254 0.231251
0.122000 0.548977 0.229242
0.272679 0.546700 0.227233
0.423358 0.544423 0.225224
0.574037 0.542147 0.223215
0.724717 0.539870 0.221206
0.875396 0.537593 0.219196
1.000000 0.535316 0.217187
1.000000 0.533039 0.215178
0.000000 0.688180 0.224492
0.113890 0.685903 0.222483
0.264569 0.683626 0.220474
0.415248 0.681349 0.218465
0.565927 0.679072 0.216456
0.716606 0.676795 0.214447
0.867285 0.674518 0.212438
1.000000 0.672241 0.210429
1.000000 0.669964 0.208420
0.000000 0.825105 0.217734
0.105779 0.822828 0.215725
0.256459 0.820551 0.213715
0.407138 0.818274 0.211706
0.557817 0.815997 0.209697
0.708496 0.813720 0.207688
0.859175 0.811443 0.205679
1.000000 0.809166 0.203670
1.000000 0.806889 0.201661
0.000000 0.962030 0.210975
0.097669 0.959753 0.208966
0.248348 0.957476 0.206957
0.399027 0.955199 0.204948
0.549706 0.952922 0.202939
0.700386 0.950645 0.200930
0.851065 0.948368 0.198921
1.000000 0.946091 0.196911
1.000000 0.943814 0.194902
0.000000 1.000000 0.204216
0.089559 1.000000 0.202207
0.240238 1.000000 0.200198
0.390917 1.000000 0.198189
0.541596 1.000000 0.196180
0.692275 1.000000 0.194171
0.842954 1.000000 0.192162
0.993633 1.000000 0.190153
1.000000 1.000000 0.188144
0.002944 0.002780 0.385178
0.153623 0.000503 0.383169
0.304302 0.000000 0.381160
0.454981 0.000000 0.379151
0.605660 0.000000 0.377142
0.756339 0.000000 0.375133
0.907018 0.000000 0.373124
1.000000 0.000000 0.371115
1.000000 0.000000 0.369106
0.000000 0.139705 0.378419
0.145513 0.137428 0.376410
0.296192 0.135152 0.374401
0.446871 0.132875 0.372392
0.597550 0.130598 0.370383
0.748229 0.128321 0.368374
0.898908 0.126044 0.366365
1.000000 0.123767 0.364356
1.000000 0.121490 0.362347
0.000000 0.276631 0.371661
0.137402 0.274354 0.369652
0.288081 0.272077 0.367643
0.438760 0.269800 0.365634
0.589439 0.267523 0.363625
0.740119 0.265246 0.361616
0.890798 0.262969 0.359606
1.000000 0.260692 0.357597
1.000000 0.258415 0.355588
0.000000 0.413556 0.364902
0.129292 0.411279 0.362893
0.279971 0.409002 0.360884
0.430650 0.406725 0.358875
0.581329 0.404448 0.356866
0.732008 0.402171 0.354857
0.882687 0.399894 0.352848
1.000000 0.397617 0.350839
1.000000 0.395340 0.348830
0.000000 0.550481 0.358144
0.121181 0.548204 0.356134
0.271861 0.545927 0.354125
0.422540 0.543650 0.352116
0.573219 0.541373 0.350107
0.723898 0.539096 0.348098
0.874577 0.536819 0.346089
1.000000 0.534542 0.344080
1.000000 0.532265 0.342071
0.000000 0.687406 0.351385
0.113071 0.685129 0.349376
0.263750 0.682852 0.347367
0.414429 0.680575 0.345358
0.565108 0.678298 0.343349
0.715787 0.676022 0.341340
0.866467 0.673745 0.339331
1.000000 0.671468 0.337321
1.000000 0.669191 0.335312
0.000000 0.824331 0.344626
0.104961 0.822055 0.342617
0.255640 0.819778 0.340608
0.406319 0.817501 0.338599
0.556998 0.815224 0.336590
0.707677 0.812947 0.334581
0.858356 0.810670 0.332572
1.000000 0.808393 0.330563
1.000000 0.806116 0.328554
0.000000 0.961257 0.337868
0.096850 0.958980 0.335859
0.247529 0.956703 0.333850
0.398209 0.954426 0.331840
0.548888 0.952149 0.329831
0.699567 0.949872 0.327822
0.850246 0.947595 0.325813
1.000000 0.945318 0.323804
1.000000 0.943041 0.321795
0.000000 1.000000 0.331109
0.088740 1.000000 0.329100
0.239419 1.000000 0.327091
0.390098 1.000000 0.325082
0.540777 1.000000 0.323073
0.691456 1.000000 0.321064
0.842136 1.000000 0.319055
0.992815 1.000000 0.317046
1.000000 1.000000 0.315036
0.002125 0.002007 0.512071
0.152804 0.000000 0.510062
0.303483 0.000000 0.508053
0.454162 0.000000 0.506044
0.604841 0.000000 0.504035
0.755521 0.000000 0.502025
0.906200 0.000000 0.500016
1.000000 0.000000 0.498007
1.000000 0.000000 0.495998
0.000000 0.138932 0.505312
0.144694 0.136655 0.503303
0.295373 0.134378 0.501294
0.446052 0.132101 0.499285
0.596731 0.129824 0.497276
0.747410 0.127547 0.495267
0.898089 0.125270 0.493258
1.000000 0.122994 0.491249
1.000000 0.120717 0.489240
0.000000 0.275857 0.498554
0.136583 0.273580 0.496544
0.287263 0.271303 0.494535
0.437942 0.269027 0.492526
0.588621 0.266750 0.490517
0.739300 0.264473 0.488508
0.889979 0.262196 0.486499
1.000000 0.259919 0.484490
1.000000 0.257642 0.482481
0.000000 0.412783 0.491795
0.128473 0.410506 0.489786
0.279152 0.408229 0.487777
0.429831 0.405952 0.485768
0.580510 0.403675 0.483759
0.731189 0.401398 0.481750
0.881869 0.399121 0.479741
1.000000 0.396844 0.477731
1.000000 0.394567 0.475722
0.000000 0.549708 0.485036
0.120363 0.547431 0.483027
0.271042 0.545154 0.481018
0.421721 0.542877 0.479009
0.572400 0.540600 0.477000
0.723079 0.538323 0.474991
0.873758 0.536046 0.472982
1.000000 0.533769 0.470973
1.000000 0.531492 0.468964
0.000000 0.686633 0.478278
0.112252 0.684356 0.476269
0.262931 0.682079 0.474259
0.413611 0.679802 0.472250
0.564290 0.677525 0.470241
0.714969 0.675248 0.468232
0.865648 0.672971 0.466223
1.000000 0.670694 0.464214
1.000000 0.668417 0.462205
0.000000 0.823558 0.471519
0.104142 0.821281 0.469510
0.254821 0.819004 0.467501
0.405500 0.816727 0.465492
0.556179 0.814450 0.463483
0.706858 0.812173 0.461474
0.857537 0.809897 0.459465
1.000000 0.807620 0.457456
1.000000 0.805343 0.455446
0.000000 0.960483 0.464760
0.096032 0.958206 0.462751
0.246711 0.955930 0.460742
0.397390 0.953653 0.458733
0.548069 0.951376 0.456724
0.698748 0.949099 0.454715
0.849427 0.946822 0.452706
1.000000 0.944545 0.450697
1.000000 0.942268 0.448688
0.000000 1.000000 0.458002
0.087921 1.000000 0.455993
0.238600 1.000000 0.453984
0.389279 1.000000 0.451975
0.539959 1.000000 0.449965
0.690638 1.000000 0.447956
0.841317 1.000000 0.445947
0.991996 1.000000 0.443938
1.000000 1.000000 0.441929
0.001306 0.001234 0.638964
0.151985 0.000000 0.636954
0.302664 0.000000 0.634945
0.453344 0.000000 0.632936
0.604023 0.000000 0.630927
0.754702 0.000000 0.628918
0.905381 0.000000 0.626909
1.000000 0.000000 0.624900
1.000000 0.000000 0.622891
0.000000 0.138159 0.632205
0.143875 0.135882 0.630196
0.294554 0.133605 0.628187
0.445233 0.131328 0.626178
0.595912 0.129051 0.624169
0.746591 0.126774 0.622160
0.897271 0.124497 0.620150
1.000000 0.122220 0.618141
1.000000 0.119943 0.616132
0.000000 0.275084 0.625446
0.135765 0.272807 0.623437
0.286444 0.270530 0.621428
0.437123 0.268253 0.619419
0.587802 0.265976 0.617410
0.738481 0.263699 0.615401
0.889160 0.261422 0.613392
1.000000 0.259145 0.611383
1.000000 0.256869 0.609374
0.000000 0.412009 0.618688
0.127654 0.409732 0.616679
0.278333 0.407455 0.614669
0.429013 0.405178 0.612660
0.579692 0.402902 0.610651
0.730371 0.400625 0.608642
0.881050 0.398348 0.606633
1.000000 0.396071 0.604624
1.000000 0.393794 0.602615
0.000000 0.548935 0.611929
0.119544 0.546658 0.609920
0.270223 0.544381 0.607911
0.420902 0.542104 0.605902
0.571581 0.539827 0.603893
0.722260 0.537550 0.601884
0.872939 0.535273 0.599875
1.000000 0.532996 0.597865
1.000000 0.530719 0.595856
0.000000 0.685860 0.605170
0.111434 0.683583 0.603161
0.262113 0.681306 0.601152
0.412792 0.679029 0.599143
0.563471 0.676752 0.597134
0.714150 0.674475 0.595125
0.864829 0.672198 0.593116
1.000000 0.669921 0.591107
1.000000 0.667644 0.589098
0.000000 0.822785 0.598412
0.103323 0.820508 0.596403
0.254002 0.818231 0.594394
0.404681 0.815954 0.592385
0.555361 0.813677 0.590375
0.706040 0.811400 0.588366
0.856719 0.809123 0.586357
1.000000 0.806846 0.584348
1.000000 0.804569 0.582339
0.000000 0.959710 0.591653
0.095213 0.957433 0.589644
0.245892 0.955156 0.587635
0.396571 0.952879 0.585626
0.547250 0.950602 0.583617
0.697929 0.948325 0.581608
0.848608 0.946048 0.579599
0.999287 0.943772 0.577590
1.000000 0.941495 0.575581
0.000000 1.000000 0.584894
0.087102 1.000000 0.582885
0.237782 1.000000 0.580876
0.388461 1.000000 0.578867
0.539140 1.000000 0.576858
0.689819 1.000000 0.574849
0.840498 1.000000 0.572840
0.991177 1.000000 0.570831
1.000000 1.000000 0.568822
0.000488 0.000460 0.765856
0.151167 0.000000 0.763847
0.301846 0.000000 0.761838
0.452525 0.000000 0.759829
0.603204 0.000000 0.757820
0.753883 0.000000 0.755811
0.904562 0.000000 0.753802
1.000000 0.000000 0.751793
1.000000 0.000000 0.749784
0.000000 0.137386 0.759098
0.143056 0.135109 0.757089
0.293735 0.132832 0.755079
0.444414 0.130555 0.753070
0.595094 0.128278 0.751061
0.745773 0.126001 0.749052
0.896452 0.123724 0.747043
1.000000 0.121447 0.745034
1.000000 0.119170 0.743025
0.000000 0.274311 0.752339
0.134946 0.272034 0.750330
0.285625 0.269757 0.748321
0.436304 0.267480 0.746312
0.586983 0.265203 0.744303
0.737662 0.262926 0.742294
0.888341 0.260649 0.740285
1.000000 0.258372 0.738275
1.000000 0.256095 0.736266
0.000000 0.411236 0.745580
0.126836 0.408959 0.743571
0.277515 0.406682 0.741562
0.428194 0.404405 0.739553
0.578873 0.402128 0.737544
0.729552 0.399851 0.735535
0.880231 0.397574 0.733526
1.000000 0.395297 0.731517
1.000000 0.393020 0.729508
0.000000 0.548161 0.738822
0.118725 0.545884 0.736813
0.269404 0.543607 0.734804
0.420083 0.541330 0.732794
0.570763 0.539053 0.730785
0.721442 0.536777 0.728776
0.872121 0.534500 0.726767
1.000000 0.532223 0.724758
1.000000 0.529946 0.722749
0.000000 0.685086 0.732063
0.110615 0.682810 0.730054
0.261294 0.680533 0.728045
0.411973 0.678256 0.726036
0.562652 0.675979 0.724027
0.713331 0.673702 0.722018
0.864010 0.671425 0.720009
1.000000 0.669148 0.718000
1.000000 0.666871 0.715990
0.000000 0.822012 0.725304
0.102504 0.819735 0.723295
0.253184 0.817458 0.721286
0.403863 0.815181 0.719277
0.554542 0.812904 0.717268
0.705221 0.810627 0.715259
0.855900 0.808350 0.713250
1.000000 0.806073 0.711241
1.000000 0.803796 0.709232
0.000000 0.958937 0.718546
0.094394 0.956660 0.716537
0.245073 0.954383 0.714528
0.395752 0.952106 0.712519
0.546431 0.949829 0.710510
0.697111 0.947552 0.708500
0.847790 0.945275 0.706491
0.998469 0.942998 0.704482
1.000000 0.940721 0.702473
0.000000 1.000000 0.711787
0.086284 1.000000 0.709778
0.236963 1.000000 0.707769
0.387642 1.000000 0.705760
0.538321 1.000000 0.703751
0.689000 1.000000 0.701742
0.839679 1.000000 0.699733
0.990358 1.000000 0.697724
1.000000 1.000000 0.695715
0.000000 0.000000 0.892749
0.150348 0.000000 0.890740
0.301027 0.000000 0.888731
0.451706 0.000000 0.886722
0.602385 0.000000 0.884713
0.753064 0.000000 0.882704
0.903743 0.000000 0.880695
1.000000 0.000000 0.878685
1.000000 0.000000 0.876676
0.000000 0.136612 0.885990
0.142238 0.134335 0.883981
0.292917 0.132058 0.881972
0.443596 0.129782 0.879963
0.594275 0.127505 0.877954
0.744954 0.125228 0.875945
0.895633 0.122951 0.873936
1.000000 0.120674 0.871927
1.000000 0.118397 0.869918
0.000000 0.273538 0.879232
0.134127 0.271261 0.877223
0.284806 0.268984 0.875214
0.435485 0.266707 0.873204
0.586164 0.264430 0.871195
0.736844 0.262153 0.869186
0.887523 0.259876 0.867177
1.000000 0.257599 0.865168
1.000000 0.255322 0.863159
0.000000 0.410463 0.872473
0.126017 0.408186 0.870464
0.276696 0.405909 0.868455
0.427375 0.403632 0.866446
0.578054 0.401355 0.864437
0.728733 0.399078 0.862428
0.879412 0.396801 0.860419
1.000000 0.394524 0.858410
1.000000 0.392247 0.856400
0.000000 0.547388 0.865714
0.117906 0.545111 0.863705
0.268586 0.542834 0.861696
0.419265 0.540557 0.859687
0.569944 0.538280 0.857678
0.720623 0.536003 0.855669
0.871302 0.533726 0.853660
1.000000 0.531449 0.851651
1.000000 0.529172 0.849642
0.000000 0.684313 0.858956
0.109796 0.682036 0.856947
0.260475 0.679759 0.854938
0.411154 0.677482 0.852929
0.561833 0.675205 0.850919
0.712513 0.672928 0.848910
0.863192 0.670652 0.846901
1.000000 0.668375 0.844892
1.000000 0.666098 0.842883
0.000000 0.821238 0.852197
0.101686 0.818961 0.850188
0.252365 0.816685 0.848179
0.403044 0.814408 0.846170
0.553723 0.812131 0.844161
0.704402 0.809854 0.842152
0.855081 0.807577 0.840143
1.000000 0.805300 0.838134
1.000000 0.803023 0.836125
0.000000 0.958164 0.845438
0.093575 0.955887 0.843429
0.244254 0.953610 0.841420
0.394934 0.951333 0.839411
0.545613 0.949056 0.837402
0.696292 0.946779 0.835393
0.846971 0.944502 0.833384
0.997650 0.942225 0.831375
1.000000 0.939948 0.829366
0.000000 1.000000 0.838680
0.085465 1.000000 0.836671
0.236144 1.000000 0.834662
0.386823 1.000000 0.832653
0.537502 1.000000 0.830644
0.688181 1.000000 0.828635
0.838861 1.000000 0.826625
0.989540 1.000000 0.824616
1.000000 1.000000 0.822607
0.000000 0.000000 1.000000
0.149529 0.000000 1.000000
0.300208 0.000000 1.000000
0.450887 0.000000 1.000000
0.601566 0.000000 1.000000
0.752246 0.000000 1.000000
0.902925 0.000000 1.000000
1.000000 0.000000 1.000000
1.000000 0.000000 1.000000
0.000000 0.135839 1.000000
0.141419 0.133562 1.000000
0.292098 0.131285 1.000000
0.442777 0.129008 1.000000
0.593456 0.126731 1.000000
0.744135 0.124454 1.000000
0.894814 0.122177 1.000000
1.000000 0.119900 0.998820
1.000000 0.117624 0.996810
0.000000 0.272764 1.000000
0.133308 0.270487 1.000000
0.283988 0.268210 1.000000
0.434667 0.265933 1.000000
0.585346 0.263657 0.998088
0.736025 0.261380 0.996079
0.886704 0.259103 0.994070
1.000000 0.256826 0.992061
1.000000 0.254549 0.990052
0.000000 0.409690 0.999366
0.125198 0.407413 0.997357
0.275877 0.405136 0.995348
0.426556 0.402859 0.993339
0.577235 0.400582 0.991329
0.727914 0.398305 0.989320
0.878594 0.396028 0.987311
1.000000 0.393751 0.985302
1.000000 0.391474 0.983293
0.000000 0.546615 0.992607
0.117088 0.544338 0.990598
0.267767 0.542061 0.988589
0.418446 0.539784 0.986580
0.569125 0.537507 0.984571
0.719804 0.535230 0.982562
0.870483 0.532953 0.980553
1.000000 0.530676 0.978544
1.000000 0.528399 0.976535
0.000000 0.683540 0.985848
0.108977 0.681263 0.983839
0.259656 0.678986 0.981830
0.410336 0.676709 0.979821
0.561015 0.674432 0.977812
0.711694 0.672155 0.975803
0.862373 0.669878 0.973794
1.000000 0.667601 0.971785
1.000000 0.665324 0.969776
0.000000 0.820465 0.979090
0.100867 0.818188 0.977081
0.251546 0.815911 0.975072
0.402225 0.813634 0.973063
0.552904 0.811357 0.971054
0.703583 0.809080 0.969044
0.854263 0.806803 0.967035
1.000000 0.804527 0.965026
1.000000 0.802250 0.963017
0.000000 0.957390 0.972331
0.092757 0.955113 0.970322
0.243436 0.952836 0.968313
0.394115 0.950560 0.966304
0.544794 0.948283 0.964295
0.695473 0.946006 0.962286
0.846152 0.943729 0.960277
0.996831 0.941452 0.958268
1.000000 0.939175 0.956259
0.000000 1.000000 0.965573
0.084646 1.000000 0.963563
0.235325 1.000000 0.961554
0.386004 1.000000 0.959545
0.536684 1.000000 0.957536
0.687363 1.000000 0.955527
0.838042 1.000000 0.953518
0.988721 1.000000 0.951509
1.000000 1.000000 0.949500
