data/luts/warm.cube
TITLE "Warm"
LUT_3D_SIZE 5
0.005400 0.005100 0.004500
0.306758 0.000546 0.000482
0.608116 0.000000 0.000000
0.909475 0.000000 0.000000
1.000000 0.000000 0.000000
0.000000 0.278950 0.000000
0.290537 0.274397 0.000000
0.591896 0.269843 0.000000
0.893254 0.265289 0.000000
1.000000 0.260735 0.000000
0.000000 0.552801 0.000000
0.274317 0.548247 0.000000
0.575675 0.543693 0.000000
0.877033 0.539139 0.000000
1.000000 0.534585 0.000000
0.000000 0.826651 0.000000
0.258096 0.822097 0.000000
0.559454 0.817543 0.000000
0.860812 0.812990 0.000000
1.000000 0.808436 0.000000
0.000000 1.000000 0.000000
0.241875 1.000000 0.000000
0.543234 1.000000 0.000000
0.844592 1.000000 0.000000
1.000000 1.000000 0.000000
0.003763 0.003553 0.258285
0.305121 0.000000 0.254267
0.606479 0.000000 0.250249
0.907837 0.000000 0.246231
1.000000 0.000000 0.242213
0.000000 0.277404 0.244768
0.288900 0.272850 0.240750
0.590258 0.268296 0.236732
0.891616 0.263742 0.232714
1.000000 0.259188 0.228696
0.000000 0.551254 0.231251
0.272679 0.546700 0.227233
0.574037 0.542147 0.223215
0.875396 0.537593 0.219196
1.000000 0.533039 0.215178
0.000000 0.825105 0.217734
0.256459 0.820551 0.213715
0.557817 0.815997 0.209697
0.859175 0.811443 0.205679
1.000000 0.806889 0.201661
0.000000 1.000000 0.204216
0.240238 1.000000 0.200198
0.541596 1.000000 0.196180
0.842954 1.000000 0.192162
1.000000 1.000000 0.188144
0.002125 0.002007 0.512071
0.303483 0.000000 0.508053
0.604841 0.000000 0.504035
0.906200 0.000000 0.500016
1.000000 0.000000 0.495998
0.000000 0.275857 0.498554
0.287263 0.271303 0.494535
0.588621 0.266750 0.490517
0.889979 0.262196 0.486499
1.000000 0.257642 0.482481
0.000000 0.549708 0.485036
0.271042 0.545154 0.481018
0.572400 0.540600 0.477000
0.873758 0.536046 0.472982
1.000000 0.531492 0.468964
0.000000 0.823558 0.471519
0.254821 0.819004 0.467501
0.556179 0.814450 0.463483
0.857537 0.809897 0.459465
1.000000 0.805343 0.455446
0.000000 1.000000 0.458002
0.238600 1.000000 0.453984
0.539959 1.000000 0.449965
0.841317 1.000000 0.445947
1.000000 1.000000 0.441929
0.000488 0.000460 0.765856
0.301846 0.000000 0.761838
0.603204 0.000000 0.757820
0.904562 0.000000 0.753802
1.000000 0.000000 0.749784
0.000000 0.274311 0.752339
0.285625 0.269757 0.748321
0.586983 0.265203 0.744303
0.888341 0.260649 0.740285
1.000000 0.256095 0.736266
0.000000 0.548161 0.738822
0.269404 0.543607 0.734804
0.570763 0.539053 0.730785
0.872121 0.534500 0.726767
1.000000 0.529946 0.722749
0.000000 0.822012 0.725304
0.253184 0.817458 0.721286
0.554542 0.812904 0.717268
0.855900 0.808350 0.713250
1.000000 0.803796 0.709232
0.000000 1.000000 0.711787
0.236963 1.000000 0.707769
0.538321 1.000000 0.703751
0.839679 1.000000 0.699733
1.000000 1.000000 0.695715
0.000000 0.000000 1.000000
0.300208 0.000000 1.000000
0.601566 0.000000 1.000000
0.902925 0.000000 1.000000
1.000000 0.000000 1.000000
0.000000 0.272764 1.000000
0.283988 0.268210 1.000000
0.585346 0.263657 0.998088
0.886704 0.259103 0.994070
1.000000 0.254549 0.990052
0.000000 0.546615 0.992607
0.267767 0.542061 0.988589
0.569125 0.537507 0.984571
0.870483 0.532953 0.980553
1.000000 0.528399 0.976535
0.000000 0.820465 0.979090
0.251546 0.815911 0.975072
0.552904 0.811357 0.971054
0.854263 0.806803 0.967035
1.000000 0.802250 0.963017
0.000000 1.000000 0.965573
0.235325 1.000000 0.961554
0.536684 1.000000 0.957536
0.838042 1.000000 0.953518
1.000000 1.000000 0.949500
